P3
400 225
255
209 229 255
208 229 255
208 229 255
208 229 255
208 229 255
208 229 255
208 229 255
208 229 255
208 228 255
208 228 255
208 228 255
208 228 255
208 228 255
208 228 255
208 228 255
208 228 255
208 228 255
208 228 255
208 228 255
208 228 255
207 228 255
207 228 255
207 228 255
207 228 255
207 228 255
207 228 255
207 228 255
207 228 255
207 228 255
207 228 255
207 228 255
207 228 255
207 228 255
207 228 255
207 228 255
207 228 255
207 228 255
207 228 255
206 228 255
206 228 255
206 228 255
206 228 255
206 227 255
206 227 255
206 227 255
206 227 255
206 227 255
206 227 255
206 227 255
206 227 255
206 227 255
206 227 255
206 227 255
206 227 255
205 227 255
205 227 255
205 227 255
205 227 255
205 227 255
205 227 255
205 227 255
205 227 255
205 227 255
205 227 255
205 227 255
205 227 255
205 227 255
205 227 255
205 227 255
205 227 255
204 227 255
204 227 255
204 226 255
204 226 255
204 226 255
204 226 255
204 226 255
204 226 255
204 226 255
204 226 255
204 226 255
204 226 255
204 226 255
204 226 255
204 226 255
204 226 255
203 226 255
203 226 255
203 226 255
203 226 255
203 226 255
203 226 255
203 226 255
203 226 255
203 226 255
203 226 255
203 226 255
203 226 255
203 226 255
203 226 255
203 226 255
202 225 255
202 225 255
202 225 255
202 225 255
202 225 255
202 225 255
202 225 255
202 225 255
202 225 255
202 225 255
202 225 255
202 225 255
202 225 255
202 225 255
202 225 255
202 225 255
201 225 255
201 225 255
201 225 255
201 225 255
201 225 255
201 225 255
201 225 255
201 225 255
201 225 255
201 225 255
201 225 255
201 225 255
201 225 255
201 225 255
201 225 255
201 224 255
201 224 255
200 224 255
200 224 255
200 224 255
200 224 255
200 224 255
200 224 255
200 224 255
200 224 255
200 224 255
200 224 255
200 224 255
200 224 255
200 224 255
200 224 255
200 224 255
200 224 255
200 224 255
200 224 255
200 224 255
199 224 255
199 224 255
199 224 255
199 224 255
199 224 255
199 224 255
199 224 255
199 224 255
199 224 255
199 224 255
199 224 255
199 224 255
199 224 255
199 224 255
199 224 255
199 224 255
199 224 255
199 224 255
199 224 255
199 224 255
199 224 255
199 224 255
199 223 255
199 223 255
199 223 255
199 223 255
199 223 255
199 223 255
199 223 255
199 223 255
198 223 255
198 223 255
198 223 255
198 223 255
198 223 255
198 223 255
198 223 255
198 223 255
198 223 255
198 223 255
198 223 255
198 223 255
198 223 255
198 223 255
198 223 255
198 223 255
198 223 255
198 223 255
198 223 255
198 223 255
198 223 255
198 223 255
198 223 255
198 223 255
198 223 255
198 223 255
198 223 255
198 223 255
198 223 255
198 223 255
198 223 255
198 223 255
198 223 255
198 223 255
199 223 255
199 223 255
199 223 255
199 223 255
199 223 255
199 223 255
199 223 255
199 223 255
199 224 255
199 224 255
199 224 255
199 224 255
199 224 255
199 224 255
199 224 255
199 224 255
199 224 255
199 224 255
199 224 255
199 224 255
199 224 255
199 224 255
199 224 255
199 224 255
199 224 255
199 224 255
199 224 255
199 224 255
199 224 255
199 224 255
200 224 255
200 224 255
200 224 255
200 224 255
200 224 255
200 224 255
200 224 255
200 224 255
200 224 255
200 224 255
200 224 255
200 224 255
200 224 255
200 224 255
200 224 255
200 224 255
200 224 255
200 224 255
200 224 255
200 224 255
201 224 255
201 225 255
201 225 255
201 225 255
201 225 255
201 225 255
201 225 255
201 225 255
201 225 255
201 225 255
201 225 255
201 225 255
201 225 255
201 225 255
201 225 255
201 225 255
202 225 255
202 225 255
202 225 255
202 225 255
202 225 255
202 225 255
202 225 255
202 225 255
202 225 255
202 225 255
202 225 255
202 225 255
202 225 255
202 225 255
202 225 255
202 225 255
203 226 255
203 226 255
203 226 255
203 226 255
203 226 255
203 226 255
203 226 255
203 226 255
203 226 255
203 226 255
203 226 255
203 226 255
203 226 255
203 226 255
203 226 255
204 226 255
204 226 255
204 226 255
204 226 255
204 226 255
204 226 255
204 226 255
204 226 255
204 226 255
204 226 255
204 226 255
204 226 255
204 226 255
204 226 255
204 227 255
204 227 255
205 227 255
205 227 255
205 227 255
205 227 255
205 227 255
205 227 255
205 227 255
205 227 255
205 227 255
205 227 255
205 227 255
205 227 255
205 227 255
205 227 255
205 227 255
205 227 255
206 227 255
206 227 255
206 227 255
206 227 255
206 227 255
206 227 255
206 227 255
206 227 255
206 227 255
206 227 255
206 227 255
206 227 255
206 228 255
206 228 255
206 228 255
206 228 255
207 228 255
207 228 255
207 228 255
207 228 255
207 228 255
207 228 255
207 228 255
207 228 255
207 228 255
207 228 255
207 228 255
207 228 255
207 228 255
207 228 255
207 228 255
207 228 255
207 228 255
207 228 255
208 228 255
208 228 255
208 228 255
208 228 255
208 228 255
208 228 255
208 228 255
208 228 255
208 228 255
208 228 255
208 228 255
208 228 255
208 229 255
208 229 255
208 229 255
208 229 255
208 229 255
208 229 255
208 229 255
209 229 255
209 229 255
209 229 255
209 229 255
208 229 255
208 229 255
208 229 255
208 229 255
208 229 255
208 229 255
208 229 255
208 228 255
208 228 255
208 228 255
208 228 255
208 228 255
208 228 255
208 228 255
208 228 255
208 228 255
208 228 255
208 228 255
208 228 255
207 228 255
207 228 255
207 228 255
207 228 255
207 228 255
207 228 255
207 228 255
207 228 255
207 228 255
207 228 255
207 228 255
207 228 255
207 228 255
207 228 255
207 228 255
207 228 255
207 228 255
207 228 255
206 228 255
206 228 255
206 228 255
206 228 255
206 227 255
206 227 255
206 227 255
206 227 255
206 227 255
206 227 255
206 227 255
206 227 255
206 227 255
206 227 255
206 227 255
206 227 255
205 227 255
205 227 255
205 227 255
205 227 255
205 227 255
205 227 255
205 227 255
205 227 255
205 227 255
205 227 255
205 227 255
205 227 255
205 227 255
205 227 255
205 227 255
205 227 255
204 227 255
204 227 255
204 226 255
204 226 255
204 226 255
204 226 255
204 226 255
204 226 255
204 226 255
204 226 255
204 226 255
204 226 255
204 226 255
204 226 255
204 226 255
204 226 255
203 226 255
203 226 255
203 226 255
203 226 255
203 226 255
203 226 255
203 226 255
203 226 255
203 226 255
203 226 255
203 226 255
203 226 255
203 226 255
203 226 255
203 226 255
202 225 255
202 225 255
202 225 255
202 225 255
202 225 255
202 225 255
202 225 255
202 225 255
202 225 255
202 225 255
202 225 255
202 225 255
202 225 255
202 225 255
202 225 255
202 225 255
201 225 255
201 225 255
201 225 255
201 225 255
201 225 255
201 225 255
201 225 255
201 225 255
201 225 255
201 225 255
201 225 255
201 225 255
201 225 255
201 225 255
201 225 255
201 224 255
201 224 255
200 224 255
200 224 255
200 224 255
200 224 255
200 224 255
200 224 255
200 224 255
200 224 255
200 224 255
200 224 255
200 224 255
200 224 255
200 224 255
200 224 255
200 224 255
200 224 255
200 224 255
200 224 255
200 224 255
200 224 255
199 224 255
199 224 255
199 224 255
199 224 255
199 224 255
199 224 255
199 224 255
199 224 255
199 224 255
199 224 255
199 224 255
199 224 255
199 224 255
199 224 255
199 224 255
199 224 255
199 224 255
199 224 255
199 224 255
199 224 255
199 224 255
199 224 255
199 224 255
199 224 255
199 223 255
199 223 255
199 223 255
199 223 255
199 223 255
199 223 255
199 223 255
199 223 255
199 223 255
199 223 255
199 223 255
199 223 255
199 223 255
199 223 255
198 223 255
198 223 255
198 223 255
198 223 255
198 223 255
198 223 255
198 223 255
198 223 255
198 223 255
198 223 255
198 223 255
198 223 255
198 223 255
198 223 255
199 223 255
199 223 255
199 223 255
199 223 255
199 223 255
199 223 255
199 223 255
199 223 255
199 223 255
199 223 255
199 223 255
199 224 255
199 224 255
199 224 255
199 224 255
199 224 255
199 224 255
199 224 255
199 224 255
199 224 255
199 224 255
199 224 255
199 224 255
199 224 255
199 224 255
199 224 255
199 224 255
199 224 255
199 224 255
199 224 255
199 224 255
199 224 255
199 224 255
199 224 255
199 224 255
199 224 255
200 224 255
200 224 255
200 224 255
200 224 255
200 224 255
200 224 255
200 224 255
200 224 255
200 224 255
200 224 255
200 224 255
200 224 255
200 224 255
200 224 255
200 224 255
200 224 255
200 224 255
200 224 255
200 224 255
200 224 255
201 224 255
201 224 255
201 225 255
201 225 255
201 225 255
201 225 255
201 225 255
201 225 255
201 225 255
201 225 255
201 225 255
201 225 255
201 225 255
201 225 255
201 225 255
201 225 255
201 225 255
202 225 255
202 225 255
202 225 255
202 225 255
202 225 255
202 225 255
202 225 255
202 225 255
202 225 255
202 225 255
202 225 255
202 225 255
202 225 255
202 225 255
202 225 255
202 225 255
203 226 255
203 226 255
203 226 255
203 226 255
203 226 255
203 226 255
203 226 255
203 226 255
203 226 255
203 226 255
203 226 255
203 226 255
203 226 255
203 226 255
203 226 255
204 226 255
204 226 255
204 226 255
204 226 255
204 226 255
204 226 255
204 226 255
204 226 255
204 226 255
204 226 255
204 226 255
204 226 255
204 226 255
204 226 255
204 227 255
204 227 255
205 227 255
205 227 255
205 227 255
205 227 255
205 227 255
205 227 255
205 227 255
205 227 255
205 227 255
205 227 255
205 227 255
205 227 255
205 227 255
205 227 255
205 227 255
206 227 255
206 227 255
206 227 255
206 227 255
206 227 255
206 227 255
206 227 255
206 227 255
206 227 255
206 227 255
206 227 255
206 227 255
206 227 255
206 228 255
206 228 255
206 228 255
206 228 255
207 228 255
207 228 255
207 228 255
207 228 255
207 228 255
207 228 255
207 228 255
207 228 255
207 228 255
207 228 255
207 228 255
207 228 255
207 228 255
207 228 255
207 228 255
207 228 255
207 228 255
207 228 255
208 228 255
208 228 255
208 228 255
208 228 255
208 228 255
208 228 255
208 228 255
208 228 255
208 228 255
208 228 255
208 228 255
208 228 255
208 229 255
208 229 255
208 229 255
208 229 255
208 229 255
208 229 255
208 229 255
209 229 255
209 229 255
209 229 255
209 229 255
209 229 255
209 229 255
209 229 255
209 229 255
209 229 255
208 229 255
208 229 255
208 229 255
208 229 255
208 229 255
208 229 255
208 229 255
208 228 255
208 228 255
208 228 255
208 228 255
208 228 255
208 228 255
208 228 255
208 228 255
208 228 255
208 228 255
208 228 255
208 228 255
207 228 255
207 228 255
207 228 255
207 228 255
207 228 255
207 228 255
207 228 255
207 228 255
207 228 255
207 228 255
207 228 255
207 228 255
207 228 255
207 228 255
207 228 255
207 228 255
207 228 255
206 228 255
206 228 255
206 228 255
206 228 255
206 227 255
206 227 255
206 227 255
206 227 255
206 227 255
206 227 255
206 227 255
206 227 255
206 227 255
206 227 255
206 227 255
206 227 255
206 227 255
205 227 255
205 227 255
205 227 255
205 227 255
205 227 255
205 227 255
205 227 255
205 227 255
205 227 255
205 227 255
205 227 255
205 227 255
205 227 255
205 227 255
205 227 255
204 227 255
204 227 255
204 226 255
204 226 255
204 226 255
204 226 255
204 226 255
204 226 255
204 226 255
204 226 255
204 226 255
204 226 255
204 226 255
204 226 255
204 226 255
204 226 255
203 226 255
203 226 255
203 226 255
203 226 255
203 226 255
203 226 255
203 226 255
203 226 255
203 226 255
203 226 255
203 226 255
203 226 255
203 226 255
203 226 255
203 226 255
202 225 255
202 225 255
202 225 255
202 225 255
202 225 255
202 225 255
202 225 255
202 225 255
202 225 255
202 225 255
202 225 255
202 225 255
202 225 255
202 225 255
202 225 255
202 225 255
201 225 255
201 225 255
201 225 255
201 225 255
201 225 255
201 225 255
201 225 255
201 225 255
201 225 255
201 225 255
201 225 255
201 225 255
201 225 255
201 225 255
201 225 255
201 224 255
201 224 255
200 224 255
200 224 255
200 224 255
200 224 255
200 224 255
200 224 255
200 224 255
200 224 255
200 224 255
200 224 255
200 224 255
200 224 255
200 224 255
200 224 255
200 224 255
200 224 255
200 224 255
200 224 255
200 224 255
200 224 255
200 224 255
199 224 255
199 224 255
199 224 255
199 224 255
199 224 255
199 224 255
199 224 255
199 224 255
199 224 255
199 224 255
199 224 255
199 224 255
199 224 255
199 224 255
199 224 255
199 224 255
199 224 255
199 224 255
199 224 255
199 224 255
199 224 255
199 224 255
199 224 255
199 224 255
199 224 255
199 224 255
199 224 255
199 224 255
199 223 255
199 223 255
199 223 255
199 223 255
199 223 255
199 223 255
199 223 255
199 223 255
199 223 255
199 223 255
199 223 255
199 223 255
199 223 255
199 223 255
199 223 255
199 223 255
199 223 255
199 223 255
199 223 255
199 223 255
199 223 255
199 223 255
199 223 255
199 223 255
199 223 255
199 224 255
199 224 255
199 224 255
199 224 255
199 224 255
199 224 255
199 224 255
199 224 255
199 224 255
199 224 255
199 224 255
199 224 255
199 224 255
199 224 255
199 224 255
199 224 255
199 224 255
199 224 255
199 224 255
199 224 255
199 224 255
199 224 255
199 224 255
199 224 255
199 224 255
199 224 255
199 224 255
199 224 255
199 224 255
200 224 255
200 224 255
200 224 255
200 224 255
200 224 255
200 224 255
200 224 255
200 224 255
200 224 255
200 224 255
200 224 255
200 224 255
200 224 255
200 224 255
200 224 255
200 224 255
200 224 255
200 224 255
200 224 255
200 224 255
200 224 255
201 224 255
201 224 255
201 225 255
201 225 255
201 225 255
201 225 255
201 225 255
201 225 255
201 225 255
201 225 255
201 225 255
201 225 255
201 225 255
201 225 255
201 225 255
201 225 255
201 225 255
202 225 255
202 225 255
202 225 255
202 225 255
202 225 255
202 225 255
202 225 255
202 225 255
202 225 255
202 225 255
202 225 255
202 225 255
202 225 255
202 225 255
202 225 255
202 225 255
203 226 255
203 226 255
203 226 255
203 226 255
203 226 255
203 226 255
203 226 255
203 226 255
203 226 255
203 226 255
203 226 255
203 226 255
203 226 255
203 226 255
203 226 255
204 226 255
204 226 255
204 226 255
204 226 255
204 226 255
204 226 255
204 226 255
204 226 255
204 226 255
204 226 255
204 226 255
204 226 255
204 226 255
204 226 255
204 227 255
205 227 255
205 227 255
205 227 255
205 227 255
205 227 255
205 227 255
205 227 255
205 227 255
205 227 255
205 227 255
205 227 255
205 227 255
205 227 255
205 227 255
205 227 255
205 227 255
206 227 255
206 227 255
206 227 255
206 227 255
206 227 255
206 227 255
206 227 255
206 227 255
206 227 255
206 227 255
206 227 255
206 227 255
206 227 255
206 228 255
206 228 255
206 228 255
206 228 255
207 228 255
207 228 255
207 228 255
207 228 255
207 228 255
207 228 255
207 228 255
207 228 255
207 228 255
207 228 255
207 228 255
207 228 255
207 228 255
207 228 255
207 228 255
207 228 255
207 228 255
208 228 255
208 228 255
208 228 255
208 228 255
208 228 255
208 228 255
208 228 255
208 228 255
208 228 255
208 228 255
208 228 255
208 228 255
208 229 255
208 229 255
208 229 255
208 229 255
208 229 255
208 229 255
208 229 255
209 229 255
209 229 255
209 229 255
209 229 255
209 229 255
209 229 255
209 229 255
209 229 255
209 229 255
209 229 255
209 229 255
209 229 255
209 229 255
209 229 255
208 229 255
208 229 255
208 229 255
208 229 255
208 229 255
208 229 255
208 229 255
208 228 255
208 228 255
208 228 255
208 228 255
208 228 255
208 228 255
208 228 255
208 228 255
208 228 255
208 228 255
208 228 255
208 228 255
207 228 255
207 228 255
207 228 255
207 228 255
207 228 255
207 228 255
207 228 255
207 228 255
207 228 255
207 228 255
207 228 255
207 228 255
207 228 255
207 228 255
207 228 255
207 228 255
207 228 255
206 228 255
206 228 255
206 228 255
206 228 255
206 227 255
206 227 255
206 227 255
206 227 255
206 227 255
206 227 255
206 227 255
206 227 255
206 227 255
206 227 255
206 227 255
206 227 255
206 227 255
205 227 255
205 227 255
205 227 255
205 227 255
205 227 255
205 227 255
205 227 255
205 227 255
205 227 255
205 227 255
205 227 255
205 227 255
205 227 255
205 227 255
205 227 255
205 227 255
204 227 255
204 226 255
204 226 255
204 226 255
204 226 255
204 226 255
204 226 255
204 226 255
204 226 255
204 226 255
204 226 255
204 226 255
204 226 255
204 226 255
204 226 255
203 226 255
203 226 255
203 226 255
203 226 255
203 226 255
203 226 255
203 226 255
203 226 255
203 226 255
203 226 255
203 226 255
203 226 255
203 226 255
203 226 255
203 226 255
202 225 255
202 225 255
202 225 255
202 225 255
202 225 255
202 225 255
202 225 255
202 225 255
202 225 255
202 225 255
202 225 255
202 225 255
202 225 255
202 225 255
202 225 255
202 225 255
201 225 255
201 225 255
201 225 255
201 225 255
201 225 255
201 225 255
201 225 255
201 225 255
201 225 255
201 225 255
201 225 255
201 225 255
201 225 255
201 225 255
201 225 255
201 225 255
201 224 255
201 224 255
200 224 255
200 224 255
200 224 255
200 224 255
200 224 255
200 224 255
200 224 255
200 224 255
200 224 255
200 224 255
200 224 255
200 224 255
200 224 255
200 224 255
200 224 255
200 224 255
200 224 255
200 224 255
200 224 255
200 224 255
200 224 255
199 224 255
199 224 255
199 224 255
199 224 255
199 224 255
199 224 255
199 224 255
199 224 255
199 224 255
199 224 255
199 224 255
199 224 255
199 224 255
199 224 255
199 224 255
199 224 255
199 224 255
199 224 255
199 224 255
199 224 255
199 224 255
199 224 255
199 224 255
199 224 255
199 224 255
199 224 255
199 224 255
199 224 255
199 224 255
199 224 255
199 224 255
199 224 255
199 224 255
199 224 255
199 224 255
199 224 255
199 224 255
199 224 255
199 224 255
199 224 255
199 224 255
199 224 255
199 224 255
199 224 255
199 224 255
199 224 255
199 224 255
199 224 255
199 224 255
199 224 255
199 224 255
199 224 255
199 224 255
199 224 255
199 224 255
199 224 255
199 224 255
199 224 255
199 224 255
199 224 255
199 224 255
199 224 255
199 224 255
199 224 255
199 224 255
199 224 255
199 224 255
199 224 255
199 224 255
199 224 255
199 224 255
199 224 255
199 224 255
199 224 255
199 224 255
199 224 255
200 224 255
200 224 255
200 224 255
200 224 255
200 224 255
200 224 255
200 224 255
200 224 255
200 224 255
200 224 255
200 224 255
200 224 255
200 224 255
200 224 255
200 224 255
200 224 255
200 224 255
200 224 255
200 224 255
200 224 255
200 224 255
200 224 255
201 224 255
201 225 255
201 225 255
201 225 255
201 225 255
201 225 255
201 225 255
201 225 255
201 225 255
201 225 255
201 225 255
201 225 255
201 225 255
201 225 255
201 225 255
201 225 255
201 225 255
202 225 255
202 225 255
202 225 255
202 225 255
202 225 255
202 225 255
202 225 255
202 225 255
202 225 255
202 225 255
202 225 255
202 225 255
202 225 255
202 225 255
202 225 255
202 225 255
203 226 255
203 226 255
203 226 255
203 226 255
203 226 255
203 226 255
203 226 255
203 226 255
203 226 255
203 226 255
203 226 255
203 226 255
203 226 255
203 226 255
203 226 255
204 226 255
204 226 255
204 226 255
204 226 255
204 226 255
204 226 255
204 226 255
204 226 255
204 226 255
204 226 255
204 226 255
204 226 255
204 226 255
204 226 255
204 227 255
204 227 255
205 227 255
205 227 255
205 227 255
205 227 255
205 227 255
205 227 255
205 227 255
205 227 255
205 227 255
205 227 255
205 227 255
205 227 255
205 227 255
205 227 255
205 227 255
206 227 255
206 227 255
206 227 255
206 227 255
206 227 255
206 227 255
206 227 255
206 227 255
206 227 255
206 227 255
206 227 255
206 227 255
206 227 255
206 228 255
206 228 255
206 228 255
206 228 255
207 228 255
207 228 255
207 228 255
207 228 255
207 228 255
207 228 255
207 228 255
207 228 255
207 228 255
207 228 255
207 228 255
207 228 255
207 228 255
207 228 255
207 228 255
207 228 255
207 228 255
208 228 255
208 228 255
208 228 255
208 228 255
208 228 255
208 228 255
208 228 255
208 228 255
208 228 255
208 228 255
208 228 255
208 228 255
208 229 255
208 229 255
208 229 255
208 229 255
208 229 255
208 229 255
208 229 255
209 229 255
209 229 255
209 229 255
209 229 255
209 229 255
209 229 255
209 229 255
209 229 255
209 229 255
209 229 255
209 229 255
209 229 255
209 229 255
209 229 255
209 229 255
209 229 255
209 229 255
209 229 255
208 229 255
208 229 255
208 229 255
208 229 255
208 229 255
208 229 255
208 229 255
208 228 255
208 228 255
208 228 255
208 228 255
208 228 255
208 228 255
208 228 255
208 228 255
208 228 255
208 228 255
208 228 255
208 228 255
207 228 255
207 228 255
207 228 255
207 228 255
207 228 255
207 228 255
207 228 255
207 228 255
207 228 255
207 228 255
207 228 255
207 228 255
207 228 255
207 228 255
207 228 255
207 228 255
207 228 255
207 228 255
206 228 255
206 228 255
206 228 255
206 227 255
206 227 255
206 227 255
206 227 255
206 227 255
206 227 255
206 227 255
206 227 255
206 227 255
206 227 255
206 227 255
206 227 255
206 227 255
205 227 255
205 227 255
205 227 255
205 227 255
205 227 255
205 227 255
205 227 255
205 227 255
205 227 255
205 227 255
205 227 255
205 227 255
205 227 255
205 227 255
205 227 255
205 227 255
204 227 255
204 226 255
204 226 255
204 226 255
204 226 255
204 226 255
204 226 255
204 226 255
204 226 255
204 226 255
204 226 255
204 226 255
204 226 255
204 226 255
204 226 255
203 226 255
203 226 255
203 226 255
203 226 255
203 226 255
203 226 255
203 226 255
203 226 255
203 226 255
203 226 255
203 226 255
203 226 255
203 226 255
203 226 255
203 226 255
202 225 255
202 225 255
202 225 255
202 225 255
202 225 255
202 225 255
202 225 255
202 225 255
202 225 255
202 225 255
202 225 255
202 225 255
202 225 255
202 225 255
202 225 255
202 225 255
201 225 255
201 225 255
201 225 255
201 225 255
201 225 255
201 225 255
201 225 255
201 225 255
201 225 255
201 225 255
201 225 255
201 225 255
201 225 255
201 225 255
201 225 255
201 225 255
201 224 255
201 224 255
200 224 255
200 224 255
200 224 255
200 224 255
200 224 255
200 224 255
200 224 255
200 224 255
200 224 255
200 224 255
200 224 255
200 224 255
200 224 255
200 224 255
200 224 255
200 224 255
200 224 255
200 224 255
200 224 255
200 224 255
200 224 255
200 224 255
200 224 255
199 224 255
199 224 255
199 224 255
199 224 255
199 224 255
199 224 255
199 224 255
199 224 255
199 224 255
199 224 255
199 224 255
199 224 255
199 224 255
199 224 255
199 224 255
199 224 255
199 224 255
199 224 255
199 224 255
199 224 255
199 224 255
199 224 255
199 224 255
199 224 255
199 224 255
199 224 255
199 224 255
199 224 255
199 224 255
199 224 255
199 224 255
199 224 255
199 224 255
199 224 255
199 224 255
199 224 255
199 224 255
199 224 255
199 224 255
199 224 255
199 224 255
199 224 255
199 224 255
199 224 255
199 224 255
199 224 255
199 224 255
199 224 255
199 224 255
199 224 255
199 224 255
199 224 255
199 224 255
199 224 255
199 224 255
199 224 255
199 224 255
199 224 255
199 224 255
199 224 255
199 224 255
199 224 255
199 224 255
199 224 255
199 224 255
199 224 255
199 224 255
199 224 255
200 224 255
200 224 255
200 224 255
200 224 255
200 224 255
200 224 255
200 224 255
200 224 255
200 224 255
200 224 255
200 224 255
200 224 255
200 224 255
200 224 255
200 224 255
200 224 255
200 224 255
200 224 255
200 224 255
200 224 255
200 224 255
200 224 255
200 224 255
201 224 255
201 224 255
201 225 255
201 225 255
201 225 255
201 225 255
201 225 255
201 225 255
201 225 255
201 225 255
201 225 255
201 225 255
201 225 255
201 225 255
201 225 255
201 225 255
201 225 255
201 225 255
202 225 255
202 225 255
202 225 255
202 225 255
202 225 255
202 225 255
202 225 255
202 225 255
202 225 255
202 225 255
202 225 255
202 225 255
202 225 255
202 225 255
202 225 255
202 225 255
203 226 255
203 226 255
203 226 255
203 226 255
203 226 255
203 226 255
203 226 255
203 226 255
203 226 255
203 226 255
203 226 255
203 226 255
203 226 255
203 226 255
203 226 255
204 226 255
204 226 255
204 226 255
204 226 255
204 226 255
204 226 255
204 226 255
204 226 255
204 226 255
204 226 255
204 226 255
204 226 255
204 226 255
204 226 255
204 227 255
204 227 255
205 227 255
205 227 255
205 227 255
205 227 255
205 227 255
205 227 255
205 227 255
205 227 255
205 227 255
205 227 255
205 227 255
205 227 255
205 227 255
205 227 255
205 227 255
206 227 255
206 227 255
206 227 255
206 227 255
206 227 255
206 227 255
206 227 255
206 227 255
206 227 255
206 227 255
206 227 255
206 227 255
206 227 255
206 228 255
206 228 255
206 228 255
206 228 255
207 228 255
207 228 255
207 228 255
207 228 255
207 228 255
207 228 255
207 228 255
207 228 255
207 228 255
207 228 255
207 228 255
207 228 255
207 228 255
207 228 255
207 228 255
207 228 255
207 228 255
208 228 255
208 228 255
208 228 255
208 228 255
208 228 255
208 228 255
208 228 255
208 228 255
208 228 255
208 228 255
208 228 255
208 228 255
208 229 255
208 229 255
208 229 255
208 229 255
208 229 255
208 229 255
208 229 255
209 229 255
209 229 255
209 229 255
209 229 255
209 229 255
209 229 255
209 229 255
209 229 255
209 229 255
209 229 255
209 229 255
209 229 255
209 229 255
209 229 255
209 229 255
209 229 255
209 229 255
209 229 255
209 229 255
209 229 255
209 229 255
209 229 255
209 229 255
208 229 255
208 229 255
208 229 255
208 229 255
208 229 255
208 229 255
208 229 255
208 228 255
208 228 255
208 228 255
208 228 255
208 228 255
208 228 255
208 228 255
208 228 255
208 228 255
208 228 255
208 228 255
207 228 255
207 228 255
207 228 255
207 228 255
207 228 255
207 228 255
207 228 255
207 228 255
207 228 255
207 228 255
207 228 255
207 228 255
207 228 255
207 228 255
207 228 255
207 228 255
207 228 255
207 228 255
206 228 255
206 228 255
206 228 255
206 227 255
206 227 255
206 227 255
206 227 255
206 227 255
206 227 255
206 227 255
206 227 255
206 227 255
206 227 255
206 227 255
206 227 255
206 227 255
205 227 255
205 227 255
205 227 255
205 227 255
205 227 255
205 227 255
205 227 255
205 227 255
205 227 255
205 227 255
205 227 255
205 227 255
205 227 255
205 227 255
205 227 255
205 227 255
204 227 255
204 226 255
204 226 255
204 226 255
204 226 255
204 226 255
204 226 255
204 226 255
204 226 255
204 226 255
204 226 255
204 226 255
204 226 255
204 226 255
204 226 255
203 226 255
203 226 255
203 226 255
203 226 255
203 226 255
203 226 255
203 226 255
203 226 255
203 226 255
203 226 255
203 226 255
203 226 255
203 226 255
203 226 255
203 226 255
203 226 255
202 225 255
202 225 255
202 225 255
202 225 255
202 225 255
202 225 255
202 225 255
202 225 255
202 225 255
202 225 255
202 225 255
202 225 255
202 225 255
202 225 255
202 225 255
202 225 255
201 225 255
201 225 255
201 225 255
201 225 255
201 225 255
201 225 255
201 225 255
201 225 255
201 225 255
201 225 255
201 225 255
201 225 255
201 225 255
201 225 255
201 225 255
201 225 255
201 224 255
201 224 255
200 224 255
200 224 255
200 224 255
200 224 255
200 224 255
200 224 255
200 224 255
200 224 255
200 224 255
200 224 255
200 224 255
200 224 255
200 224 255
200 224 255
200 224 255
200 224 255
200 224 255
200 224 255
200 224 255
200 224 255
200 224 255
200 224 255
200 224 255
199 224 255
199 224 255
199 224 255
199 224 255
199 224 255
199 224 255
199 224 255
199 224 255
199 224 255
199 224 255
199 224 255
199 224 255
199 224 255
199 224 255
199 224 255
199 224 255
199 224 255
199 224 255
199 224 255
199 224 255
199 224 255
199 224 255
199 224 255
199 224 255
199 224 255
199 224 255
199 224 255
199 224 255
199 224 255
199 224 255
199 224 255
199 224 255
199 224 255
199 224 255
199 224 255
199 224 255
199 224 255
199 224 255
199 224 255
199 224 255
199 224 255
199 224 255
199 224 255
199 224 255
199 224 255
199 224 255
199 224 255
199 224 255
199 224 255
199 224 255
199 224 255
199 224 255
199 224 255
199 224 255
199 224 255
199 224 255
199 224 255
199 224 255
199 224 255
199 224 255
199 224 255
199 224 255
200 224 255
200 224 255
200 224 255
200 224 255
200 224 255
200 224 255
200 224 255
200 224 255
200 224 255
200 224 255
200 224 255
200 224 255
200 224 255
200 224 255
200 224 255
200 224 255
200 224 255
200 224 255
200 224 255
200 224 255
200 224 255
200 224 255
200 224 255
201 224 255
201 224 255
201 225 255
201 225 255
201 225 255
201 225 255
201 225 255
201 225 255
201 225 255
201 225 255
201 225 255
201 225 255
201 225 255
201 225 255
201 225 255
201 225 255
201 225 255
201 225 255
202 225 255
202 225 255
202 225 255
202 225 255
202 225 255
202 225 255
202 225 255
202 225 255
202 225 255
202 225 255
202 225 255
202 225 255
202 225 255
202 225 255
202 225 255
202 225 255
203 226 255
203 226 255
203 226 255
203 226 255
203 226 255
203 226 255
203 226 255
203 226 255
203 226 255
203 226 255
203 226 255
203 226 255
203 226 255
203 226 255
203 226 255
203 226 255
204 226 255
204 226 255
204 226 255
204 226 255
204 226 255
204 226 255
204 226 255
204 226 255
204 226 255
204 226 255
204 226 255
204 226 255
204 226 255
204 226 255
204 227 255
205 227 255
205 227 255
205 227 255
205 227 255
205 227 255
205 227 255
205 227 255
205 227 255
205 227 255
205 227 255
205 227 255
205 227 255
205 227 255
205 227 255
205 227 255
205 227 255
206 227 255
206 227 255
206 227 255
206 227 255
206 227 255
206 227 255
206 227 255
206 227 255
206 227 255
206 227 255
206 227 255
206 227 255
206 227 255
206 228 255
206 228 255
206 228 255
207 228 255
207 228 255
207 228 255
207 228 255
207 228 255
207 228 255
207 228 255
207 228 255
207 228 255
207 228 255
207 228 255
207 228 255
207 228 255
207 228 255
207 228 255
207 228 255
207 228 255
207 228 255
208 228 255
208 228 255
208 228 255
208 228 255
208 228 255
208 228 255
208 228 255
208 228 255
208 228 255
208 228 255
208 228 255
208 229 255
208 229 255
208 229 255
208 229 255
208 229 255
208 229 255
208 229 255
209 229 255
209 229 255
209 229 255
209 229 255
209 229 255
209 229 255
209 229 255
209 229 255
209 229 255
209 229 255
209 229 255
209 229 255
209 229 255
209 229 255
209 229 255
209 229 255
209 229 255
209 229 255
209 229 255
209 229 255
209 229 255
209 229 255
209 229 255
209 229 255
209 229 255
209 229 255
209 229 255
209 229 255
208 229 255
208 229 255
208 229 255
208 229 255
208 229 255
208 229 255
208 229 255
208 228 255
208 228 255
208 228 255
208 228 255
208 228 255
208 228 255
208 228 255
208 228 255
208 228 255
208 228 255
208 228 255
208 228 255
207 228 255
207 228 255
207 228 255
207 228 255
207 228 255
207 228 255
207 228 255
207 228 255
207 228 255
207 228 255
207 228 255
207 228 255
207 228 255
207 228 255
207 228 255
207 228 255
207 228 255
206 228 255
206 228 255
206 228 255
206 228 255
206 227 255
206 227 255
206 227 255
206 227 255
206 227 255
206 227 255
206 227 255
206 227 255
206 227 255
206 227 255
206 227 255
206 227 255
205 227 255
205 227 255
205 227 255
205 227 255
205 227 255
205 227 255
205 227 255
205 227 255
205 227 255
205 227 255
205 227 255
205 227 255
205 227 255
205 227 255
205 227 255
205 227 255
204 227 255
204 227 255
204 226 255
204 226 255
204 226 255
204 226 255
204 226 255
204 226 255
204 226 255
204 226 255
204 226 255
204 226 255
204 226 255
204 226 255
204 226 255
203 226 255
203 226 255
203 226 255
203 226 255
203 226 255
203 226 255
203 226 255
203 226 255
203 226 255
203 226 255
203 226 255
203 226 255
203 226 255
203 226 255
203 226 255
203 226 255
202 225 255
202 225 255
202 225 255
202 225 255
202 225 255
202 225 255
202 225 255
202 225 255
202 225 255
202 225 255
202 225 255
202 225 255
202 225 255
202 225 255
202 225 255
202 225 255
201 225 255
201 225 255
201 225 255
201 225 255
201 225 255
201 225 255
201 225 255
201 225 255
201 225 255
201 225 255
201 225 255
201 225 255
201 225 255
201 225 255
201 225 255
201 225 255
201 224 255
201 224 255
200 224 255
200 224 255
200 224 255
200 224 255
200 224 255
200 224 255
200 224 255
200 224 255
200 224 255
200 224 255
200 224 255
200 224 255
200 224 255
200 224 255
200 224 255
200 224 255
200 224 255
200 224 255
200 224 255
200 224 255
200 224 255
200 224 255
200 224 255
200 224 255
200 224 255
200 224 255
199 224 255
199 224 255
199 224 255
199 224 255
199 224 255
199 224 255
199 224 255
199 224 255
199 224 255
199 224 255
199 224 255
199 224 255
199 224 255
199 224 255
199 224 255
199 224 255
199 224 255
199 224 255
199 224 255
199 224 255
199 224 255
199 224 255
199 224 255
199 224 255
199 224 255
199 224 255
199 224 255
199 224 255
199 224 255
199 224 255
199 224 255
199 224 255
199 224 255
199 224 255
199 224 255
199 224 255
199 224 255
199 224 255
199 224 255
199 224 255
199 224 255
199 224 255
199 224 255
199 224 255
199 224 255
199 224 255
199 224 255
199 224 255
199 224 255
199 224 255
199 224 255
199 224 255
200 224 255
200 224 255
200 224 255
200 224 255
200 224 255
200 224 255
200 224 255
200 224 255
200 224 255
200 224 255
200 224 255
200 224 255
200 224 255
200 224 255
200 224 255
200 224 255
200 224 255
200 224 255
200 224 255
200 224 255
200 224 255
200 224 255
200 224 255
200 224 255
200 224 255
201 224 255
201 224 255
201 224 255
201 225 255
201 225 255
201 225 255
201 225 255
201 225 255
201 225 255
201 225 255
201 225 255
201 225 255
201 225 255
201 225 255
201 225 255
201 225 255
201 225 255
201 225 255
201 225 255
202 225 255
202 225 255
202 225 255
202 225 255
202 225 255
202 225 255
202 225 255
202 225 255
202 225 255
202 225 255
202 225 255
202 225 255
202 225 255
202 225 255
202 225 255
202 225 255
203 226 255
203 226 255
203 226 255
203 226 255
203 226 255
203 226 255
203 226 255
203 226 255
203 226 255
203 226 255
203 226 255
203 226 255
203 226 255
203 226 255
203 226 255
203 226 255
204 226 255
204 226 255
204 226 255
204 226 255
204 226 255
204 226 255
204 226 255
204 226 255
204 226 255
204 226 255
204 226 255
204 226 255
204 226 255
204 227 255
204 227 255
205 227 255
205 227 255
205 227 255
205 227 255
205 227 255
205 227 255
205 227 255
205 227 255
205 227 255
205 227 255
205 227 255
205 227 255
205 227 255
205 227 255
205 227 255
205 227 255
206 227 255
206 227 255
206 227 255
206 227 255
206 227 255
206 227 255
206 227 255
206 227 255
206 227 255
206 227 255
206 227 255
206 227 255
206 228 255
206 228 255
206 228 255
206 228 255
207 228 255
207 228 255
207 228 255
207 228 255
207 228 255
207 228 255
207 228 255
207 228 255
207 228 255
207 228 255
207 228 255
207 228 255
207 228 255
207 228 255
207 228 255
207 228 255
207 228 255
208 228 255
208 228 255
208 228 255
208 228 255
208 228 255
208 228 255
208 228 255
208 228 255
208 228 255
208 228 255
208 228 255
208 228 255
208 229 255
208 229 255
208 229 255
208 229 255
208 229 255
208 229 255
208 229 255
209 229 255
209 229 255
209 229 255
209 229 255
209 229 255
209 229 255
209 229 255
209 229 255
209 229 255
209 229 255
209 229 255
209 229 255
209 229 255
209 229 255
209 229 255
209 229 255
209 229 255
209 229 255
209 229 255
209 229 255
209 229 255
209 229 255
209 229 255
209 229 255
209 229 255
209 229 255
209 229 255
209 229 255
209 229 255
209 229 255
209 229 255
209 229 255
209 229 255
208 229 255
208 229 255
208 229 255
208 229 255
208 229 255
208 229 255
208 228 255
208 228 255
208 228 255
208 228 255
208 228 255
208 228 255
208 228 255
208 228 255
208 228 255
208 228 255
208 228 255
208 228 255
207 228 255
207 228 255
207 228 255
207 228 255
207 228 255
207 228 255
207 228 255
207 228 255
207 228 255
207 228 255
207 228 255
207 228 255
207 228 255
207 228 255
207 228 255
207 228 255
207 228 255
206 228 255
206 228 255
206 228 255
206 228 255
206 227 255
206 227 255
206 227 255
206 227 255
206 227 255
206 227 255
206 227 255
206 227 255
206 227 255
206 227 255
206 227 255
206 227 255
205 227 255
205 227 255
205 227 255
205 227 255
205 227 255
205 227 255
205 227 255
205 227 255
205 227 255
205 227 255
205 227 255
205 227 255
205 227 255
205 227 255
205 227 255
205 227 255
204 227 255
204 227 255
204 226 255
204 226 255
204 226 255
204 226 255
204 226 255
204 226 255
204 226 255
204 226 255
204 226 255
204 226 255
204 226 255
204 226 255
204 226 255
203 226 255
203 226 255
203 226 255
203 226 255
203 226 255
203 226 255
203 226 255
203 226 255
203 226 255
203 226 255
203 226 255
203 226 255
203 226 255
203 226 255
203 226 255
203 226 255
202 225 255
202 225 255
202 225 255
202 225 255
202 225 255
202 225 255
202 225 255
202 225 255
202 225 255
202 225 255
202 225 255
202 225 255
202 225 255
202 225 255
202 225 255
202 225 255
201 225 255
201 225 255
201 225 255
201 225 255
201 225 255
201 225 255
201 225 255
201 225 255
201 225 255
201 225 255
201 225 255
201 225 255
201 225 255
201 225 255
201 225 255
201 225 255
201 225 255
201 224 255
201 224 255
200 224 255
200 224 255
200 224 255
200 224 255
200 224 255
200 224 255
200 224 255
200 224 255
200 224 255
200 224 255
200 224 255
200 224 255
200 224 255
200 224 255
200 224 255
200 224 255
200 224 255
200 224 255
200 224 255
200 224 255
200 224 255
200 224 255
200 224 255
200 224 255
200 224 255
200 224 255
200 224 255
200 224 255
199 224 255
199 224 255
199 224 255
199 224 255
199 224 255
199 224 255
199 224 255
199 224 255
199 224 255
199 224 255
199 224 255
199 224 255
199 224 255
199 224 255
199 224 255
199 224 255
199 224 255
199 224 255
199 224 255
199 224 255
199 224 255
199 224 255
199 224 255
199 224 255
199 224 255
199 224 255
199 224 255
199 224 255
199 224 255
199 224 255
199 224 255
199 224 255
199 224 255
199 224 255
199 224 255
199 224 255
199 224 255
199 224 255
199 224 255
199 224 255
199 224 255
199 224 255
200 224 255
200 224 255
200 224 255
200 224 255
200 224 255
200 224 255
200 224 255
200 224 255
200 224 255
200 224 255
200 224 255
200 224 255
200 224 255
200 224 255
200 224 255
200 224 255
200 224 255
200 224 255
200 224 255
200 224 255
200 224 255
200 224 255
200 224 255
200 224 255
200 224 255
200 224 255
200 224 255
200 224 255
201 224 255
201 224 255
201 225 255
201 225 255
201 225 255
201 225 255
201 225 255
201 225 255
201 225 255
201 225 255
201 225 255
201 225 255
201 225 255
201 225 255
201 225 255
201 225 255
201 225 255
201 225 255
201 225 255
202 225 255
202 225 255
202 225 255
202 225 255
202 225 255
202 225 255
202 225 255
202 225 255
202 225 255
202 225 255
202 225 255
202 225 255
202 225 255
202 225 255
202 225 255
202 225 255
203 226 255
203 226 255
203 226 255
203 226 255
203 226 255
203 226 255
203 226 255
203 226 255
203 226 255
203 226 255
203 226 255
203 226 255
203 226 255
203 226 255
203 226 255
203 226 255
204 226 255
204 226 255
204 226 255
204 226 255
204 226 255
204 226 255
204 226 255
204 226 255
204 226 255
204 226 255
204 226 255
204 226 255
204 226 255
204 227 255
204 227 255
205 227 255
205 227 255
205 227 255
205 227 255
205 227 255
205 227 255
205 227 255
205 227 255
205 227 255
205 227 255
205 227 255
205 227 255
205 227 255
205 227 255
205 227 255
205 227 255
206 227 255
206 227 255
206 227 255
206 227 255
206 227 255
206 227 255
206 227 255
206 227 255
206 227 255
206 227 255
206 227 255
206 227 255
206 228 255
206 228 255
206 228 255
206 228 255
207 228 255
207 228 255
207 228 255
207 228 255
207 228 255
207 228 255
207 228 255
207 228 255
207 228 255
207 228 255
207 228 255
207 228 255
207 228 255
207 228 255
207 228 255
207 228 255
207 228 255
208 228 255
208 228 255
208 228 255
208 228 255
208 228 255
208 228 255
208 228 255
208 228 255
208 228 255
208 228 255
208 228 255
208 228 255
208 229 255
208 229 255
208 229 255
208 229 255
208 229 255
208 229 255
209 229 255
209 229 255
209 229 255
209 229 255
209 229 255
209 229 255
209 229 255
209 229 255
209 229 255
209 229 255
209 229 255
209 229 255
209 229 255
209 229 255
209 229 255
209 229 255
209 229 255
209 229 255
209 229 255
209 229 255
209 229 255
209 229 255
209 229 255
209 229 255
209 229 255
209 229 255
209 229 255
209 229 255
209 229 255
209 229 255
209 229 255
209 229 255
209 229 255
209 229 255
209 229 255
209 229 255
209 229 255
209 229 255
208 229 255
208 229 255
208 229 255
208 229 255
208 229 255
208 229 255
208 229 255
208 228 255
208 228 255
208 228 255
208 228 255
208 228 255
208 228 255
208 228 255
208 228 255
208 228 255
208 228 255
208 228 255
207 228 255
207 228 255
207 228 255
207 228 255
207 228 255
207 228 255
207 228 255
207 228 255
207 228 255
207 228 255
207 228 255
207 228 255
207 228 255
207 228 255
207 228 255
207 228 255
207 228 255
206 228 255
206 228 255
206 228 255
206 228 255
206 227 255
206 227 255
206 227 255
206 227 255
206 227 255
206 227 255
206 227 255
206 227 255
206 227 255
206 227 255
206 227 255
206 227 255
205 227 255
205 227 255
205 227 255
205 227 255
205 227 255
205 227 255
205 227 255
205 227 255
205 227 255
205 227 255
205 227 255
205 227 255
205 227 255
205 227 255
205 227 255
205 227 255
204 227 255
204 227 255
204 226 255
204 226 255
204 226 255
204 226 255
204 226 255
204 226 255
204 226 255
204 226 255
204 226 255
204 226 255
204 226 255
204 226 255
204 226 255
203 226 255
203 226 255
203 226 255
203 226 255
203 226 255
203 226 255
203 226 255
203 226 255
203 226 255
203 226 255
203 226 255
203 226 255
203 226 255
203 226 255
203 226 255
203 226 255
202 225 255
202 225 255
202 225 255
202 225 255
202 225 255
202 225 255
202 225 255
202 225 255
202 225 255
202 225 255
202 225 255
202 225 255
202 225 255
202 225 255
202 225 255
202 225 255
202 225 255
201 225 255
201 225 255
201 225 255
201 225 255
201 225 255
201 225 255
201 225 255
201 225 255
201 225 255
201 225 255
201 225 255
201 225 255
201 225 255
201 225 255
201 225 255
201 225 255
201 225 255
201 224 255
201 224 255
200 224 255
200 224 255
200 224 255
200 224 255
200 224 255
200 224 255
200 224 255
200 224 255
200 224 255
200 224 255
200 224 255
200 224 255
200 224 255
200 224 255
200 224 255
200 224 255
200 224 255
200 224 255
200 224 255
200 224 255
200 224 255
200 224 255
200 224 255
200 224 255
200 224 255
200 224 255
200 224 255
200 224 255
200 224 255
200 224 255
200 224 255
200 224 255
199 224 255
199 224 255
199 224 255
199 224 255
199 224 255
199 224 255
199 224 255
199 224 255
199 224 255
199 224 255
199 224 255
199 224 255
199 224 255
199 224 255
199 224 255
199 224 255
199 224 255
199 224 255
199 224 255
199 224 255
199 224 255
199 224 255
199 224 255
199 224 255
199 224 255
199 224 255
199 224 255
200 224 255
200 224 255
200 224 255
200 224 255
200 224 255
200 224 255
200 224 255
200 224 255
200 224 255
200 224 255
200 224 255
200 224 255
200 224 255
200 224 255
200 224 255
200 224 255
200 224 255
200 224 255
200 224 255
200 224 255
200 224 255
200 224 255
200 224 255
200 224 255
200 224 255
200 224 255
200 224 255
200 224 255
200 224 255
200 224 255
200 224 255
200 224 255
200 224 255
201 224 255
201 224 255
201 225 255
201 225 255
201 225 255
201 225 255
201 225 255
201 225 255
201 225 255
201 225 255
201 225 255
201 225 255
201 225 255
201 225 255
201 225 255
201 225 255
201 225 255
201 225 255
201 225 255
202 225 255
202 225 255
202 225 255
202 225 255
202 225 255
202 225 255
202 225 255
202 225 255
202 225 255
202 225 255
202 225 255
202 225 255
202 225 255
202 225 255
202 225 255
202 225 255
202 225 255
203 226 255
203 226 255
203 226 255
203 226 255
203 226 255
203 226 255
203 226 255
203 226 255
203 226 255
203 226 255
203 226 255
203 226 255
203 226 255
203 226 255
203 226 255
204 226 255
204 226 255
204 226 255
204 226 255
204 226 255
204 226 255
204 226 255
204 226 255
204 226 255
204 226 255
204 226 255
204 226 255
204 226 255
204 226 255
204 227 255
204 227 255
205 227 255
205 227 255
205 227 255
205 227 255
205 227 255
205 227 255
205 227 255
205 227 255
205 227 255
205 227 255
205 227 255
205 227 255
205 227 255
205 227 255
205 227 255
206 227 255
206 227 255
206 227 255
206 227 255
206 227 255
206 227 255
206 227 255
206 227 255
206 227 255
206 227 255
206 227 255
206 227 255
206 227 255
206 228 255
206 228 255
206 228 255
206 228 255
207 228 255
207 228 255
207 228 255
207 228 255
207 228 255
207 228 255
207 228 255
207 228 255
207 228 255
207 228 255
207 228 255
207 228 255
207 228 255
207 228 255
207 228 255
207 228 255
207 228 255
208 228 255
208 228 255
208 228 255
208 228 255
208 228 255
208 228 255
208 228 255
208 228 255
208 228 255
208 228 255
208 228 255
208 229 255
208 229 255
208 229 255
208 229 255
208 229 255
208 229 255
208 229 255
209 229 255
209 229 255
209 229 255
209 229 255
209 229 255
209 229 255
209 229 255
209 229 255
209 229 255
209 229 255
209 229 255
209 229 255
209 229 255
209 229 255
209 229 255
209 229 255
209 229 255
209 229 255
209 229 255
209 229 255
210 229 255
210 229 255
210 229 255
209 229 255
209 229 255
209 229 255
209 229 255
209 229 255
209 229 255
209 229 255
209 229 255
209 229 255
209 229 255
209 229 255
209 229 255
209 229 255
209 229 255
209 229 255
209 229 255
209 229 255
209 229 255
209 229 255
208 229 255
208 229 255
208 229 255
208 229 255
208 229 255
208 229 255
208 229 255
208 228 255
208 228 255
208 228 255
208 228 255
208 228 255
208 228 255
208 228 255
208 228 255
208 228 255
208 228 255
208 228 255
208 228 255
207 228 255
207 228 255
207 228 255
207 228 255
207 228 255
207 228 255
207 228 255
207 228 255
207 228 255
207 228 255
207 228 255
207 228 255
207 228 255
207 228 255
207 228 255
207 228 255
207 228 255
206 228 255
206 228 255
206 228 255
206 227 255
206 227 255
206 227 255
206 227 255
206 227 255
206 227 255
206 227 255
206 227 255
206 227 255
206 227 255
206 227 255
206 227 255
206 227 255
205 227 255
205 227 255
205 227 255
205 227 255
205 227 255
205 227 255
205 227 255
205 227 255
205 227 255
205 227 255
205 227 255
205 227 255
205 227 255
205 227 255
205 227 255
204 227 255
204 227 255
204 226 255
204 226 255
204 226 255
204 226 255
204 226 255
204 226 255
204 226 255
204 226 255
204 226 255
204 226 255
204 226 255
204 226 255
204 226 255
204 226 255
203 226 255
203 226 255
203 226 255
203 226 255
203 226 255
203 226 255
203 226 255
203 226 255
203 226 255
203 226 255
203 226 255
203 226 255
203 226 255
203 226 255
203 226 255
203 226 255
202 225 255
202 225 255
202 225 255
202 225 255
202 225 255
202 225 255
202 225 255
202 225 255
202 225 255
202 225 255
202 225 255
202 225 255
202 225 255
202 225 255
202 225 255
202 225 255
201 225 255
201 225 255
201 225 255
201 225 255
201 225 255
201 225 255
201 225 255
201 225 255
201 225 255
201 225 255
201 225 255
201 225 255
201 225 255
201 225 255
201 225 255
201 225 255
201 225 255
201 225 255
201 224 255
201 224 255
201 224 255
200 224 255
200 224 255
200 224 255
200 224 255
200 224 255
200 224 255
200 224 255
200 224 255
200 224 255
200 224 255
200 224 255
200 224 255
200 224 255
200 224 255
200 224 255
200 224 255
200 224 255
200 224 255
200 224 255
200 224 255
200 224 255
200 224 255
200 224 255
200 224 255
200 224 255
200 224 255
200 224 255
200 224 255
200 224 255
200 224 255
200 224 255
200 224 255
200 224 255
200 224 255
200 224 255
200 224 255
200 224 255
200 224 255
200 224 255
200 224 255
200 224 255
200 224 255
200 224 255
200 224 255
200 224 255
200 224 255
200 224 255
200 224 255
200 224 255
200 224 255
200 224 255
200 224 255
200 224 255
200 224 255
200 224 255
200 224 255
200 224 255
200 224 255
200 224 255
200 224 255
200 224 255
200 224 255
200 224 255
200 224 255
200 224 255
200 224 255
200 224 255
200 224 255
200 224 255
200 224 255
200 224 255
200 224 255
200 224 255
200 224 255
200 224 255
200 224 255
200 224 255
200 224 255
200 224 255
200 224 255
200 224 255
200 224 255
200 224 255
200 224 255
201 224 255
201 224 255
201 224 255
201 225 255
201 225 255
201 225 255
201 225 255
201 225 255
201 225 255
201 225 255
201 225 255
201 225 255
201 225 255
201 225 255
201 225 255
201 225 255
201 225 255
201 225 255
201 225 255
201 225 255
201 225 255
202 225 255
202 225 255
202 225 255
202 225 255
202 225 255
202 225 255
202 225 255
202 225 255
202 225 255
202 225 255
202 225 255
202 225 255
202 225 255
202 225 255
202 225 255
202 225 255
202 225 255
203 226 255
203 226 255
203 226 255
203 226 255
203 226 255
203 226 255
203 226 255
203 226 255
203 226 255
203 226 255
203 226 255
203 226 255
203 226 255
203 226 255
203 226 255
204 226 255
204 226 255
204 226 255
204 226 255
204 226 255
204 226 255
204 226 255
204 226 255
204 226 255
204 226 255
204 226 255
204 226 255
204 226 255
204 226 255
204 227 255
204 227 255
205 227 255
205 227 255
205 227 255
205 227 255
205 227 255
205 227 255
205 227 255
205 227 255
205 227 255
205 227 255
205 227 255
205 227 255
205 227 255
205 227 255
205 227 255
206 227 255
206 227 255
206 227 255
206 227 255
206 227 255
206 227 255
206 227 255
206 227 255
206 227 255
206 227 255
206 227 255
206 227 255
206 227 255
206 228 255
206 228 255
206 228 255
207 228 255
207 228 255
207 228 255
207 228 255
207 228 255
207 228 255
207 228 255
207 228 255
207 228 255
207 228 255
207 228 255
207 228 255
207 228 255
207 228 255
207 228 255
207 228 255
207 228 255
207 228 255
208 228 255
208 228 255
208 228 255
208 228 255
208 228 255
208 228 255
208 228 255
208 228 255
208 228 255
208 228 255
208 228 255
208 229 255
208 229 255
208 229 255
208 229 255
208 229 255
208 229 255
209 229 255
209 229 255
209 229 255
209 229 255
209 229 255
209 229 255
209 229 255
209 229 255
209 229 255
209 229 255
209 229 255
209 229 255
209 229 255
209 229 255
209 229 255
209 229 255
209 229 255
209 229 255
209 229 255
209 229 255
210 229 255
210 229 255
210 229 255
210 229 255
210 229 255
210 229 255
210 229 255
210 229 255
209 229 255
209 229 255
209 229 255
209 229 255
209 229 255
209 229 255
209 229 255
209 229 255
209 229 255
209 229 255
209 229 255
209 229 255
209 229 255
209 229 255
209 229 255
209 229 255
209 229 255
209 229 255
209 229 255
209 229 255
208 229 255
208 229 255
208 229 255
208 229 255
208 229 255
208 229 255
208 229 255
208 228 255
208 228 255
208 228 255
208 228 255
208 228 255
208 228 255
208 228 255
208 228 255
208 228 255
208 228 255
208 228 255
207 228 255
207 228 255
207 228 255
207 228 255
207 228 255
207 228 255
207 228 255
207 228 255
207 228 255
207 228 255
207 228 255
207 228 255
207 228 255
207 228 255
207 228 255
207 228 255
207 228 255
206 228 255
206 228 255
206 228 255
206 228 255
206 227 255
206 227 255
206 227 255
206 227 255
206 227 255
206 227 255
206 227 255
206 227 255
206 227 255
206 227 255
206 227 255
206 227 255
205 227 255
205 227 255
205 227 255
205 227 255
205 227 255
205 227 255
205 227 255
205 227 255
205 227 255
205 227 255
205 227 255
205 227 255
205 227 255
205 227 255
205 227 255
204 227 255
204 227 255
204 226 255
204 226 255
204 226 255
204 226 255
204 226 255
204 226 255
204 226 255
204 226 255
204 226 255
204 226 255
204 226 255
204 226 255
204 226 255
204 226 255
203 226 255
203 226 255
203 226 255
203 226 255
203 226 255
203 226 255
203 226 255
203 226 255
203 226 255
203 226 255
203 226 255
203 226 255
203 226 255
203 226 255
203 226 255
203 226 255
202 225 255
202 225 255
202 225 255
202 225 255
202 225 255
202 225 255
202 225 255
202 225 255
202 225 255
202 225 255
202 225 255
202 225 255
202 225 255
202 225 255
202 225 255
202 225 255
202 225 255
201 225 255
201 225 255
201 225 255
201 225 255
201 225 255
201 225 255
201 225 255
201 225 255
201 225 255
201 225 255
201 225 255
201 225 255
201 225 255
201 225 255
201 225 255
201 225 255
201 225 255
201 225 255
201 225 255
201 224 255
201 224 255
200 224 255
200 224 255
200 224 255
200 224 255
200 224 255
200 224 255
200 224 255
200 224 255
200 224 255
200 224 255
200 224 255
200 224 255
200 224 255
200 224 255
200 224 255
200 224 255
200 224 255
200 224 255
200 224 255
200 224 255
200 224 255
200 224 255
200 224 255
200 224 255
200 224 255
200 224 255
200 224 255
200 224 255
200 224 255
200 224 255
200 224 255
200 224 255
200 224 255
200 224 255
200 224 255
200 224 255
200 224 255
200 224 255
200 224 255
200 224 255
200 224 255
200 224 255
200 224 255
200 224 255
200 224 255
200 224 255
200 224 255
200 224 255
200 224 255
200 224 255
200 224 255
200 224 255
200 224 255
200 224 255
200 224 255
200 224 255
200 224 255
200 224 255
200 224 255
200 224 255
200 224 255
200 224 255
200 224 255
200 224 255
200 224 255
200 224 255
200 224 255
200 224 255
200 224 255
200 224 255
200 224 255
200 224 255
200 224 255
200 224 255
200 224 255
200 224 255
200 224 255
200 224 255
201 224 255
201 224 255
201 224 255
201 225 255
201 225 255
201 225 255
201 225 255
201 225 255
201 225 255
201 225 255
201 225 255
201 225 255
201 225 255
201 225 255
201 225 255
201 225 255
201 225 255
201 225 255
201 225 255
201 225 255
201 225 255
202 225 255
202 225 255
202 225 255
202 225 255
202 225 255
202 225 255
202 225 255
202 225 255
202 225 255
202 225 255
202 225 255
202 225 255
202 225 255
202 225 255
202 225 255
202 225 255
202 225 255
203 226 255
203 226 255
203 226 255
203 226 255
203 226 255
203 226 255
203 226 255
203 226 255
203 226 255
203 226 255
203 226 255
203 226 255
203 226 255
203 226 255
203 226 255
203 226 255
204 226 255
204 226 255
204 226 255
204 226 255
204 226 255
204 226 255
204 226 255
204 226 255
204 226 255
204 226 255
204 226 255
204 226 255
204 226 255
204 226 255
204 227 255
205 227 255
205 227 255
205 227 255
205 227 255
205 227 255
205 227 255
205 227 255
205 227 255
205 227 255
205 227 255
205 227 255
205 227 255
205 227 255
205 227 255
205 227 255
205 227 255
206 227 255
206 227 255
206 227 255
206 227 255
206 227 255
206 227 255
206 227 255
206 227 255
206 227 255
206 227 255
206 227 255
206 227 255
206 228 255
206 228 255
206 228 255
206 228 255
207 228 255
207 228 255
207 228 255
207 228 255
207 228 255
207 228 255
207 228 255
207 228 255
207 228 255
207 228 255
207 228 255
207 228 255
207 228 255
207 228 255
207 228 255
207 228 255
207 228 255
208 228 255
208 228 255
208 228 255
208 228 255
208 228 255
208 228 255
208 228 255
208 228 255
208 228 255
208 228 255
208 228 255
208 228 255
208 229 255
208 229 255
208 229 255
208 229 255
208 229 255
208 229 255
209 229 255
209 229 255
209 229 255
209 229 255
209 229 255
209 229 255
209 229 255
209 229 255
209 229 255
209 229 255
209 229 255
209 229 255
209 229 255
209 229 255
209 229 255
209 229 255
209 229 255
209 229 255
209 229 255
209 229 255
210 229 255
210 229 255
210 229 255
210 229 255
210 229 255
210 229 255
210 229 255
210 229 255
210 229 255
210 229 255
210 229 255
210 229 255
210 229 255
209 229 255
209 229 255
209 229 255
209 229 255
209 229 255
209 229 255
209 229 255
209 229 255
209 229 255
209 229 255
209 229 255
209 229 255
209 229 255
209 229 255
209 229 255
209 229 255
209 229 255
209 229 255
209 229 255
208 229 255
208 229 255
208 229 255
208 229 255
208 229 255
208 229 255
208 229 255
208 228 255
208 228 255
208 228 255
208 228 255
208 228 255
208 228 255
208 228 255
208 228 255
208 228 255
208 228 255
208 228 255
207 228 255
207 228 255
207 228 255
207 228 255
207 228 255
207 228 255
207 228 255
207 228 255
207 228 255
207 228 255
207 228 255
207 228 255
207 228 255
207 228 255
207 228 255
207 228 255
207 228 255
206 228 255
206 228 255
206 228 255
206 228 255
206 227 255
206 227 255
206 227 255
206 227 255
206 227 255
206 227 255
206 227 255
206 227 255
206 227 255
206 227 255
206 227 255
206 227 255
205 227 255
205 227 255
205 227 255
205 227 255
205 227 255
205 227 255
205 227 255
205 227 255
205 227 255
205 227 255
205 227 255
205 227 255
205 227 255
205 227 255
205 227 255
205 227 255
204 227 255
204 226 255
204 226 255
204 226 255
204 226 255
204 226 255
204 226 255
204 226 255
204 226 255
204 226 255
204 226 255
204 226 255
204 226 255
204 226 255
204 226 255
203 226 255
203 226 255
203 226 255
203 226 255
203 226 255
203 226 255
203 226 255
203 226 255
203 226 255
203 226 255
203 226 255
203 226 255
203 226 255
203 226 255
203 226 255
203 226 255
202 225 255
202 225 255
202 225 255
202 225 255
202 225 255
202 225 255
202 225 255
202 225 255
202 225 255
202 225 255
202 225 255
202 225 255
202 225 255
202 225 255
202 225 255
202 225 255
202 225 255
202 225 255
201 225 255
201 225 255
201 225 255
201 225 255
201 225 255
201 225 255
201 225 255
201 225 255
201 225 255
201 225 255
201 225 255
201 225 255
201 225 255
201 225 255
201 225 255
201 225 255
201 225 255
201 225 255
201 225 255
201 224 255
201 224 255
201 224 255
200 224 255
200 224 255
200 224 255
200 224 255
200 224 255
200 224 255
200 224 255
200 224 255
200 224 255
200 224 255
200 224 255
200 224 255
200 224 255
200 224 255
200 224 255
200 224 255
200 224 255
200 224 255
200 224 255
200 224 255
200 224 255
200 224 255
200 224 255
200 224 255
200 224 255
200 224 255
200 224 255
200 224 255
200 224 255
200 224 255
200 224 255
200 224 255
200 224 255
200 224 255
200 224 255
200 224 255
200 224 255
200 224 255
200 224 255
200 224 255
200 224 255
200 224 255
200 224 255
200 224 255
200 224 255
200 224 255
200 224 255
200 224 255
200 224 255
200 224 255
200 224 255
200 224 255
200 224 255
200 224 255
200 224 255
200 224 255
200 224 255
200 224 255
200 224 255
200 224 255
200 224 255
200 224 255
200 224 255
200 224 255
200 224 255
200 224 255
200 224 255
200 224 255
200 224 255
200 224 255
201 224 255
201 224 255
201 224 255
201 225 255
201 225 255
201 225 255
201 225 255
201 225 255
201 225 255
201 225 255
201 225 255
201 225 255
201 225 255
201 225 255
201 225 255
201 225 255
201 225 255
201 225 255
201 225 255
201 225 255
201 225 255
201 225 255
202 225 255
202 225 255
202 225 255
202 225 255
202 225 255
202 225 255
202 225 255
202 225 255
202 225 255
202 225 255
202 225 255
202 225 255
202 225 255
202 225 255
202 225 255
202 225 255
202 225 255
202 225 255
203 226 255
203 226 255
203 226 255
203 226 255
203 226 255
203 226 255
203 226 255
203 226 255
203 226 255
203 226 255
203 226 255
203 226 255
203 226 255
203 226 255
203 226 255
203 226 255
204 226 255
204 226 255
204 226 255
204 226 255
204 226 255
204 226 255
204 226 255
204 226 255
204 226 255
204 226 255
204 226 255
204 226 255
204 226 255
204 226 255
204 227 255
205 227 255
205 227 255
205 227 255
205 227 255
205 227 255
205 227 255
205 227 255
205 227 255
205 227 255
205 227 255
205 227 255
205 227 255
205 227 255
205 227 255
205 227 255
205 227 255
206 227 255
206 227 255
206 227 255
206 227 255
206 227 255
206 227 255
206 227 255
206 227 255
206 227 255
206 227 255
206 227 255
206 227 255
206 228 255
206 228 255
206 228 255
206 228 255
207 228 255
207 228 255
207 228 255
207 228 255
207 228 255
207 228 255
207 228 255
207 228 255
207 228 255
207 228 255
207 228 255
207 228 255
207 228 255
207 228 255
207 228 255
207 228 255
207 228 255
208 228 255
208 228 255
208 228 255
208 228 255
208 228 255
208 228 255
208 228 255
208 228 255
208 228 255
208 228 255
208 228 255
208 229 255
208 229 255
208 229 255
208 229 255
208 229 255
208 229 255
208 229 255
209 229 255
209 229 255
209 229 255
209 229 255
209 229 255
209 229 255
209 229 255
209 229 255
209 229 255
209 229 255
209 229 255
209 229 255
209 229 255
209 229 255
209 229 255
209 229 255
209 229 255
209 229 255
209 229 255
210 229 255
210 229 255
210 229 255
210 229 255
210 229 255
210 229 255
210 229 255
210 229 255
210 229 255
210 229 255
210 229 255
210 229 255
210 229 255
210 229 255
210 229 255
210 229 255
210 229 255
210 229 255
209 229 255
209 229 255
209 229 255
209 229 255
209 229 255
209 229 255
209 229 255
209 229 255
209 229 255
209 229 255
209 229 255
209 229 255
209 229 255
209 229 255
209 229 255
209 229 255
209 229 255
209 229 255
209 229 255
209 229 255
208 229 255
208 229 255
208 229 255
208 229 255
208 229 255
208 229 255
208 228 255
208 228 255
208 228 255
208 228 255
208 228 255
208 228 255
208 228 255
208 228 255
208 228 255
208 228 255
208 228 255
208 228 255
207 228 255
207 228 255
207 228 255
207 228 255
207 228 255
207 228 255
207 228 255
207 228 255
207 228 255
207 228 255
207 228 255
207 228 255
207 228 255
207 228 255
207 228 255
207 228 255
206 228 255
206 228 255
206 228 255
206 228 255
206 227 255
206 227 255
206 227 255
206 227 255
206 227 255
206 227 255
206 227 255
206 227 255
206 227 255
206 227 255
206 227 255
206 227 255
206 227 255
205 227 255
205 227 255
205 227 255
205 227 255
205 227 255
205 227 255
205 227 255
205 227 255
205 227 255
205 227 255
205 227 255
205 227 255
205 227 255
205 227 255
205 227 255
204 227 255
204 227 255
204 226 255
204 226 255
204 226 255
204 226 255
204 226 255
204 226 255
204 226 255
204 226 255
204 226 255
204 226 255
204 226 255
204 226 255
204 226 255
204 226 255
203 226 255
203 226 255
203 226 255
203 226 255
203 226 255
203 226 255
203 226 255
203 226 255
203 226 255
203 226 255
203 226 255
203 226 255
203 226 255
203 226 255
203 226 255
203 226 255
202 225 255
202 225 255
202 225 255
202 225 255
202 225 255
202 225 255
202 225 255
202 225 255
202 225 255
202 225 255
202 225 255
202 225 255
202 225 255
202 225 255
202 225 255
202 225 255
202 225 255
202 225 255
201 225 255
201 225 255
201 225 255
201 225 255
201 225 255
201 225 255
201 225 255
201 225 255
201 225 255
201 225 255
201 225 255
201 225 255
201 225 255
201 225 255
201 225 255
201 225 255
201 225 255
201 225 255
201 225 255
201 225 255
201 224 255
201 224 255
201 224 255
200 224 255
200 224 255
200 224 255
200 224 255
200 224 255
200 224 255
200 224 255
200 224 255
200 224 255
200 224 255
200 224 255
200 224 255
200 224 255
200 224 255
200 224 255
200 224 255
200 224 255
200 224 255
200 224 255
200 224 255
200 224 255
200 224 255
200 224 255
200 224 255
200 224 255
200 224 255
200 224 255
200 224 255
200 224 255
200 224 255
200 224 255
200 224 255
200 224 255
200 224 255
200 224 255
200 224 255
200 224 255
200 224 255
200 224 255
200 224 255
200 224 255
200 224 255
200 224 255
200 224 255
200 224 255
200 224 255
200 224 255
200 224 255
200 224 255
200 224 255
200 224 255
200 224 255
200 224 255
200 224 255
200 224 255
200 224 255
200 224 255
200 224 255
200 224 255
200 224 255
200 224 255
200 224 255
201 224 255
201 224 255
201 224 255
201 225 255
201 225 255
201 225 255
201 225 255
201 225 255
201 225 255
201 225 255
201 225 255
201 225 255
201 225 255
201 225 255
201 225 255
201 225 255
201 225 255
201 225 255
201 225 255
201 225 255
201 225 255
201 225 255
201 225 255
201 225 255
202 225 255
202 225 255
202 225 255
202 225 255
202 225 255
202 225 255
202 225 255
202 225 255
202 225 255
202 225 255
202 225 255
202 225 255
202 225 255
202 225 255
202 225 255
202 225 255
202 225 255
203 226 255
203 226 255
203 226 255
203 226 255
203 226 255
203 226 255
203 226 255
203 226 255
203 226 255
203 226 255
203 226 255
203 226 255
203 226 255
203 226 255
203 226 255
203 226 255
204 226 255
204 226 255
204 226 255
204 226 255
204 226 255
204 226 255
204 226 255
204 226 255
204 226 255
204 226 255
204 226 255
204 226 255
204 226 255
204 226 255
204 227 255
204 227 255
205 227 255
205 227 255
205 227 255
205 227 255
205 227 255
205 227 255
205 227 255
205 227 255
205 227 255
205 227 255
205 227 255
205 227 255
205 227 255
205 227 255
205 227 255
205 227 255
206 227 255
206 227 255
206 227 255
206 227 255
206 227 255
206 227 255
206 227 255
206 227 255
206 227 255
206 227 255
206 227 255
206 227 255
206 228 255
206 228 255
206 228 255
206 228 255
207 228 255
207 228 255
207 228 255
207 228 255
207 228 255
207 228 255
207 228 255
207 228 255
207 228 255
207 228 255
207 228 255
207 228 255
207 228 255
207 228 255
207 228 255
207 228 255
208 228 255
208 228 255
208 228 255
208 228 255
208 228 255
208 228 255
208 228 255
208 228 255
208 228 255
208 228 255
208 228 255
208 228 255
208 229 255
208 229 255
208 229 255
208 229 255
208 229 255
208 229 255
209 229 255
209 229 255
209 229 255
209 229 255
209 229 255
209 229 255
209 229 255
209 229 255
209 229 255
209 229 255
209 229 255
209 229 255
209 229 255
209 229 255
209 229 255
209 229 255
209 229 255
209 229 255
209 229 255
209 229 255
210 229 255
210 229 255
210 229 255
210 229 255
210 229 255
210 229 255
210 229 255
210 229 255
210 229 255
210 229 255
210 230 255
210 230 255
210 230 255
210 229 255
210 229 255
210 229 255
210 229 255
210 229 255
210 229 255
210 229 255
210 229 255
210 229 255
210 229 255
209 229 255
209 229 255
209 229 255
209 229 255
209 229 255
209 229 255
209 229 255
209 229 255
209 229 255
209 229 255
209 229 255
209 229 255
209 229 255
209 229 255
209 229 255
209 229 255
209 229 255
209 229 255
209 229 255
208 229 255
208 229 255
208 229 255
208 229 255
208 229 255
208 229 255
208 229 255
208 228 255
208 228 255
208 228 255
208 228 255
208 228 255
208 228 255
208 228 255
208 228 255
208 228 255
208 228 255
208 228 255
207 228 255
207 228 255
207 228 255
207 228 255
207 228 255
207 228 255
207 228 255
207 228 255
207 228 255
207 228 255
207 228 255
207 228 255
207 228 255
207 228 255
207 228 255
207 228 255
207 228 255
206 228 255
206 228 255
206 228 255
206 227 255
206 227 255
206 227 255
206 227 255
206 227 255
206 227 255
206 227 255
206 227 255
206 227 255
206 227 255
206 227 255
206 227 255
206 227 255
205 227 255
205 227 255
205 227 255
205 227 255
205 227 255
205 227 255
205 227 255
205 227 255
205 227 255
205 227 255
205 227 255
205 227 255
205 227 255
205 227 255
205 227 255
204 227 255
204 227 255
204 226 255
204 226 255
204 226 255
204 226 255
204 226 255
204 226 255
204 226 255
204 226 255
204 226 255
204 226 255
204 226 255
204 226 255
204 226 255
204 226 255
203 226 255
203 226 255
203 226 255
203 226 255
203 226 255
203 226 255
203 226 255
203 226 255
203 226 255
203 226 255
203 226 255
203 226 255
203 226 255
203 226 255
203 226 255
203 226 255
202 225 255
202 225 255
202 225 255
202 225 255
202 225 255
202 225 255
202 225 255
202 225 255
202 225 255
202 225 255
202 225 255
202 225 255
202 225 255
202 225 255
202 225 255
202 225 255
202 225 255
202 225 255
202 225 255
201 225 255
201 225 255
201 225 255
201 225 255
201 225 255
201 225 255
201 225 255
201 225 255
201 225 255
201 225 255
201 225 255
201 225 255
201 225 255
201 225 255
201 225 255
201 225 255
201 225 255
201 225 255
201 225 255
201 225 255
201 225 255
201 224 255
201 224 255
201 224 255
201 224 255
200 224 255
200 224 255
200 224 255
200 224 255
200 224 255
200 224 255
200 224 255
200 224 255
200 224 255
200 224 255
200 224 255
200 224 255
200 224 255
200 224 255
200 224 255
200 224 255
200 224 255
200 224 255
200 224 255
200 224 255
200 224 255
200 224 255
200 224 255
200 224 255
200 224 255
200 224 255
200 224 255
200 224 255
200 224 255
200 224 255
200 224 255
200 224 255
200 224 255
200 224 255
200 224 255
200 224 255
200 224 255
200 224 255
200 224 255
200 224 255
200 224 255
200 224 255
200 224 255
200 224 255
200 224 255
200 224 255
200 224 255
200 224 255
200 224 255
200 224 255
200 224 255
200 224 255
201 224 255
201 224 255
201 224 255
201 224 255
201 225 255
201 225 255
201 225 255
201 225 255
201 225 255
201 225 255
201 225 255
201 225 255
201 225 255
201 225 255
201 225 255
201 225 255
201 225 255
201 225 255
201 225 255
201 225 255
201 225 255
201 225 255
201 225 255
201 225 255
201 225 255
201 225 255
202 225 255
202 225 255
202 225 255
202 225 255
202 225 255
202 225 255
202 225 255
202 225 255
202 225 255
202 225 255
202 225 255
202 225 255
202 225 255
202 225 255
202 225 255
202 225 255
202 225 255
202 225 255
203 226 255
203 226 255
203 226 255
203 226 255
203 226 255
203 226 255
203 226 255
203 226 255
203 226 255
203 226 255
203 226 255
203 226 255
203 226 255
203 226 255
203 226 255
203 226 255
204 226 255
204 226 255
204 226 255
204 226 255
204 226 255
204 226 255
204 226 255
204 226 255
204 226 255
204 226 255
204 226 255
204 226 255
204 226 255
204 226 255
204 227 255
204 227 255
205 227 255
205 227 255
205 227 255
205 227 255
205 227 255
205 227 255
205 227 255
205 227 255
205 227 255
205 227 255
205 227 255
205 227 255
205 227 255
205 227 255
205 227 255
205 227 255
206 227 255
206 227 255
206 227 255
206 227 255
206 227 255
206 227 255
206 227 255
206 227 255
206 227 255
206 227 255
206 227 255
206 227 255
206 228 255
206 228 255
206 228 255
207 228 255
207 228 255
207 228 255
207 228 255
207 228 255
207 228 255
207 228 255
207 228 255
207 228 255
207 228 255
207 228 255
207 228 255
207 228 255
207 228 255
207 228 255
207 228 255
207 228 255
208 228 255
208 228 255
208 228 255
208 228 255
208 228 255
208 228 255
208 228 255
208 228 255
208 228 255
208 228 255
208 228 255
208 229 255
208 229 255
208 229 255
208 229 255
208 229 255
208 229 255
208 229 255
209 229 255
209 229 255
209 229 255
209 229 255
209 229 255
209 229 255
209 229 255
209 229 255
209 229 255
209 229 255
209 229 255
209 229 255
209 229 255
209 229 255
209 229 255
209 229 255
209 229 255
209 229 255
209 229 255
210 229 255
210 229 255
210 229 255
210 229 255
210 229 255
210 229 255
210 229 255
210 229 255
210 229 255
210 229 255
210 229 255
210 230 255
210 230 255
210 230 255
210 230 255
210 230 255
210 230 255
210 230 255
210 229 255
210 229 255
210 229 255
210 229 255
210 229 255
210 229 255
210 229 255
210 229 255
210 229 255
210 229 255
209 229 255
209 229 255
209 229 255
209 229 255
209 229 255
209 229 255
209 229 255
209 229 255
209 229 255
209 229 255
209 229 255
209 229 255
209 229 255
209 229 255
209 229 255
209 229 255
209 229 255
209 229 255
209 229 255
209 229 255
208 229 255
208 229 255
208 229 255
208 229 255
208 229 255
208 229 255
208 228 255
208 228 255
208 228 255
208 228 255
208 228 255
208 228 255
208 228 255
208 228 255
208 228 255
208 228 255
208 228 255
207 228 255
207 228 255
207 228 255
207 228 255
207 228 255
207 228 255
207 228 255
207 228 255
207 228 255
207 228 255
207 228 255
207 228 255
207 228 255
207 228 255
207 228 255
207 228 255
207 228 255
206 228 255
206 228 255
206 228 255
206 228 255
206 227 255
206 227 255
206 227 255
206 227 255
206 227 255
206 227 255
206 227 255
206 227 255
206 227 255
206 227 255
206 227 255
206 227 255
205 227 255
205 227 255
205 227 255
205 227 255
205 227 255
205 227 255
205 227 255
205 227 255
205 227 255
205 227 255
205 227 255
205 227 255
205 227 255
205 227 255
205 227 255
204 227 255
204 227 255
204 226 255
204 226 255
204 226 255
204 226 255
204 226 255
204 226 255
204 226 255
204 226 255
204 226 255
204 226 255
204 226 255
204 226 255
204 226 255
204 226 255
203 226 255
203 226 255
203 226 255
203 226 255
203 226 255
203 226 255
203 226 255
203 226 255
203 226 255
203 226 255
203 226 255
203 226 255
203 226 255
203 226 255
203 226 255
203 226 255
203 226 255
202 225 255
202 225 255
202 225 255
202 225 255
202 225 255
202 225 255
202 225 255
202 225 255
202 225 255
202 225 255
202 225 255
202 225 255
202 225 255
202 225 255
202 225 255
202 225 255
202 225 255
202 225 255
202 225 255
201 225 255
201 225 255
201 225 255
201 225 255
201 225 255
201 225 255
201 225 255
201 225 255
201 225 255
201 225 255
201 225 255
201 225 255
201 225 255
201 225 255
201 225 255
201 225 255
201 225 255
201 225 255
201 225 255
201 225 255
201 225 255
201 225 255
201 225 255
201 224 255
201 224 255
201 224 255
201 224 255
200 224 255
200 224 255
200 224 255
200 224 255
200 224 255
200 224 255
200 224 255
200 224 255
200 224 255
200 224 255
200 224 255
200 224 255
200 224 255
200 224 255
200 224 255
200 224 255
200 224 255
200 224 255
200 224 255
200 224 255
200 224 255
200 224 255
200 224 255
200 224 255
200 224 255
200 224 255
200 224 255
200 224 255
200 224 255
200 224 255
200 224 255
200 224 255
200 224 255
200 224 255
200 224 255
200 224 255
200 224 255
200 224 255
200 224 255
200 224 255
200 224 255
200 224 255
201 224 255
201 224 255
201 224 255
201 224 255
201 225 255
201 225 255
201 225 255
201 225 255
201 225 255
201 225 255
201 225 255
201 225 255
201 225 255
201 225 255
201 225 255
201 225 255
201 225 255
201 225 255
201 225 255
201 225 255
201 225 255
201 225 255
201 225 255
201 225 255
201 225 255
201 225 255
201 225 255
201 225 255
202 225 255
202 225 255
202 225 255
202 225 255
202 225 255
202 225 255
202 225 255
202 225 255
202 225 255
202 225 255
202 225 255
202 225 255
202 225 255
202 225 255
202 225 255
202 225 255
202 225 255
202 225 255
203 226 255
203 226 255
203 226 255
203 226 255
203 226 255
203 226 255
203 226 255
203 226 255
203 226 255
203 226 255
203 226 255
203 226 255
203 226 255
203 226 255
203 226 255
203 226 255
203 226 255
204 226 255
204 226 255
204 226 255
204 226 255
204 226 255
204 226 255
204 226 255
204 226 255
204 226 255
204 226 255
204 226 255
204 226 255
204 226 255
204 226 255
204 227 255
204 227 255
205 227 255
205 227 255
205 227 255
205 227 255
205 227 255
205 227 255
205 227 255
205 227 255
205 227 255
205 227 255
205 227 255
205 227 255
205 227 255
205 227 255
205 227 255
206 227 255
206 227 255
206 227 255
206 227 255
206 227 255
206 227 255
206 227 255
206 227 255
206 227 255
206 227 255
206 227 255
206 227 255
206 228 255
206 228 255
206 228 255
206 228 255
207 228 255
207 228 255
207 228 255
207 228 255
207 228 255
207 228 255
207 228 255
207 228 255
207 228 255
207 228 255
207 228 255
207 228 255
207 228 255
207 228 255
207 228 255
207 228 255
207 228 255
208 228 255
208 228 255
208 228 255
208 228 255
208 228 255
208 228 255
208 228 255
208 228 255
208 228 255
208 228 255
208 228 255
208 229 255
208 229 255
208 229 255
208 229 255
208 229 255
208 229 255
209 229 255
209 229 255
209 229 255
209 229 255
209 229 255
209 229 255
209 229 255
209 229 255
209 229 255
209 229 255
209 229 255
209 229 255
209 229 255
209 229 255
209 229 255
209 229 255
209 229 255
209 229 255
209 229 255
209 229 255
210 229 255
210 229 255
210 229 255
210 229 255
210 229 255
210 229 255
210 229 255
210 229 255
210 229 255
210 229 255
210 230 255
210 230 255
210 230 255
210 230 255
210 230 255
210 230 255
210 230 255
210 230 255
210 230 255
210 230 255
210 230 255
210 230 255
210 230 255
210 229 255
210 229 255
210 229 255
210 229 255
210 229 255
210 229 255
210 229 255
210 229 255
210 229 255
210 229 255
209 229 255
209 229 255
209 229 255
209 229 255
209 229 255
209 229 255
209 229 255
209 229 255
209 229 255
209 229 255
209 229 255
209 229 255
209 229 255
209 229 255
209 229 255
209 229 255
209 229 255
209 229 255
209 229 255
208 229 255
208 229 255
208 229 255
208 229 255
208 229 255
208 229 255
208 229 255
208 228 255
208 228 255
208 228 255
208 228 255
208 228 255
208 228 255
208 228 255
208 228 255
208 228 255
208 228 255
208 228 255
207 228 255
207 228 255
207 228 255
207 228 255
207 228 255
207 228 255
207 228 255
207 228 255
207 228 255
207 228 255
207 228 255
207 228 255
207 228 255
207 228 255
207 228 255
207 228 255
206 228 255
206 228 255
206 228 255
206 228 255
206 227 255
206 227 255
206 227 255
206 227 255
206 227 255
206 227 255
206 227 255
206 227 255
206 227 255
206 227 255
206 227 255
206 227 255
205 227 255
205 227 255
205 227 255
205 227 255
205 227 255
205 227 255
205 227 255
205 227 255
205 227 255
205 227 255
205 227 255
205 227 255
205 227 255
205 227 255
205 227 255
205 227 255
204 227 255
204 227 255
204 226 255
204 226 255
204 226 255
204 226 255
204 226 255
204 226 255
204 226 255
204 226 255
204 226 255
204 226 255
204 226 255
204 226 255
204 226 255
204 226 255
203 226 255
203 226 255
203 226 255
203 226 255
203 226 255
203 226 255
203 226 255
203 226 255
203 226 255
203 226 255
203 226 255
203 226 255
203 226 255
203 226 255
203 226 255
203 226 255
203 226 255
202 225 255
202 225 255
202 225 255
202 225 255
202 225 255
202 225 255
202 225 255
202 225 255
202 225 255
202 225 255
202 225 255
202 225 255
202 225 255
202 225 255
202 225 255
202 225 255
202 225 255
202 225 255
202 225 255
201 225 255
201 225 255
201 225 255
201 225 255
201 225 255
201 225 255
201 225 255
201 225 255
201 225 255
201 225 255
201 225 255
201 225 255
201 225 255
201 225 255
201 225 255
201 225 255
201 225 255
201 225 255
201 225 255
201 225 255
201 225 255
201 225 255
201 225 255
201 225 255
201 225 255
201 225 255
201 225 255
201 224 255
201 224 255
201 224 255
201 224 255
201 224 255
200 224 255
200 224 255
200 224 255
200 224 255
200 224 255
200 224 255
200 224 255
200 224 255
200 224 255
200 224 255
200 224 255
200 224 255
200 224 255
200 224 255
200 224 255
200 224 255
200 224 255
200 224 255
200 224 255
200 224 255
200 224 255
200 224 255
200 224 255
200 224 255
200 224 255
200 224 255
201 224 255
201 224 255
201 224 255
201 224 255
201 224 255
201 224 255
201 225 255
201 225 255
201 225 255
201 225 255
201 225 255
201 225 255
201 225 255
201 225 255
201 225 255
201 225 255
201 225 255
201 225 255
201 225 255
201 225 255
201 225 255
201 225 255
201 225 255
201 225 255
201 225 255
201 225 255
201 225 255
201 225 255
201 225 255
201 225 255
201 225 255
201 225 255
202 225 255
202 225 255
202 225 255
202 225 255
202 225 255
202 225 255
202 225 255
202 225 255
202 225 255
202 225 255
202 225 255
202 225 255
202 225 255
202 225 255
202 225 255
202 225 255
202 225 255
202 225 255
202 225 255
202 225 255
203 226 255
203 226 255
203 226 255
203 226 255
203 226 255
203 226 255
203 226 255
203 226 255
203 226 255
203 226 255
203 226 255
203 226 255
203 226 255
203 226 255
203 226 255
203 226 255
204 226 255
204 226 255
204 226 255
204 226 255
204 226 255
204 226 255
204 226 255
204 226 255
204 226 255
204 226 255
204 226 255
204 226 255
204 226 255
204 226 255
204 227 255
204 227 255
205 227 255
205 227 255
205 227 255
205 227 255
205 227 255
205 227 255
205 227 255
205 227 255
205 227 255
205 227 255
205 227 255
205 227 255
205 227 255
205 227 255
205 227 255
205 227 255
206 227 255
206 227 255
206 227 255
206 227 255
206 227 255
206 227 255
206 227 255
206 227 255
206 227 255
206 227 255
206 227 255
206 227 255
206 228 255
206 228 255
206 228 255
206 228 255
207 228 255
207 228 255
207 228 255
207 228 255
207 228 255
207 228 255
207 228 255
207 228 255
207 228 255
207 228 255
207 228 255
207 228 255
207 228 255
207 228 255
207 228 255
207 228 255
208 228 255
208 228 255
208 228 255
208 228 255
208 228 255
208 228 255
208 228 255
208 228 255
208 228 255
208 228 255
208 228 255
208 228 255
208 229 255
208 229 255
208 229 255
208 229 255
208 229 255
208 229 255
209 229 255
209 229 255
209 229 255
209 229 255
209 229 255
209 229 255
209 229 255
209 229 255
209 229 255
209 229 255
209 229 255
209 229 255
209 229 255
209 229 255
209 229 255
209 229 255
209 229 255
209 229 255
209 229 255
210 229 255
210 229 255
210 229 255
210 229 255
210 229 255
210 229 255
210 229 255
210 229 255
210 229 255
210 229 255
210 230 255
210 230 255
210 230 255
210 230 255
210 230 255
210 230 255
210 230 255
210 230 255
210 230 255
210 230 255
210 230 255
210 230 255
210 230 255
210 230 255
210 230 255
210 230 255
210 230 255
210 230 255
210 230 255
210 229 255
210 229 255
210 229 255
210 229 255
210 229 255
210 229 255
210 229 255
210 229 255
210 229 255
210 229 255
209 229 255
209 229 255
209 229 255
209 229 255
209 229 255
209 229 255
209 229 255
209 229 255
209 229 255
209 229 255
209 229 255
209 229 255
209 229 255
209 229 255
209 229 255
209 229 255
209 229 255
209 229 255
208 229 255
208 229 255
208 229 255
208 229 255
208 229 255
208 229 255
208 229 255
208 228 255
208 228 255
208 228 255
208 228 255
208 228 255
208 228 255
208 228 255
208 228 255
208 228 255
208 228 255
208 228 255
207 228 255
207 228 255
207 228 255
207 228 255
207 228 255
207 228 255
207 228 255
207 228 255
207 228 255
207 228 255
207 228 255
207 228 255
207 228 255
207 228 255
207 228 255
207 228 255
207 228 255
206 228 255
206 228 255
206 228 255
206 227 255
206 227 255
206 227 255
206 227 255
206 227 255
206 227 255
206 227 255
206 227 255
206 227 255
206 227 255
206 227 255
206 227 255
206 227 255
205 227 255
205 227 255
205 227 255
205 227 255
205 227 255
205 227 255
205 227 255
205 227 255
205 227 255
205 227 255
205 227 255
205 227 255
205 227 255
205 227 255
205 227 255
204 227 255
204 227 255
204 226 255
204 226 255
204 226 255
204 226 255
204 226 255
204 226 255
204 226 255
204 226 255
204 226 255
204 226 255
204 226 255
204 226 255
204 226 255
204 226 255
203 226 255
203 226 255
203 226 255
203 226 255
203 226 255
203 226 255
203 226 255
203 226 255
203 226 255
203 226 255
203 226 255
203 226 255
203 226 255
203 226 255
203 226 255
203 226 255
203 226 255
202 225 255
202 225 255
202 225 255
202 225 255
202 225 255
202 225 255
202 225 255
202 225 255
202 225 255
202 225 255
202 225 255
202 225 255
202 225 255
202 225 255
202 225 255
202 225 255
202 225 255
202 225 255
202 225 255
202 225 255
201 225 255
201 225 255
201 225 255
201 225 255
201 225 255
201 225 255
201 225 255
201 225 255
201 225 255
201 225 255
201 225 255
201 225 255
201 225 255
201 225 255
201 225 255
201 225 255
201 225 255
201 225 255
201 225 255
201 225 255
201 225 255
201 225 255
201 225 255
201 225 255
201 225 255
201 225 255
201 225 255
201 225 255
201 225 255
201 225 255
201 225 255
201 225 255
201 225 255
201 225 255
201 224 255
201 224 255
201 224 255
201 224 255
201 224 255
201 224 255
201 224 255
201 224 255
201 224 255
201 224 255
201 224 255
201 224 255
201 224 255
201 224 255
201 224 255
201 224 255
201 224 255
201 225 255
201 225 255
201 225 255
201 225 255
201 225 255
201 225 255
201 225 255
201 225 255
201 225 255
201 225 255
201 225 255
201 225 255
201 225 255
201 225 255
201 225 255
201 225 255
201 225 255
201 225 255
201 225 255
201 225 255
201 225 255
201 225 255
201 225 255
201 225 255
201 225 255
201 225 255
201 225 255
201 225 255
201 225 255
201 225 255
201 225 255
201 225 255
201 225 255
202 225 255
202 225 255
202 225 255
202 225 255
202 225 255
202 225 255
202 225 255
202 225 255
202 225 255
202 225 255
202 225 255
202 225 255
202 225 255
202 225 255
202 225 255
202 225 255
202 225 255
202 225 255
202 225 255
202 225 255
203 226 255
203 226 255
203 226 255
203 226 255
203 226 255
203 226 255
203 226 255
203 226 255
203 226 255
203 226 255
203 226 255
203 226 255
203 226 255
203 226 255
203 226 255
203 226 255
203 226 255
204 226 255
204 226 255
204 226 255
204 226 255
204 226 255
204 226 255
204 226 255
204 226 255
204 226 255
204 226 255
204 226 255
204 226 255
204 226 255
204 226 255
204 227 255
204 227 255
205 227 255
205 227 255
205 227 255
205 227 255
205 227 255
205 227 255
205 227 255
205 227 255
205 227 255
205 227 255
205 227 255
205 227 255
205 227 255
205 227 255
205 227 255
206 227 255
206 227 255
206 227 255
206 227 255
206 227 255
206 227 255
206 227 255
206 227 255
206 227 255
206 227 255
206 227 255
206 227 255
206 227 255
206 228 255
206 228 255
206 228 255
207 228 255
207 228 255
207 228 255
207 228 255
207 228 255
207 228 255
207 228 255
207 228 255
207 228 255
207 228 255
207 228 255
207 228 255
207 228 255
207 228 255
207 228 255
207 228 255
207 228 255
208 228 255
208 228 255
208 228 255
208 228 255
208 228 255
208 228 255
208 228 255
208 228 255
208 228 255
208 228 255
208 228 255
208 229 255
208 229 255
208 229 255
208 229 255
208 229 255
208 229 255
209 229 255
209 229 255
209 229 255
209 229 255
209 229 255
209 229 255
209 229 255
209 229 255
209 229 255
209 229 255
209 229 255
209 229 255
209 229 255
209 229 255
209 229 255
209 229 255
209 229 255
209 229 255
209 229 255
210 229 255
210 229 255
210 229 255
210 229 255
210 229 255
210 229 255
210 229 255
210 229 255
210 229 255
210 229 255
210 230 255
210 230 255
210 230 255
210 230 255
210 230 255
210 230 255
210 230 255
210 230 255
210 230 255
210 230 255
210 230 255
211 230 255
211 230 255
211 230 255
210 230 255
210 230 255
210 230 255
210 230 255
210 230 255
210 230 255
210 230 255
210 230 255
210 230 255
210 230 255
210 229 255
210 229 255
210 229 255
210 229 255
210 229 255
210 229 255
210 229 255
210 229 255
210 229 255
210 229 255
209 229 255
209 229 255
209 229 255
209 229 255
209 229 255
209 229 255
209 229 255
209 229 255
209 229 255
209 229 255
209 229 255
209 229 255
209 229 255
209 229 255
209 229 255
209 229 255
209 229 255
209 229 255
209 229 255
208 229 255
208 229 255
208 229 255
208 229 255
208 229 255
208 229 255
208 229 255
208 228 255
208 228 255
208 228 255
208 228 255
208 228 255
208 228 255
208 228 255
208 228 255
208 228 255
208 228 255
208 228 255
207 228 255
207 228 255
207 228 255
207 228 255
207 228 255
207 228 255
207 228 255
207 228 255
207 228 255
207 228 255
207 228 255
207 228 255
207 228 255
207 228 255
207 228 255
207 228 255
206 228 255
206 228 255
206 228 255
206 228 255
206 227 255
206 227 255
206 227 255
206 227 255
206 227 255
206 227 255
206 227 255
206 227 255
206 227 255
206 227 255
206 227 255
206 227 255
205 227 255
205 227 255
205 227 255
205 227 255
205 227 255
205 227 255
205 227 255
205 227 255
205 227 255
205 227 255
205 227 255
205 227 255
205 227 255
205 227 255
205 227 255
205 227 255
204 227 255
204 226 255
204 226 255
204 226 255
204 226 255
204 226 255
204 226 255
204 226 255
204 226 255
204 226 255
204 226 255
204 226 255
204 226 255
204 226 255
204 226 255
204 226 255
203 226 255
203 226 255
203 226 255
203 226 255
203 226 255
203 226 255
203 226 255
203 226 255
203 226 255
203 226 255
203 226 255
203 226 255
203 226 255
203 226 255
203 226 255
203 226 255
203 226 255
202 225 255
202 225 255
202 225 255
202 225 255
202 225 255
202 225 255
202 225 255
202 225 255
202 225 255
202 225 255
202 225 255
202 225 255
202 225 255
202 225 255
202 225 255
202 225 255
202 225 255
202 225 255
202 225 255
202 225 255
202 225 255
201 225 255
201 225 255
201 225 255
201 225 255
201 225 255
201 225 255
201 225 255
201 225 255
201 225 255
201 225 255
201 225 255
201 225 255
201 225 255
201 225 255
201 225 255
201 225 255
201 225 255
201 225 255
201 225 255
201 225 255
201 225 255
201 225 255
201 225 255
201 225 255
201 225 255
201 225 255
201 225 255
201 225 255
201 225 255
201 225 255
201 225 255
201 225 255
201 225 255
201 225 255
201 225 255
201 225 255
201 225 255
201 225 255
201 225 255
201 225 255
201 225 255
201 225 255
201 225 255
201 225 255
201 225 255
201 225 255
201 225 255
201 225 255
201 225 255
201 225 255
201 225 255
201 225 255
201 225 255
201 225 255
201 225 255
201 225 255
201 225 255
201 225 255
201 225 255
201 225 255
201 225 255
201 225 255
201 225 255
201 225 255
201 225 255
201 225 255
201 225 255
201 225 255
201 225 255
201 225 255
201 225 255
201 225 255
201 225 255
201 225 255
201 225 255
201 225 255
202 225 255
202 225 255
202 225 255
202 225 255
202 225 255
202 225 255
202 225 255
202 225 255
202 225 255
202 225 255
202 225 255
202 225 255
202 225 255
202 225 255
202 225 255
202 225 255
202 225 255
202 225 255
202 225 255
202 225 255
202 225 255
203 226 255
203 226 255
203 226 255
203 226 255
203 226 255
203 226 255
203 226 255
203 226 255
203 226 255
203 226 255
203 226 255
203 226 255
203 226 255
203 226 255
203 226 255
203 226 255
203 226 255
204 226 255
204 226 255
204 226 255
204 226 255
204 226 255
204 226 255
204 226 255
204 226 255
204 226 255
204 226 255
204 226 255
204 226 255
204 226 255
204 226 255
204 226 255
204 227 255
205 227 255
205 227 255
205 227 255
205 227 255
205 227 255
205 227 255
205 227 255
205 227 255
205 227 255
205 227 255
205 227 255
205 227 255
205 227 255
205 227 255
205 227 255
205 227 255
206 227 255
206 227 255
206 227 255
206 227 255
206 227 255
206 227 255
206 227 255
206 227 255
206 227 255
206 227 255
206 227 255
206 227 255
206 228 255
206 228 255
206 228 255
206 228 255
207 228 255
207 228 255
207 228 255
207 228 255
207 228 255
207 228 255
207 228 255
207 228 255
207 228 255
207 228 255
207 228 255
207 228 255
207 228 255
207 228 255
207 228 255
207 228 255
207 228 255
208 228 255
208 228 255
208 228 255
208 228 255
208 228 255
208 228 255
208 228 255
208 228 255
208 228 255
208 228 255
208 229 255
208 229 255
208 229 255
208 229 255
208 229 255
208 229 255
208 229 255
209 229 255
209 229 255
209 229 255
209 229 255
209 229 255
209 229 255
209 229 255
209 229 255
209 229 255
209 229 255
209 229 255
209 229 255
209 229 255
209 229 255
209 229 255
209 229 255
209 229 255
209 229 255
209 229 255
210 229 255
210 229 255
210 229 255
210 229 255
210 229 255
210 229 255
210 229 255
210 229 255
210 229 255
210 229 255
210 230 255
210 230 255
210 230 255
210 230 255
210 230 255
210 230 255
210 230 255
210 230 255
210 230 255
210 230 255
211 230 255
211 230 255
211 230 255
211 230 255
211 230 255
211 230 255
211 230 255
211 230 255
210 230 255
210 230 255
210 230 255
210 230 255
210 230 255
210 230 255
210 230 255
210 230 255
210 230 255
210 230 255
210 230 255
210 229 255
210 229 255
210 229 255
210 229 255
210 229 255
210 229 255
210 229 255
210 229 255
210 229 255
210 229 255
209 229 255
209 229 255
209 229 255
209 229 255
209 229 255
209 229 255
209 229 255
209 229 255
209 229 255
209 229 255
209 229 255
209 229 255
209 229 255
209 229 255
209 229 255
209 229 255
209 229 255
209 229 255
208 229 255
208 229 255
208 229 255
208 229 255
208 229 255
208 229 255
208 229 255
208 228 255
208 228 255
208 228 255
208 228 255
208 228 255
208 228 255
208 228 255
208 228 255
208 228 255
208 228 255
208 228 255
207 228 255
207 228 255
207 228 255
207 228 255
207 228 255
207 228 255
207 228 255
207 228 255
207 228 255
207 228 255
207 228 255
207 228 255
207 228 255
207 228 255
207 228 255
207 228 255
206 228 255
206 228 255
206 228 255
206 228 255
206 227 255
206 227 255
206 227 255
206 227 255
206 227 255
206 227 255
206 227 255
206 227 255
206 227 255
206 227 255
206 227 255
206 227 255
205 227 255
205 227 255
205 227 255
205 227 255
205 227 255
205 227 255
205 227 255
205 227 255
205 227 255
205 227 255
205 227 255
205 227 255
205 227 255
205 227 255
205 227 255
205 227 255
204 227 255
204 227 255
204 226 255
204 226 255
204 226 255
204 226 255
204 226 255
204 226 255
204 226 255
204 226 255
204 226 255
204 226 255
204 226 255
204 226 255
204 226 255
204 226 255
203 226 255
203 226 255
203 226 255
203 226 255
203 226 255
203 226 255
203 226 255
203 226 255
203 226 255
203 226 255
203 226 255
203 226 255
203 226 255
203 226 255
203 226 255
203 226 255
203 226 255
203 226 255
202 225 255
202 225 255
202 225 255
202 225 255
202 225 255
202 225 255
202 225 255
202 225 255
202 225 255
202 225 255
202 225 255
202 225 255
202 225 255
202 225 255
202 225 255
202 225 255
202 225 255
202 225 255
202 225 255
202 225 255
202 225 255
202 225 255
201 225 255
201 225 255
201 225 255
201 225 255
201 225 255
201 225 255
201 225 255
201 225 255
201 225 255
201 225 255
201 225 255
201 225 255
201 225 255
201 225 255
201 225 255
201 225 255
201 225 255
201 225 255
201 225 255
201 225 255
201 225 255
201 225 255
201 225 255
201 225 255
201 225 255
201 225 255
201 225 255
201 225 255
201 225 255
201 225 255
201 225 255
201 225 255
201 225 255
201 225 255
201 225 255
201 225 255
201 225 255
201 225 255
201 225 255
201 225 255
201 225 255
201 225 255
201 225 255
201 225 255
201 225 255
201 225 255
201 225 255
201 225 255
201 225 255
201 225 255
201 225 255
201 225 255
201 225 255
201 225 255
201 225 255
201 225 255
201 225 255
201 225 255
201 225 255
201 225 255
201 225 255
201 225 255
201 225 255
201 225 255
201 225 255
201 225 255
201 225 255
201 225 255
202 225 255
202 225 255
202 225 255
202 225 255
202 225 255
202 225 255
202 225 255
202 225 255
202 225 255
202 225 255
202 225 255
202 225 255
202 225 255
202 225 255
202 225 255
202 225 255
202 225 255
202 225 255
202 225 255
202 225 255
202 225 255
202 225 255
203 226 255
203 226 255
203 226 255
203 226 255
203 226 255
203 226 255
203 226 255
203 226 255
203 226 255
203 226 255
203 226 255
203 226 255
203 226 255
203 226 255
203 226 255
203 226 255
203 226 255
203 226 255
204 226 255
204 226 255
204 226 255
204 226 255
204 226 255
204 226 255
204 226 255
204 226 255
204 226 255
204 226 255
204 226 255
204 226 255
204 226 255
204 226 255
204 227 255
204 227 255
205 227 255
205 227 255
205 227 255
205 227 255
205 227 255
205 227 255
205 227 255
205 227 255
205 227 255
205 227 255
205 227 255
205 227 255
205 227 255
205 227 255
205 227 255
205 227 255
206 227 255
206 227 255
206 227 255
206 227 255
206 227 255
206 227 255
206 227 255
206 227 255
206 227 255
206 227 255
206 227 255
206 227 255
206 228 255
206 228 255
206 228 255
206 228 255
207 228 255
207 228 255
207 228 255
207 228 255
207 228 255
207 228 255
207 228 255
207 228 255
207 228 255
207 228 255
207 228 255
207 228 255
207 228 255
207 228 255
207 228 255
207 228 255
208 228 255
208 228 255
208 228 255
208 228 255
208 228 255
208 228 255
208 228 255
208 228 255
208 228 255
208 228 255
208 228 255
208 229 255
208 229 255
208 229 255
208 229 255
208 229 255
208 229 255
208 229 255
209 229 255
209 229 255
209 229 255
209 229 255
209 229 255
209 229 255
209 229 255
209 229 255
209 229 255
209 229 255
209 229 255
209 229 255
209 229 255
209 229 255
209 229 255
209 229 255
209 229 255
209 229 255
210 229 255
210 229 255
210 229 255
210 229 255
210 229 255
210 229 255
210 229 255
210 229 255
210 229 255
210 229 255
210 230 255
210 230 255
210 230 255
210 230 255
210 230 255
210 230 255
210 230 255
210 230 255
210 230 255
210 230 255
210 230 255
211 230 255
211 230 255
211 230 255
211 230 255
211 230 255
211 230 255
211 230 255
211 230 255
211 230 255
211 230 255
211 230 255
211 230 255
211 230 255
210 230 255
210 230 255
210 230 255
210 230 255
210 230 255
210 230 255
210 230 255
210 230 255
210 230 255
210 230 255
210 230 255
210 229 255
210 229 255
210 229 255
210 229 255
210 229 255
210 229 255
210 229 255
210 229 255
210 229 255
210 229 255
209 229 255
209 229 255
209 229 255
209 229 255
209 229 255
209 229 255
209 229 255
209 229 255
209 229 255
209 229 255
209 229 255
209 229 255
209 229 255
209 229 255
209 229 255
209 229 255
209 229 255
209 229 255
208 229 255
208 229 255
208 229 255
208 229 255
208 229 255
208 229 255
208 229 255
208 228 255
208 228 255
208 228 255
208 228 255
208 228 255
208 228 255
208 228 255
208 228 255
208 228 255
208 228 255
207 228 255
207 228 255
207 228 255
207 228 255
207 228 255
207 228 255
207 228 255
207 228 255
207 228 255
207 228 255
207 228 255
207 228 255
207 228 255
207 228 255
207 228 255
207 228 255
207 228 255
206 228 255
206 228 255
206 228 255
206 228 255
206 227 255
206 227 255
206 227 255
206 227 255
206 227 255
206 227 255
206 227 255
206 227 255
206 227 255
206 227 255
206 227 255
206 227 255
205 227 255
205 227 255
205 227 255
205 227 255
205 227 255
205 227 255
205 227 255
205 227 255
205 227 255
205 227 255
205 227 255
205 227 255
205 227 255
205 227 255
205 227 255
204 227 255
204 227 255
204 226 255
204 226 255
204 226 255
204 226 255
204 226 255
204 226 255
204 226 255
204 226 255
204 226 255
204 226 255
204 226 255
204 226 255
204 226 255
204 226 255
204 226 255
203 226 255
203 226 255
203 226 255
203 226 255
203 226 255
203 226 255
203 226 255
203 226 255
203 226 255
203 226 255
203 226 255
203 226 255
203 226 255
203 226 255
203 226 255
203 226 255
203 226 255
203 226 255
202 225 255
202 225 255
202 225 255
202 225 255
202 225 255
202 225 255
202 225 255
202 225 255
202 225 255
202 225 255
202 225 255
202 225 255
202 225 255
202 225 255
202 225 255
202 225 255
202 225 255
202 225 255
202 225 255
202 225 255
202 225 255
202 225 255
202 225 255
202 225 255
201 225 255
201 225 255
201 225 255
201 225 255
201 225 255
201 225 255
201 225 255
201 225 255
201 225 255
201 225 255
201 225 255
201 225 255
201 225 255
201 225 255
201 225 255
201 225 255
201 225 255
201 225 255
201 225 255
201 225 255
201 225 255
201 225 255
201 225 255
201 225 255
201 225 255
201 225 255
201 225 255
201 225 255
201 225 255
201 225 255
201 225 255
201 225 255
201 225 255
201 225 255
201 225 255
201 225 255
201 225 255
201 225 255
201 225 255
201 225 255
201 225 255
201 225 255
201 225 255
201 225 255
201 225 255
201 225 255
201 225 255
201 225 255
201 225 255
201 225 255
201 225 255
201 225 255
201 225 255
201 225 255
201 225 255
201 225 255
201 225 255
201 225 255
202 225 255
202 225 255
202 225 255
202 225 255
202 225 255
202 225 255
202 225 255
202 225 255
202 225 255
202 225 255
202 225 255
202 225 255
202 225 255
202 225 255
202 225 255
202 225 255
202 225 255
202 225 255
202 225 255
202 225 255
202 225 255
202 225 255
202 225 255
202 225 255
203 226 255
203 226 255
203 226 255
203 226 255
203 226 255
203 226 255
203 226 255
203 226 255
203 226 255
203 226 255
203 226 255
203 226 255
203 226 255
203 226 255
203 226 255
203 226 255
203 226 255
203 226 255
204 226 255
204 226 255
204 226 255
204 226 255
204 226 255
204 226 255
204 226 255
204 226 255
204 226 255
204 226 255
204 226 255
204 226 255
204 226 255
204 226 255
204 226 255
204 227 255
204 227 255
205 227 255
205 227 255
205 227 255
205 227 255
205 227 255
205 227 255
205 227 255
205 227 255
205 227 255
205 227 255
205 227 255
205 227 255
205 227 255
205 227 255
205 227 255
206 227 255
206 227 255
206 227 255
206 227 255
206 227 255
206 227 255
206 227 255
206 227 255
206 227 255
206 227 255
206 227 255
206 227 255
206 227 255
206 228 255
206 228 255
206 228 255
207 228 255
207 228 255
207 228 255
207 228 255
207 228 255
207 228 255
207 228 255
207 228 255
207 228 255
207 228 255
207 228 255
207 228 255
207 228 255
207 228 255
207 228 255
207 228 255
207 228 255
208 228 255
208 228 255
208 228 255
208 228 255
208 228 255
208 228 255
208 228 255
208 228 255
208 228 255
208 228 255
208 229 255
208 229 255
208 229 255
208 229 255
208 229 255
208 229 255
208 229 255
209 229 255
209 229 255
209 229 255
209 229 255
209 229 255
209 229 255
209 229 255
209 229 255
209 229 255
209 229 255
209 229 255
209 229 255
209 229 255
209 229 255
209 229 255
209 229 255
209 229 255
209 229 255
209 229 255
210 229 255
210 229 255
210 229 255
210 229 255
210 229 255
210 229 255
210 229 255
210 229 255
210 229 255
210 229 255
210 230 255
210 230 255
210 230 255
210 230 255
210 230 255
210 230 255
210 230 255
210 230 255
210 230 255
210 230 255
211 230 255
211 230 255
211 230 255
211 230 255
211 230 255
211 230 255
211 230 255
211 230 255
211 230 255
211 230 255
211 230 255
211 230 255
211 230 255
211 230 255
211 230 255
211 230 255
211 230 255
211 230 255
211 230 255
210 230 255
210 230 255
210 230 255
210 230 255
210 230 255
210 230 255
210 230 255
210 230 255
210 230 255
210 230 255
210 229 255
210 229 255
210 229 255
210 229 255
210 229 255
210 229 255
210 229 255
210 229 255
210 229 255
210 229 255
209 229 255
209 229 255
209 229 255
209 229 255
209 229 255
209 229 255
209 229 255
209 229 255
209 229 255
209 229 255
209 229 255
209 229 255
209 229 255
209 229 255
209 229 255
209 229 255
209 229 255
209 229 255
209 229 255
208 229 255
208 229 255
208 229 255
208 229 255
208 229 255
208 229 255
208 228 255
208 228 255
208 228 255
208 228 255
208 228 255
208 228 255
208 228 255
208 228 255
208 228 255
208 228 255
208 228 255
207 228 255
207 228 255
207 228 255
207 228 255
207 228 255
207 228 255
207 228 255
207 228 255
207 228 255
207 228 255
207 228 255
207 228 255
207 228 255
207 228 255
207 228 255
207 228 255
206 228 255
206 228 255
206 228 255
206 228 255
206 227 255
206 227 255
206 227 255
206 227 255
206 227 255
206 227 255
206 227 255
206 227 255
206 227 255
206 227 255
206 227 255
206 227 255
205 227 255
205 227 255
205 227 255
205 227 255
205 227 255
205 227 255
205 227 255
205 227 255
205 227 255
205 227 255
205 227 255
205 227 255
205 227 255
205 227 255
205 227 255
205 227 255
204 227 255
204 227 255
204 226 255
204 226 255
204 226 255
204 226 255
204 226 255
204 226 255
204 226 255
204 226 255
204 226 255
204 226 255
204 226 255
204 226 255
204 226 255
204 226 255
203 226 255
203 226 255
203 226 255
203 226 255
203 226 255
203 226 255
203 226 255
203 226 255
203 226 255
203 226 255
203 226 255
203 226 255
203 226 255
203 226 255
203 226 255
203 226 255
203 226 255
203 226 255
203 226 255
202 225 255
202 225 255
202 225 255
202 225 255
202 225 255
202 225 255
202 225 255
202 225 255
202 225 255
202 225 255
202 225 255
202 225 255
202 225 255
202 225 255
202 225 255
202 225 255
202 225 255
202 225 255
202 225 255
202 225 255
202 225 255
202 225 255
202 225 255
202 225 255
202 225 255
202 225 255
201 225 255
201 225 255
201 225 255
201 225 255
201 225 255
201 225 255
201 225 255
201 225 255
201 225 255
201 225 255
201 225 255
201 225 255
201 225 255
201 225 255
201 225 255
201 225 255
201 225 255
201 225 255
201 225 255
201 225 255
201 225 255
201 225 255
201 225 255
201 225 255
201 225 255
201 225 255
201 225 255
201 225 255
201 225 255
201 225 255
201 225 255
201 225 255
201 225 255
201 225 255
201 225 255
201 225 255
201 225 255
201 225 255
201 225 255
201 225 255
201 225 255
201 225 255
201 225 255
201 225 255
201 225 255
201 225 255
201 225 255
201 225 255
202 225 255
202 225 255
202 225 255
202 225 255
202 225 255
202 225 255
202 225 255
202 225 255
202 225 255
202 225 255
202 225 255
202 225 255
202 225 255
202 225 255
202 225 255
202 225 255
202 225 255
202 225 255
202 225 255
202 225 255
202 225 255
202 225 255
202 225 255
202 225 255
202 225 255
202 225 255
203 226 255
203 226 255
203 226 255
203 226 255
203 226 255
203 226 255
203 226 255
203 226 255
203 226 255
203 226 255
203 226 255
203 226 255
203 226 255
203 226 255
203 226 255
203 226 255
203 226 255
203 226 255
204 226 255
204 226 255
204 226 255
204 226 255
204 226 255
204 226 255
204 226 255
204 226 255
204 226 255
204 226 255
204 226 255
204 226 255
204 226 255
204 226 255
204 226 255
204 227 255
204 227 255
205 227 255
205 227 255
205 227 255
205 227 255
205 227 255
205 227 255
205 227 255
205 227 255
205 227 255
205 227 255
205 227 255
205 227 255
205 227 255
205 227 255
205 227 255
205 227 255
206 227 255
206 227 255
206 227 255
206 227 255
206 227 255
206 227 255
206 227 255
206 227 255
206 227 255
206 227 255
206 227 255
206 227 255
206 228 255
206 228 255
206 228 255
206 228 255
207 228 255
207 228 255
207 228 255
207 228 255
207 228 255
207 228 255
207 228 255
207 228 255
207 228 255
207 228 255
207 228 255
207 228 255
207 228 255
207 228 255
207 228 255
207 228 255
208 228 255
208 228 255
208 228 255
208 228 255
208 228 255
208 228 255
208 228 255
208 228 255
208 228 255
208 228 255
208 228 255
208 229 255
208 229 255
208 229 255
208 229 255
208 229 255
208 229 255
209 229 255
209 229 255
209 229 255
209 229 255
209 229 255
209 229 255
209 229 255
209 229 255
209 229 255
209 229 255
209 229 255
209 229 255
209 229 255
209 229 255
209 229 255
209 229 255
209 229 255
209 229 255
209 229 255
210 229 255
210 229 255
210 229 255
210 229 255
210 229 255
210 229 255
210 229 255
210 229 255
210 229 255
210 229 255
210 230 255
210 230 255
210 230 255
210 230 255
210 230 255
210 230 255
210 230 255
210 230 255
210 230 255
210 230 255
211 230 255
211 230 255
211 230 255
211 230 255
211 230 255
211 230 255
211 230 255
211 230 255
211 230 255
211 230 255
211 230 255
211 230 255
211 230 255
211 230 255
211 230 255
211 230 255
211 230 255
211 230 255
211 230 255
211 230 255
211 230 255
211 230 255
211 230 255
211 230 255
211 230 255
210 230 255
210 230 255
210 230 255
210 230 255
210 230 255
210 230 255
210 230 255
210 230 255
210 230 255
210 230 255
210 229 255
210 229 255
210 229 255
210 229 255
210 229 255
210 229 255
210 229 255
210 229 255
210 229 255
210 229 255
209 229 255
209 229 255
209 229 255
209 229 255
209 229 255
209 229 255
209 229 255
209 229 255
209 229 255
209 229 255
209 229 255
209 229 255
209 229 255
209 229 255
209 229 255
209 229 255
209 229 255
209 229 255
208 229 255
208 229 255
208 229 255
208 229 255
208 229 255
208 229 255
208 228 255
208 228 255
208 228 255
208 228 255
208 228 255
208 228 255
208 228 255
208 228 255
208 228 255
208 228 255
208 228 255
207 228 255
207 228 255
207 228 255
207 228 255
207 228 255
207 228 255
207 228 255
207 228 255
207 228 255
207 228 255
207 228 255
207 228 255
207 228 255
207 228 255
207 228 255
207 228 255
207 228 255
206 228 255
206 228 255
206 228 255
206 227 255
206 227 255
206 227 255
206 227 255
206 227 255
206 227 255
206 227 255
206 227 255
206 227 255
206 227 255
206 227 255
206 227 255
206 227 255
205 227 255
205 227 255
205 227 255
205 227 255
205 227 255
205 227 255
205 227 255
205 227 255
205 227 255
205 227 255
205 227 255
205 227 255
205 227 255
205 227 255
205 227 255
205 227 255
204 227 255
204 226 255
204 226 255
204 226 255
204 226 255
204 226 255
204 226 255
204 226 255
204 226 255
204 226 255
204 226 255
204 226 255
204 226 255
204 226 255
204 226 255
204 226 255
203 226 255
203 226 255
203 226 255
203 226 255
203 226 255
203 226 255
203 226 255
203 226 255
203 226 255
203 226 255
203 226 255
203 226 255
203 226 255
203 226 255
203 226 255
203 226 255
203 226 255
203 226 255
203 226 255
202 226 255
202 225 255
202 225 255
202 225 255
202 225 255
202 225 255
202 225 255
202 225 255
202 225 255
202 225 255
202 225 255
202 225 255
202 225 255
202 225 255
202 225 255
202 225 255
202 225 255
202 225 255
202 225 255
202 225 255
202 225 255
202 225 255
202 225 255
202 225 255
202 225 255
202 225 255
202 225 255
202 225 255
202 225 255
202 225 255
201 225 255
201 225 255
201 225 255
201 225 255
201 225 255
201 225 255
201 225 255
201 225 255
201 225 255
201 225 255
201 225 255
201 225 255
201 225 255
201 225 255
201 225 255
201 225 255
201 225 255
201 225 255
201 225 255
201 225 255
201 225 255
201 225 255
201 225 255
201 225 255
201 225 255
201 225 255
201 225 255
201 225 255
201 225 255
201 225 255
201 225 255
201 225 255
201 225 255
201 225 255
202 225 255
202 225 255
202 225 255
202 225 255
202 225 255
202 225 255
202 225 255
202 225 255
202 225 255
202 225 255
202 225 255
202 225 255
202 225 255
202 225 255
202 225 255
202 225 255
202 225 255
202 225 255
202 225 255
202 225 255
202 225 255
202 225 255
202 225 255
202 225 255
202 225 255
202 225 255
202 225 255
202 225 255
202 225 255
203 226 255
203 226 255
203 226 255
203 226 255
203 226 255
203 226 255
203 226 255
203 226 255
203 226 255
203 226 255
203 226 255
203 226 255
203 226 255
203 226 255
203 226 255
203 226 255
203 226 255
203 226 255
203 226 255
203 226 255
204 226 255
204 226 255
204 226 255
204 226 255
204 226 255
204 226 255
204 226 255
204 226 255
204 226 255
204 226 255
204 226 255
204 226 255
204 226 255
204 226 255
204 226 255
204 227 255
205 227 255
205 227 255
205 227 255
205 227 255
205 227 255
205 227 255
205 227 255
205 227 255
205 227 255
205 227 255
205 227 255
205 227 255
205 227 255
205 227 255
205 227 255
205 227 255
206 227 255
206 227 255
206 227 255
206 227 255
206 227 255
206 227 255
206 227 255
206 227 255
206 227 255
206 227 255
206 227 255
206 227 255
206 227 255
206 228 255
206 228 255
206 228 255
207 228 255
207 228 255
207 228 255
207 228 255
207 228 255
207 228 255
207 228 255
207 228 255
207 228 255
207 228 255
207 228 255
207 228 255
207 228 255
207 228 255
207 228 255
207 228 255
207 228 255
208 228 255
208 228 255
208 228 255
208 228 255
208 228 255
208 228 255
208 228 255
208 228 255
208 228 255
208 228 255
208 229 255
208 229 255
208 229 255
208 229 255
208 229 255
208 229 255
208 229 255
209 229 255
209 229 255
209 229 255
209 229 255
209 229 255
209 229 255
209 229 255
209 229 255
209 229 255
209 229 255
209 229 255
209 229 255
209 229 255
209 229 255
209 229 255
209 229 255
209 229 255
209 229 255
210 229 255
210 229 255
210 229 255
210 229 255
210 229 255
210 229 255
210 229 255
210 229 255
210 229 255
210 229 255
210 230 255
210 230 255
210 230 255
210 230 255
210 230 255
210 230 255
210 230 255
210 230 255
210 230 255
210 230 255
211 230 255
211 230 255
211 230 255
211 230 255
211 230 255
211 230 255
211 230 255
211 230 255
211 230 255
211 230 255
211 230 255
211 230 255
211 230 255
211 230 255
211 230 255
211 230 255
211 230 255
211 230 255
211 230 255
211 230 255
211 230 255
211 230 255
211 230 255
211 230 255
211 230 255
211 230 255
211 230 255
211 230 255
211 230 255
211 230 255
211 230 255
210 230 255
210 230 255
210 230 255
210 230 255
210 230 255
210 230 255
210 230 255
210 230 255
210 230 255
210 230 255
210 229 255
210 229 255
210 229 255
210 229 255
210 229 255
210 229 255
210 229 255
210 229 255
210 229 255
209 229 255
209 229 255
209 229 255
209 229 255
209 229 255
209 229 255
209 229 255
209 229 255
209 229 255
209 229 255
209 229 255
209 229 255
209 229 255
209 229 255
209 229 255
209 229 255
209 229 255
209 229 255
209 229 255
208 229 255
208 229 255
208 229 255
208 229 255
208 229 255
208 229 255
208 228 255
208 228 255
208 228 255
208 228 255
208 228 255
208 228 255
208 228 255
208 228 255
208 228 255
208 228 255
208 228 255
207 228 255
207 228 255
207 228 255
207 228 255
207 228 255
207 228 255
207 228 255
207 228 255
207 228 255
207 228 255
207 228 255
207 228 255
207 228 255
207 228 255
207 228 255
207 228 255
206 228 255
206 228 255
206 228 255
206 228 255
206 227 255
206 227 255
206 227 255
206 227 255
206 227 255
206 227 255
206 227 255
206 227 255
206 227 255
206 227 255
206 227 255
206 227 255
205 227 255
205 227 255
205 227 255
205 227 255
205 227 255
205 227 255
205 227 255
205 227 255
205 227 255
205 227 255
205 227 255
205 227 255
205 227 255
205 227 255
205 227 255
205 227 255
204 227 255
204 227 255
204 226 255
204 226 255
204 226 255
204 226 255
204 226 255
204 226 255
204 226 255
204 226 255
204 226 255
204 226 255
204 226 255
204 226 255
204 226 255
204 226 255
204 226 255
203 226 255
203 226 255
203 226 255
203 226 255
203 226 255
203 226 255
203 226 255
203 226 255
203 226 255
203 226 255
203 226 255
203 226 255
203 226 255
203 226 255
203 226 255
203 226 255
203 226 255
203 226 255
203 226 255
203 226 255
202 225 255
202 225 255
202 225 255
202 225 255
202 225 255
202 225 255
202 225 255
202 225 255
202 225 255
202 225 255
202 225 255
202 225 255
202 225 255
202 225 255
202 225 255
202 225 255
202 225 255
202 225 255
202 225 255
202 225 255
202 225 255
202 225 255
202 225 255
202 225 255
202 225 255
202 225 255
202 225 255
202 225 255
202 225 255
202 225 255
202 225 255
202 225 255
202 225 255
202 225 255
202 225 255
202 225 255
202 225 255
202 225 255
202 225 255
202 225 255
202 225 255
202 225 255
202 225 255
202 225 255
202 225 255
202 225 255
202 225 255
202 225 255
202 225 255
202 225 255
202 225 255
202 225 255
202 225 255
202 225 255
202 225 255
202 225 255
202 225 255
202 225 255
202 225 255
202 225 255
202 225 255
202 225 255
202 225 255
202 225 255
202 225 255
202 225 255
202 225 255
202 225 255
202 225 255
202 225 255
202 225 255
202 225 255
202 225 255
202 225 255
202 225 255
202 225 255
202 225 255
202 225 255
202 225 255
202 225 255
202 225 255
202 225 255
202 225 255
202 225 255
202 225 255
202 225 255
203 226 255
203 226 255
203 226 255
203 226 255
203 226 255
203 226 255
203 226 255
203 226 255
203 226 255
203 226 255
203 226 255
203 226 255
203 226 255
203 226 255
203 226 255
203 226 255
203 226 255
203 226 255
203 226 255
203 226 255
204 226 255
204 226 255
204 226 255
204 226 255
204 226 255
204 226 255
204 226 255
204 226 255
204 226 255
204 226 255
204 226 255
204 226 255
204 226 255
204 226 255
204 226 255
204 227 255
204 227 255
205 227 255
205 227 255
205 227 255
205 227 255
205 227 255
205 227 255
205 227 255
205 227 255
205 227 255
205 227 255
205 227 255
205 227 255
205 227 255
205 227 255
205 227 255
205 227 255
206 227 255
206 227 255
206 227 255
206 227 255
206 227 255
206 227 255
206 227 255
206 227 255
206 227 255
206 227 255
206 227 255
206 227 255
206 228 255
206 228 255
206 228 255
206 228 255
207 228 255
207 228 255
207 228 255
207 228 255
207 228 255
207 228 255
207 228 255
207 228 255
207 228 255
207 228 255
207 228 255
207 228 255
207 228 255
207 228 255
207 228 255
207 228 255
208 228 255
208 228 255
208 228 255
208 228 255
208 228 255
208 228 255
208 228 255
208 228 255
208 228 255
208 228 255
208 228 255
208 229 255
208 229 255
208 229 255
208 229 255
208 229 255
208 229 255
209 229 255
209 229 255
209 229 255
209 229 255
209 229 255
209 229 255
209 229 255
209 229 255
209 229 255
209 229 255
209 229 255
209 229 255
209 229 255
209 229 255
209 229 255
209 229 255
209 229 255
209 229 255
209 229 255
210 229 255
210 229 255
210 229 255
210 229 255
210 229 255
210 229 255
210 229 255
210 229 255
210 229 255
210 230 255
210 230 255
210 230 255
210 230 255
210 230 255
210 230 255
210 230 255
210 230 255
210 230 255
210 230 255
210 230 255
211 230 255
211 230 255
211 230 255
211 230 255
211 230 255
211 230 255
211 230 255
211 230 255
211 230 255
211 230 255
211 230 255
211 230 255
211 230 255
211 230 255
211 230 255
211 230 255
211 230 255
211 230 255
211 230 255
211 230 255
211 230 255
211 230 255
211 230 255
211 230 255
211 230 255
211 230 255
211 230 255
211 230 255
211 230 255
211 230 255
211 230 255
211 230 255
211 230 255
211 230 255
211 230 255
210 230 255
210 230 255
210 230 255
210 230 255
210 230 255
210 230 255
210 230 255
210 230 255
210 230 255
210 230 255
210 229 255
210 229 255
210 229 255
210 229 255
210 229 255
210 229 255
210 229 255
210 229 255
210 229 255
210 229 255
209 229 255
209 229 255
209 229 255
209 229 255
209 229 255
209 229 255
209 229 255
209 229 255
209 229 255
209 229 255
209 229 255
209 229 255
209 229 255
209 229 255
209 229 255
209 229 255
209 229 255
209 229 255
208 229 255
208 229 255
208 229 255
208 229 255
208 229 255
208 229 255
208 229 255
208 228 255
208 228 255
208 228 255
208 228 255
208 228 255
208 228 255
208 228 255
208 228 255
208 228 255
208 228 255
207 228 255
207 228 255
207 228 255
207 228 255
207 228 255
207 228 255
207 228 255
207 228 255
207 228 255
207 228 255
207 228 255
207 228 255
207 228 255
207 228 255
207 228 255
207 228 255
207 228 255
206 228 255
206 228 255
206 228 255
206 227 255
206 227 255
206 227 255
206 227 255
206 227 255
206 227 255
206 227 255
206 227 255
206 227 255
206 227 255
206 227 255
206 227 255
206 227 255
205 227 255
205 227 255
205 227 255
205 227 255
205 227 255
205 227 255
205 227 255
205 227 255
205 227 255
205 227 255
205 227 255
205 227 255
205 227 255
205 227 255
205 227 255
205 227 255
204 227 255
204 227 255
204 226 255
204 226 255
204 226 255
204 226 255
204 226 255
204 226 255
204 226 255
204 226 255
204 226 255
204 226 255
204 226 255
204 226 255
204 226 255
204 226 255
204 226 255
203 226 255
203 226 255
203 226 255
203 226 255
203 226 255
203 226 255
203 226 255
203 226 255
203 226 255
203 226 255
203 226 255
203 226 255
203 226 255
203 226 255
203 226 255
203 226 255
203 226 255
203 226 255
203 226 255
203 226 255
203 226 255
202 225 255
202 225 255
202 225 255
202 225 255
202 225 255
202 225 255
202 225 255
202 225 255
202 225 255
202 225 255
202 225 255
202 225 255
202 225 255
202 225 255
202 225 255
202 225 255
202 225 255
202 225 255
202 225 255
202 225 255
202 225 255
202 225 255
202 225 255
202 225 255
202 225 255
202 225 255
202 225 255
202 225 255
202 225 255
202 225 255
202 225 255
202 225 255
202 225 255
202 225 255
202 225 255
202 225 255
202 225 255
202 225 255
202 225 255
202 225 255
202 225 255
202 225 255
202 225 255
202 225 255
202 225 255
202 225 255
202 225 255
202 225 255
202 225 255
202 225 255
202 225 255
202 225 255
202 225 255
202 225 255
202 225 255
202 225 255
202 225 255
202 225 255
202 225 255
202 225 255
202 225 255
202 225 255
202 225 255
202 225 255
202 225 255
202 225 255
202 225 255
202 225 255
202 225 255
202 225 255
202 225 255
202 225 255
202 225 255
202 225 255
202 225 255
202 225 255
202 225 255
202 225 255
203 226 255
203 226 255
203 226 255
203 226 255
203 226 255
203 226 255
203 226 255
203 226 255
203 226 255
203 226 255
203 226 255
203 226 255
203 226 255
203 226 255
203 226 255
203 226 255
203 226 255
203 226 255
203 226 255
203 226 255
203 226 255
204 226 255
204 226 255
204 226 255
204 226 255
204 226 255
204 226 255
204 226 255
204 226 255
204 226 255
204 226 255
204 226 255
204 226 255
204 226 255
204 226 255
204 226 255
204 227 255
204 227 255
205 227 255
205 227 255
205 227 255
205 227 255
205 227 255
205 227 255
205 227 255
205 227 255
205 227 255
205 227 255
205 227 255
205 227 255
205 227 255
205 227 255
205 227 255
205 227 255
206 227 255
206 227 255
206 227 255
206 227 255
206 227 255
206 227 255
206 227 255
206 227 255
206 227 255
206 227 255
206 227 255
206 227 255
206 227 255
206 228 255
206 228 255
206 228 255
207 228 255
207 228 255
207 228 255
207 228 255
207 228 255
207 228 255
207 228 255
207 228 255
207 228 255
207 228 255
207 228 255
207 228 255
207 228 255
207 228 255
207 228 255
207 228 255
207 228 255
208 228 255
208 228 255
208 228 255
208 228 255
208 228 255
208 228 255
208 228 255
208 228 255
208 228 255
208 228 255
208 228 255
208 229 255
208 229 255
208 229 255
208 229 255
208 229 255
208 229 255
209 229 255
209 229 255
209 229 255
209 229 255
209 229 255
209 229 255
209 229 255
209 229 255
209 229 255
209 229 255
209 229 255
209 229 255
209 229 255
209 229 255
209 229 255
209 229 255
209 229 255
209 229 255
210 229 255
210 229 255
210 229 255
210 229 255
210 229 255
210 229 255
210 229 255
210 229 255
210 229 255
210 230 255
210 230 255
210 230 255
210 230 255
210 230 255
210 230 255
210 230 255
210 230 255
210 230 255
210 230 255
210 230 255
211 230 255
211 230 255
211 230 255
211 230 255
211 230 255
211 230 255
211 230 255
211 230 255
211 230 255
211 230 255
211 230 255
211 230 255
211 230 255
211 230 255
211 230 255
211 230 255
211 230 255
211 230 255
211 230 255
211 230 255
211 230 255
211 230 255
211 230 255
211 230 255
211 230 255
211 230 255
211 230 255
211 230 255
211 230 255
211 230 255
211 230 255
211 230 255
211 230 255
211 230 255
211 230 255
211 230 255
211 230 255
211 230 255
211 230 255
211 230 255
211 230 255
210 230 255
210 230 255
210 230 255
210 230 255
210 230 255
210 230 255
210 230 255
210 230 255
210 230 255
210 230 255
210 229 255
210 229 255
210 229 255
210 229 255
210 229 255
210 229 255
210 229 255
210 229 255
210 229 255
210 229 255
209 229 255
209 229 255
209 229 255
209 229 255
209 229 255
209 229 255
209 229 255
209 229 255
209 229 255
209 229 255
209 229 255
209 229 255
209 229 255
209 229 255
209 229 255
209 229 255
209 229 255
209 229 255
208 229 255
208 229 255
208 229 255
208 229 255
208 229 255
208 229 255
208 228 255
208 228 255
208 228 255
208 228 255
208 228 255
208 228 255
208 228 255
208 228 255
208 228 255
208 228 255
208 228 255
207 228 255
207 228 255
207 228 255
207 228 255
207 228 255
207 228 255
207 228 255
207 228 255
207 228 255
207 228 255
207 228 255
207 228 255
207 228 255
207 228 255
207 228 255
207 228 255
206 228 255
206 228 255
206 228 255
206 228 255
206 227 255
206 227 255
206 227 255
206 227 255
206 227 255
206 227 255
206 227 255
206 227 255
206 227 255
206 227 255
206 227 255
206 227 255
205 227 255
205 227 255
205 227 255
205 227 255
205 227 255
205 227 255
205 227 255
205 227 255
205 227 255
205 227 255
205 227 255
205 227 255
205 227 255
205 227 255
205 227 255
205 227 255
205 227 255
204 227 255
204 226 255
204 226 255
204 226 255
204 226 255
204 226 255
204 226 255
204 226 255
204 226 255
204 226 255
204 226 255
204 226 255
204 226 255
204 226 255
204 226 255
204 226 255
204 226 255
203 226 255
203 226 255
203 226 255
203 226 255
203 226 255
203 226 255
203 226 255
203 226 255
203 226 255
203 226 255
203 226 255
203 226 255
203 226 255
203 226 255
203 226 255
203 226 255
203 226 255
203 226 255
203 226 255
203 226 255
203 226 255
203 226 255
202 225 255
202 225 255
202 225 255
202 225 255
202 225 255
202 225 255
202 225 255
202 225 255
202 225 255
202 225 255
202 225 255
202 225 255
202 225 255
202 225 255
202 225 255
202 225 255
202 225 255
202 225 255
202 225 255
202 225 255
202 225 255
202 225 255
202 225 255
202 225 255
202 225 255
202 225 255
202 225 255
202 225 255
202 225 255
202 225 255
202 225 255
202 225 255
202 225 255
202 225 255
202 225 255
202 225 255
202 225 255
202 225 255
202 225 255
202 225 255
202 225 255
202 225 255
202 225 255
202 225 255
202 225 255
202 225 255
202 225 255
202 225 255
202 225 255
202 225 255
202 225 255
202 225 255
202 225 255
202 225 255
202 225 255
202 225 255
202 225 255
202 225 255
202 225 255
202 225 255
202 225 255
202 225 255
202 225 255
202 225 255
202 225 255
202 225 255
202 225 255
202 225 255
202 225 255
202 225 255
203 226 255
203 226 255
203 226 255
203 226 255
203 226 255
203 226 255
203 226 255
203 226 255
203 226 255
203 226 255
203 226 255
203 226 255
203 226 255
203 226 255
203 226 255
203 226 255
203 226 255
203 226 255
203 226 255
203 226 255
203 226 255
204 226 255
204 226 255
204 226 255
204 226 255
204 226 255
204 226 255
204 226 255
204 226 255
204 226 255
204 226 255
204 226 255
204 226 255
204 226 255
204 226 255
204 226 255
204 226 255
204 226 255
204 227 255
205 227 255
205 227 255
205 227 255
205 227 255
205 227 255
205 227 255
205 227 255
205 227 255
205 227 255
205 227 255
205 227 255
205 227 255
205 227 255
205 227 255
205 227 255
205 227 255
205 227 255
206 227 255
206 227 255
206 227 255
206 227 255
206 227 255
206 227 255
206 227 255
206 227 255
206 227 255
206 227 255
206 227 255
206 227 255
206 228 255
206 228 255
206 228 255
206 228 255
207 228 255
207 228 255
207 228 255
207 228 255
207 228 255
207 228 255
207 228 255
207 228 255
207 228 255
207 228 255
207 228 255
207 228 255
207 228 255
207 228 255
207 228 255
207 228 255
208 228 255
208 228 255
208 228 255
208 228 255
208 228 255
208 228 255
208 228 255
208 228 255
208 228 255
208 228 255
208 228 255
208 229 255
208 229 255
208 229 255
208 229 255
208 229 255
208 229 255
209 229 255
209 229 255
209 229 255
209 229 255
209 229 255
209 229 255
209 229 255
209 229 255
209 229 255
209 229 255
209 229 255
209 229 255
209 229 255
209 229 255
209 229 255
209 229 255
209 229 255
209 229 255
210 229 255
210 229 255
210 229 255
210 229 255
210 229 255
210 229 255
210 229 255
210 229 255
210 229 255
210 229 255
210 230 255
210 230 255
210 230 255
210 230 255
210 230 255
210 230 255
210 230 255
210 230 255
210 230 255
210 230 255
211 230 255
211 230 255
211 230 255
211 230 255
211 230 255
211 230 255
211 230 255
211 230 255
211 230 255
211 230 255
211 230 255
211 230 255
211 230 255
211 230 255
211 230 255
211 230 255
211 230 255
211 230 255
211 230 255
211 230 255
211 230 255
211 230 255
212 230 255
212 230 255
212 230 255
211 230 255
211 230 255
211 230 255
211 230 255
211 230 255
211 230 255
211 230 255
211 230 255
211 230 255
211 230 255
211 230 255
211 230 255
211 230 255
211 230 255
211 230 255
211 230 255
211 230 255
211 230 255
211 230 255
211 230 255
211 230 255
211 230 255
210 230 255
210 230 255
210 230 255
210 230 255
210 230 255
210 230 255
210 230 255
210 230 255
210 230 255
210 230 255
210 229 255
210 229 255
210 229 255
210 229 255
210 229 255
210 229 255
210 229 255
210 229 255
210 229 255
209 229 255
209 229 255
209 229 255
209 229 255
209 229 255
209 229 255
209 229 255
209 229 255
209 229 255
209 229 255
209 229 255
209 229 255
209 229 255
209 229 255
209 229 255
209 229 255
209 229 255
209 229 255
209 229 255
208 229 255
208 229 255
208 229 255
208 229 255
208 229 255
208 229 255
208 228 255
208 228 255
208 228 255
208 228 255
208 228 255
208 228 255
208 228 255
208 228 255
208 228 255
208 228 255
208 228 255
207 228 255
207 228 255
207 228 255
207 228 255
207 228 255
207 228 255
207 228 255
207 228 255
207 228 255
207 228 255
207 228 255
207 228 255
207 228 255
207 228 255
207 228 255
207 228 255
206 228 255
206 228 255
206 228 255
206 228 255
206 227 255
206 227 255
206 227 255
206 227 255
206 227 255
206 227 255
206 227 255
206 227 255
206 227 255
206 227 255
206 227 255
206 227 255
205 227 255
205 227 255
205 227 255
205 227 255
205 227 255
205 227 255
205 227 255
205 227 255
205 227 255
205 227 255
205 227 255
205 227 255
205 227 255
205 227 255
205 227 255
205 227 255
204 227 255
204 227 255
204 226 255
204 226 255
204 226 255
204 226 255
204 226 255
204 226 255
204 226 255
204 226 255
204 226 255
204 226 255
204 226 255
204 226 255
204 226 255
204 226 255
204 226 255
204 226 255
204 226 255
203 226 255
203 226 255
203 226 255
203 226 255
203 226 255
203 226 255
203 226 255
203 226 255
203 226 255
203 226 255
203 226 255
203 226 255
203 226 255
203 226 255
203 226 255
203 226 255
203 226 255
203 226 255
203 226 255
203 226 255
203 226 255
203 226 255
203 226 255
202 225 255
202 225 255
202 225 255
202 225 255
202 225 255
202 225 255
202 225 255
202 225 255
202 225 255
202 225 255
202 225 255
202 225 255
202 225 255
202 225 255
202 225 255
202 225 255
202 225 255
202 225 255
202 225 255
202 225 255
202 225 255
202 225 255
202 225 255
202 225 255
202 225 255
202 225 255
202 225 255
202 225 255
202 225 255
202 225 255
202 225 255
202 225 255
202 225 255
202 225 255
202 225 255
202 225 255
202 225 255
202 225 255
202 225 255
202 225 255
202 225 255
202 225 255
202 225 255
202 225 255
202 225 255
202 225 255
202 225 255
202 225 255
202 225 255
202 225 255
202 225 255
202 225 255
202 225 255
202 225 255
202 225 255
202 225 255
202 225 255
202 225 255
202 225 255
202 225 255
203 226 255
203 226 255
203 226 255
203 226 255
203 226 255
203 226 255
203 226 255
203 226 255
203 226 255
203 226 255
203 226 255
203 226 255
203 226 255
203 226 255
203 226 255
203 226 255
203 226 255
203 226 255
203 226 255
203 226 255
203 226 255
203 226 255
203 226 255
204 226 255
204 226 255
204 226 255
204 226 255
204 226 255
204 226 255
204 226 255
204 226 255
204 226 255
204 226 255
204 226 255
204 226 255
204 226 255
204 226 255
204 226 255
204 226 255
204 226 255
204 227 255
204 227 255
205 227 255
205 227 255
205 227 255
205 227 255
205 227 255
205 227 255
205 227 255
205 227 255
205 227 255
205 227 255
205 227 255
205 227 255
205 227 255
205 227 255
205 227 255
205 227 255
206 227 255
206 227 255
206 227 255
206 227 255
206 227 255
206 227 255
206 227 255
206 227 255
206 227 255
206 227 255
206 227 255
206 227 255
206 228 255
206 228 255
206 228 255
206 228 255
207 228 255
207 228 255
207 228 255
207 228 255
207 228 255
207 228 255
207 228 255
207 228 255
207 228 255
207 228 255
207 228 255
207 228 255
207 228 255
207 228 255
207 228 255
207 228 255
207 228 255
208 228 255
208 228 255
208 228 255
208 228 255
208 228 255
208 228 255
208 228 255
208 228 255
208 228 255
208 228 255
208 229 255
208 229 255
208 229 255
208 229 255
208 229 255
208 229 255
209 229 255
209 229 255
209 229 255
209 229 255
209 229 255
209 229 255
209 229 255
209 229 255
209 229 255
209 229 255
209 229 255
209 229 255
209 229 255
209 229 255
209 229 255
209 229 255
209 229 255
209 229 255
210 229 255
210 229 255
210 229 255
210 229 255
210 229 255
210 229 255
210 229 255
210 229 255
210 229 255
210 229 255
210 230 255
210 230 255
210 230 255
210 230 255
210 230 255
210 230 255
210 230 255
210 230 255
210 230 255
210 230 255
211 230 255
211 230 255
211 230 255
211 230 255
211 230 255
211 230 255
211 230 255
211 230 255
211 230 255
211 230 255
211 230 255
211 230 255
211 230 255
211 230 255
211 230 255
211 230 255
211 230 255
211 230 255
211 230 255
211 230 255
211 230 255
211 230 255
212 230 255
212 230 255
212 230 255
212 230 255
212 230 255
212 230 255
212 230 255
212 230 255
212 230 255
211 230 255
211 230 255
211 230 255
211 230 255
211 230 255
211 230 255
211 230 255
211 230 255
211 230 255
211 230 255
211 230 255
211 230 255
211 230 255
211 230 255
211 230 255
211 230 255
211 230 255
211 230 255
211 230 255
211 230 255
211 230 255
211 230 255
210 230 255
210 230 255
210 230 255
210 230 255
210 230 255
210 230 255
210 230 255
210 230 255
210 230 255
210 230 255
210 229 255
210 229 255
210 229 255
210 229 255
210 229 255
210 229 255
210 229 255
210 229 255
210 229 255
209 229 255
209 229 255
209 229 255
209 229 255
209 229 255
209 229 255
209 229 255
209 229 255
209 229 255
209 229 255
209 229 255
209 229 255
209 229 255
209 229 255
209 229 255
209 229 255
209 229 255
209 229 255
208 229 255
208 229 255
208 229 255
208 229 255
208 229 255
208 229 255
208 228 255
208 228 255
208 228 255
208 228 255
208 228 255
208 228 255
208 228 255
208 228 255
208 228 255
208 228 255
208 228 255
207 228 255
207 228 255
207 228 255
207 228 255
207 228 255
207 228 255
207 228 255
207 228 255
207 228 255
207 228 255
207 228 255
207 228 255
207 228 255
207 228 255
207 228 255
207 228 255
206 228 255
206 228 255
206 228 255
206 228 255
206 227 255
206 227 255
206 227 255
206 227 255
206 227 255
206 227 255
206 227 255
206 227 255
206 227 255
206 227 255
206 227 255
206 227 255
206 227 255
205 227 255
205 227 255
205 227 255
205 227 255
205 227 255
205 227 255
205 227 255
205 227 255
205 227 255
205 227 255
205 227 255
205 227 255
205 227 255
205 227 255
205 227 255
205 227 255
204 227 255
204 227 255
204 226 255
204 226 255
204 226 255
204 226 255
204 226 255
204 226 255
204 226 255
204 226 255
204 226 255
204 226 255
204 226 255
204 226 255
204 226 255
204 226 255
204 226 255
204 226 255
204 226 255
203 226 255
203 226 255
203 226 255
203 226 255
203 226 255
203 226 255
203 226 255
203 226 255
203 226 255
203 226 255
203 226 255
203 226 255
203 226 255
203 226 255
203 226 255
203 226 255
203 226 255
203 226 255
203 226 255
203 226 255
203 226 255
203 226 255
203 226 255
203 226 255
203 226 255
203 226 255
202 225 255
202 225 255
202 225 255
202 225 255
202 225 255
202 225 255
202 225 255
202 225 255
202 225 255
202 225 255
202 225 255
202 225 255
202 225 255
202 225 255
202 225 255
202 225 255
202 225 255
202 225 255
202 225 255
202 225 255
202 225 255
202 225 255
202 225 255
202 225 255
202 225 255
202 225 255
202 225 255
202 225 255
202 225 255
202 225 255
202 225 255
202 225 255
202 225 255
202 225 255
202 225 255
202 225 255
202 225 255
202 225 255
202 225 255
202 225 255
202 225 255
202 225 255
202 225 255
202 225 255
202 225 255
202 225 255
202 225 255
202 225 255
203 226 255
203 226 255
203 226 255
203 226 255
203 226 255
203 226 255
203 226 255
203 226 255
203 226 255
203 226 255
203 226 255
203 226 255
203 226 255
203 226 255
203 226 255
203 226 255
203 226 255
203 226 255
203 226 255
203 226 255
203 226 255
203 226 255
203 226 255
203 226 255
203 226 255
203 226 255
204 226 255
204 226 255
204 226 255
204 226 255
204 226 255
204 226 255
204 226 255
204 226 255
204 226 255
204 226 255
204 226 255
204 226 255
204 226 255
204 226 255
204 226 255
204 226 255
204 226 255
204 227 255
204 227 255
205 227 255
205 227 255
205 227 255
205 227 255
205 227 255
205 227 255
205 227 255
205 227 255
205 227 255
205 227 255
205 227 255
205 227 255
205 227 255
205 227 255
205 227 255
205 227 255
206 227 255
206 227 255
206 227 255
206 227 255
206 227 255
206 227 255
206 227 255
206 227 255
206 227 255
206 227 255
206 227 255
206 227 255
206 227 255
206 228 255
206 228 255
206 228 255
206 228 255
207 228 255
207 228 255
207 228 255
207 228 255
207 228 255
207 228 255
207 228 255
207 228 255
207 228 255
207 228 255
207 228 255
207 228 255
207 228 255
207 228 255
207 228 255
207 228 255
208 228 255
208 228 255
208 228 255
208 228 255
208 228 255
208 228 255
208 228 255
208 228 255
208 228 255
208 228 255
208 229 255
208 229 255
208 229 255
208 229 255
208 229 255
208 229 255
208 229 255
209 229 255
209 229 255
209 229 255
209 229 255
209 229 255
209 229 255
209 229 255
209 229 255
209 229 255
209 229 255
209 229 255
209 229 255
209 229 255
209 229 255
209 229 255
209 229 255
209 229 255
209 229 255
210 229 255
210 229 255
210 229 255
210 229 255
210 229 255
210 229 255
210 229 255
210 229 255
210 229 255
210 230 255
210 230 255
210 230 255
210 230 255
210 230 255
210 230 255
210 230 255
210 230 255
210 230 255
210 230 255
211 230 255
211 230 255
211 230 255
211 230 255
211 230 255
211 230 255
211 230 255
211 230 255
211 230 255
211 230 255
211 230 255
211 230 255
211 230 255
211 230 255
211 230 255
211 230 255
211 230 255
211 230 255
211 230 255
211 230 255
211 230 255
211 230 255
212 230 255
212 230 255
212 230 255
212 230 255
212 230 255
212 230 255
212 231 255
212 230 255
212 230 255
212 230 255
212 230 255
212 230 255
212 230 255
212 230 255
212 230 255
211 230 255
211 230 255
211 230 255
211 230 255
211 230 255
211 230 255
211 230 255
211 230 255
211 230 255
211 230 255
211 230 255
211 230 255
211 230 255
211 230 255
211 230 255
211 230 255
211 230 255
211 230 255
211 230 255
211 230 255
211 230 255
211 230 255
210 230 255
210 230 255
210 230 255
210 230 255
210 230 255
210 230 255
210 230 255
210 230 255
210 230 255
210 230 255
210 229 255
210 229 255
210 229 255
210 229 255
210 229 255
210 229 255
210 229 255
210 229 255
210 229 255
209 229 255
209 229 255
209 229 255
209 229 255
209 229 255
209 229 255
209 229 255
209 229 255
209 229 255
209 229 255
209 229 255
209 229 255
209 229 255
209 229 255
209 229 255
209 229 255
209 229 255
209 229 255
208 229 255
208 229 255
208 229 255
208 229 255
208 229 255
208 229 255
208 228 255
208 228 255
208 228 255
208 228 255
208 228 255
208 228 255
208 228 255
208 228 255
208 228 255
208 228 255
208 228 255
207 228 255
207 228 255
207 228 255
207 228 255
207 228 255
207 228 255
207 228 255
207 228 255
207 228 255
207 228 255
207 228 255
207 228 255
207 228 255
207 228 255
207 228 255
207 228 255
206 228 255
206 228 255
206 228 255
206 228 255
206 227 255
206 227 255
206 227 255
206 227 255
206 227 255
206 227 255
206 227 255
206 227 255
206 227 255
206 227 255
206 227 255
206 227 255
205 227 255
205 227 255
205 227 255
205 227 255
205 227 255
205 227 255
205 227 255
205 227 255
205 227 255
205 227 255
205 227 255
205 227 255
205 227 255
205 227 255
205 227 255
205 227 255
205 227 255
204 227 255
204 227 255
204 226 255
204 226 255
204 226 255
204 226 255
204 226 255
204 226 255
204 226 255
204 226 255
204 226 255
204 226 255
204 226 255
204 226 255
204 226 255
204 226 255
204 226 255
204 226 255
204 226 255
204 226 255
203 226 255
203 226 255
203 226 255
203 226 255
203 226 255
203 226 255
203 226 255
203 226 255
203 226 255
203 226 255
203 226 255
203 226 255
203 226 255
203 226 255
203 226 255
203 226 255
203 226 255
203 226 255
203 226 255
203 226 255
203 226 255
203 226 255
203 226 255
203 226 255
203 226 255
203 226 255
203 226 255
203 226 255
203 226 255
202 225 255
202 225 255
202 225 255
202 225 255
202 225 255
202 225 255
202 225 255
202 225 255
202 225 255
202 225 255
202 225 255
202 225 255
202 225 255
202 225 255
202 225 255
202 225 255
202 225 255
202 225 255
202 225 255
202 225 255
202 225 255
202 225 255
202 225 255
202 225 255
202 225 255
202 225 255
202 225 255
202 225 255
202 225 255
202 225 255
202 225 255
202 225 255
202 225 255
203 226 255
203 226 255
203 226 255
203 226 255
203 226 255
203 226 255
203 226 255
203 226 255
203 226 255
203 226 255
203 226 255
203 226 255
203 226 255
203 226 255
203 226 255
203 226 255
203 226 255
203 226 255
203 226 255
203 226 255
203 226 255
203 226 255
203 226 255
203 226 255
203 226 255
203 226 255
203 226 255
203 226 255
203 226 255
203 226 255
204 226 255
204 226 255
204 226 255
204 226 255
204 226 255
204 226 255
204 226 255
204 226 255
204 226 255
204 226 255
204 226 255
204 226 255
204 226 255
204 226 255
204 226 255
204 226 255
204 226 255
204 226 255
204 227 255
204 227 255
205 227 255
205 227 255
205 227 255
205 227 255
205 227 255
205 227 255
205 227 255
205 227 255
205 227 255
205 227 255
205 227 255
205 227 255
205 227 255
205 227 255
205 227 255
205 227 255
205 227 255
206 227 255
206 227 255
206 227 255
206 227 255
206 227 255
206 227 255
206 227 255
206 227 255
206 227 255
206 227 255
206 227 255
206 227 255
206 228 255
206 228 255
206 228 255
206 228 255
207 228 255
207 228 255
207 228 255
207 228 255
207 228 255
207 228 255
207 228 255
207 228 255
207 228 255
207 228 255
207 228 255
207 228 255
207 228 255
207 228 255
207 228 255
207 228 255
208 228 255
208 228 255
208 228 255
208 228 255
208 228 255
208 228 255
208 228 255
208 228 255
208 228 255
208 228 255
208 228 255
208 229 255
208 229 255
208 229 255
208 229 255
208 229 255
208 229 255
209 229 255
209 229 255
209 229 255
209 229 255
209 229 255
209 229 255
209 229 255
209 229 255
209 229 255
209 229 255
209 229 255
209 229 255
209 229 255
209 229 255
209 229 255
209 229 255
209 229 255
209 229 255
210 229 255
210 229 255
210 229 255
210 229 255
210 229 255
210 229 255
210 229 255
210 229 255
210 229 255
210 229 255
210 230 255
210 230 255
210 230 255
210 230 255
210 230 255
210 230 255
210 230 255
210 230 255
210 230 255
210 230 255
211 230 255
211 230 255
211 230 255
211 230 255
211 230 255
211 230 255
211 230 255
211 230 255
211 230 255
211 230 255
211 230 255
211 230 255
211 230 255
211 230 255
211 230 255
211 230 255
211 230 255
211 230 255
211 230 255
211 230 255
211 230 255
212 230 255
212 230 255
212 230 255
212 230 255
212 230 255
212 230 255
212 230 255
212 230 255
212 231 255
212 231 255
212 231 255
212 231 255
212 231 255
212 230 255
212 230 255
212 230 255
212 230 255
212 230 255
212 230 255
212 230 255
212 230 255
211 230 255
211 230 255
211 230 255
211 230 255
211 230 255
211 230 255
211 230 255
211 230 255
211 230 255
211 230 255
211 230 255
211 230 255
211 230 255
211 230 255
211 230 255
211 230 255
211 230 255
211 230 255
211 230 255
211 230 255
211 230 255
210 230 255
210 230 255
210 230 255
210 230 255
210 230 255
210 230 255
210 230 255
210 230 255
210 230 255
210 230 255
210 229 255
210 229 255
210 229 255
210 229 255
210 229 255
210 229 255
210 229 255
210 229 255
210 229 255
210 229 255
209 229 255
209 229 255
209 229 255
209 229 255
209 229 255
209 229 255
209 229 255
209 229 255
209 229 255
209 229 255
209 229 255
209 229 255
209 229 255
209 229 255
209 229 255
209 229 255
209 229 255
209 229 255
208 229 255
208 229 255
208 229 255
208 229 255
208 229 255
208 229 255
208 228 255
208 228 255
208 228 255
208 228 255
208 228 255
208 228 255
208 228 255
208 228 255
208 228 255
208 228 255
207 228 255
207 228 255
207 228 255
207 228 255
207 228 255
207 228 255
207 228 255
207 228 255
207 228 255
207 228 255
207 228 255
207 228 255
207 228 255
207 228 255
207 228 255
207 228 255
207 228 255
206 228 255
206 228 255
206 228 255
206 227 255
206 227 255
206 227 255
206 227 255
206 227 255
206 227 255
206 227 255
206 227 255
206 227 255
206 227 255
206 227 255
206 227 255
206 227 255
205 227 255
205 227 255
205 227 255
205 227 255
205 227 255
205 227 255
205 227 255
205 227 255
205 227 255
205 227 255
205 227 255
205 227 255
205 227 255
205 227 255
205 227 255
205 227 255
205 227 255
204 227 255
204 227 255
204 226 255
204 226 255
204 226 255
204 226 255
204 226 255
204 226 255
204 226 255
204 226 255
204 226 255
204 226 255
204 226 255
204 226 255
204 226 255
204 226 255
204 226 255
204 226 255
204 226 255
204 226 255
204 226 255
203 226 255
203 226 255
203 226 255
203 226 255
203 226 255
203 226 255
203 226 255
203 226 255
203 226 255
203 226 255
203 226 255
203 226 255
203 226 255
203 226 255
203 226 255
203 226 255
203 226 255
203 226 255
203 226 255
203 226 255
203 226 255
203 226 255
203 226 255
203 226 255
203 226 255
203 226 255
203 226 255
203 226 255
203 226 255
203 226 255
203 226 255
203 226 255
203 226 255
203 226 255
203 226 255
203 226 255
203 226 255
203 226 255
203 226 255
203 226 255
203 226 255
203 226 255
203 226 255
203 226 255
203 226 255
203 226 255
203 226 255
203 226 255
203 226 255
203 226 255
203 226 255
203 226 255
203 226 255
203 226 255
203 226 255
203 226 255
203 226 255
203 226 255
203 226 255
203 226 255
203 226 255
203 226 255
203 226 255
203 226 255
203 226 255
203 226 255
203 226 255
203 226 255
203 226 255
203 226 255
203 226 255
203 226 255
203 226 255
203 226 255
203 226 255
203 226 255
203 226 255
203 226 255
203 226 255
203 226 255
203 226 255
203 226 255
203 226 255
203 226 255
203 226 255
204 226 255
204 226 255
204 226 255
204 226 255
204 226 255
204 226 255
204 226 255
204 226 255
204 226 255
204 226 255
204 226 255
204 226 255
204 226 255
204 226 255
204 226 255
204 226 255
204 226 255
204 226 255
204 227 255
204 227 255
205 227 255
205 227 255
205 227 255
205 227 255
205 227 255
205 227 255
205 227 255
205 227 255
205 227 255
205 227 255
205 227 255
205 227 255
205 227 255
205 227 255
205 227 255
205 227 255
205 227 255
206 227 255
206 227 255
206 227 255
206 227 255
206 227 255
206 227 255
206 227 255
206 227 255
206 227 255
206 227 255
206 227 255
206 227 255
206 228 255
206 228 255
206 228 255
206 228 255
207 228 255
207 228 255
207 228 255
207 228 255
207 228 255
207 228 255
207 228 255
207 228 255
207 228 255
207 228 255
207 228 255
207 228 255
207 228 255
207 228 255
207 228 255
207 228 255
207 228 255
208 228 255
208 228 255
208 228 255
208 228 255
208 228 255
208 228 255
208 228 255
208 228 255
208 228 255
208 228 255
208 229 255
208 229 255
208 229 255
208 229 255
208 229 255
208 229 255
208 229 255
209 229 255
209 229 255
209 229 255
209 229 255
209 229 255
209 229 255
209 229 255
209 229 255
209 229 255
209 229 255
209 229 255
209 229 255
209 229 255
209 229 255
209 229 255
209 229 255
209 229 255
210 229 255
210 229 255
210 229 255
210 229 255
210 229 255
210 229 255
210 229 255
210 229 255
210 229 255
210 229 255
210 230 255
210 230 255
210 230 255
210 230 255
210 230 255
210 230 255
210 230 255
210 230 255
210 230 255
211 230 255
211 230 255
211 230 255
211 230 255
211 230 255
211 230 255
211 230 255
211 230 255
211 230 255
211 230 255
211 230 255
211 230 255
211 230 255
211 230 255
211 230 255
211 230 255
211 230 255
211 230 255
211 230 255
211 230 255
211 230 255
211 230 255
212 230 255
212 230 255
212 230 255
212 230 255
212 230 255
212 230 255
212 230 255
212 230 255
212 231 255
212 231 255
212 231 255
212 231 255
212 231 255
212 231 255
212 231 255
212 231 255
212 231 255
212 231 255
212 231 255
212 230 255
212 230 255
212 230 255
212 230 255
212 230 255
212 230 255
212 230 255
212 230 255
211 230 255
211 230 255
211 230 255
211 230 255
211 230 255
211 230 255
211 230 255
211 230 255
211 230 255
211 230 255
211 230 255
211 230 255
211 230 255
211 230 255
211 230 255
211 230 255
211 230 255
211 230 255
211 230 255
211 230 255
211 230 255
210 230 255
210 230 255
210 230 255
210 230 255
210 230 255
210 230 255
210 230 255
210 230 255
210 230 255
210 230 255
210 229 255
210 229 255
210 229 255
210 229 255
210 229 255
210 229 255
210 229 255
210 229 255
210 229 255
210 229 255
209 229 255
209 229 255
209 229 255
209 229 255
209 229 255
209 229 255
209 229 255
209 229 255
209 229 255
209 229 255
209 229 255
209 229 255
209 229 255
209 229 255
209 229 255
209 229 255
209 229 255
208 229 255
208 229 255
208 229 255
208 229 255
208 229 255
208 229 255
208 229 255
208 228 255
208 228 255
208 228 255
208 228 255
208 228 255
208 228 255
208 228 255
208 228 255
208 228 255
208 228 255
207 228 255
207 228 255
207 228 255
207 228 255
207 228 255
207 228 255
207 228 255
207 228 255
207 228 255
207 228 255
207 228 255
207 228 255
207 228 255
207 228 255
207 228 255
207 228 255
206 228 255
206 228 255
206 228 255
206 228 255
206 227 255
206 227 255
206 227 255
206 227 255
206 227 255
206 227 255
206 227 255
206 227 255
206 227 255
206 227 255
206 227 255
206 227 255
206 227 255
205 227 255
205 227 255
205 227 255
205 227 255
205 227 255
205 227 255
205 227 255
205 227 255
205 227 255
205 227 255
205 227 255
205 227 255
205 227 255
205 227 255
205 227 255
205 227 255
205 227 255
205 227 255
204 227 255
204 227 255
204 226 255
204 226 255
204 226 255
204 226 255
204 226 255
204 226 255
204 226 255
204 226 255
204 226 255
204 226 255
204 226 255
204 226 255
204 226 255
204 226 255
204 226 255
204 226 255
204 226 255
204 226 255
204 226 255
203 226 255
203 226 255
203 226 255
203 226 255
203 226 255
203 226 255
203 226 255
203 226 255
203 226 255
203 226 255
203 226 255
203 226 255
203 226 255
203 226 255
203 226 255
203 226 255
203 226 255
203 226 255
203 226 255
203 226 255
203 226 255
203 226 255
203 226 255
203 226 255
203 226 255
203 226 255
203 226 255
203 226 255
203 226 255
203 226 255
203 226 255
203 226 255
203 226 255
203 226 255
203 226 255
203 226 255
203 226 255
203 226 255
203 226 255
203 226 255
203 226 255
203 226 255
203 226 255
203 226 255
203 226 255
203 226 255
203 226 255
203 226 255
203 226 255
203 226 255
203 226 255
203 226 255
203 226 255
203 226 255
203 226 255
203 226 255
203 226 255
203 226 255
203 226 255
203 226 255
203 226 255
203 226 255
203 226 255
203 226 255
203 226 255
203 226 255
203 226 255
203 226 255
203 226 255
203 226 255
203 226 255
203 226 255
203 226 255
203 226 255
203 226 255
203 226 255
204 226 255
204 226 255
204 226 255
204 226 255
204 226 255
204 226 255
204 226 255
204 226 255
204 226 255
204 226 255
204 226 255
204 226 255
204 226 255
204 226 255
204 226 255
204 226 255
204 226 255
204 226 255
204 226 255
204 227 255
204 227 255
205 227 255
205 227 255
205 227 255
205 227 255
205 227 255
205 227 255
205 227 255
205 227 255
205 227 255
205 227 255
205 227 255
205 227 255
205 227 255
205 227 255
205 227 255
205 227 255
205 227 255
205 227 255
206 227 255
206 227 255
206 227 255
206 227 255
206 227 255
206 227 255
206 227 255
206 227 255
206 227 255
206 227 255
206 227 255
206 227 255
206 227 255
206 228 255
206 228 255
206 228 255
207 228 255
207 228 255
207 228 255
207 228 255
207 228 255
207 228 255
207 228 255
207 228 255
207 228 255
207 228 255
207 228 255
207 228 255
207 228 255
207 228 255
207 228 255
207 228 255
207 228 255
208 228 255
208 228 255
208 228 255
208 228 255
208 228 255
208 228 255
208 228 255
208 228 255
208 228 255
208 228 255
208 229 255
208 229 255
208 229 255
208 229 255
208 229 255
208 229 255
208 229 255
209 229 255
209 229 255
209 229 255
209 229 255
209 229 255
209 229 255
209 229 255
209 229 255
209 229 255
209 229 255
209 229 255
209 229 255
209 229 255
209 229 255
209 229 255
209 229 255
209 229 255
210 229 255
210 229 255
210 229 255
210 229 255
210 229 255
210 229 255
210 229 255
210 229 255
210 229 255
210 229 255
210 230 255
210 230 255
210 230 255
210 230 255
210 230 255
210 230 255
210 230 255
210 230 255
210 230 255
210 230 255
211 230 255
211 230 255
211 230 255
211 230 255
211 230 255
211 230 255
211 230 255
211 230 255
211 230 255
211 230 255
211 230 255
211 230 255
211 230 255
211 230 255
211 230 255
211 230 255
211 230 255
211 230 255
211 230 255
211 230 255
211 230 255
212 230 255
212 230 255
212 230 255
212 230 255
212 230 255
212 230 255
212 230 255
212 231 255
212 231 255
212 231 255
212 231 255
212 231 255
212 231 255
212 231 255
212 231 255
212 231 255
212 231 255
212 231 255
212 231 255
212 231 255
212 231 255
212 231 255
212 231 255
212 231 255
212 231 255
212 231 255
212 230 255
212 230 255
212 230 255
212 230 255
212 230 255
212 230 255
212 230 255
211 230 255
211 230 255
211 230 255
211 230 255
211 230 255
211 230 255
211 230 255
211 230 255
211 230 255
211 230 255
211 230 255
211 230 255
211 230 255
211 230 255
211 230 255
211 230 255
211 230 255
211 230 255
211 230 255
211 230 255
211 230 255
211 230 255
210 230 255
210 230 255
210 230 255
210 230 255
210 230 255
210 230 255
210 230 255
210 230 255
210 230 255
210 229 255
210 229 255
210 229 255
210 229 255
210 229 255
210 229 255
210 229 255
210 229 255
210 229 255
209 229 255
209 229 255
209 229 255
209 229 255
209 229 255
209 229 255
209 229 255
209 229 255
209 229 255
209 229 255
209 229 255
209 229 255
209 229 255
209 229 255
209 229 255
209 229 255
209 229 255
209 229 255
208 229 255
208 229 255
208 229 255
208 229 255
208 229 255
208 229 255
208 228 255
208 228 255
208 228 255
208 228 255
208 228 255
208 228 255
208 228 255
208 228 255
208 228 255
208 228 255
208 228 255
207 228 255
207 228 255
207 228 255
207 228 255
207 228 255
207 228 255
207 228 255
207 228 255
207 228 255
207 228 255
207 228 255
207 228 255
207 228 255
207 228 255
207 228 255
207 228 255
206 228 255
206 228 255
206 228 255
206 228 255
206 227 255
206 227 255
206 227 255
206 227 255
206 227 255
206 227 255
206 227 255
206 227 255
206 227 255
206 227 255
206 227 255
206 227 255
206 227 255
205 227 255
205 227 255
205 227 255
205 227 255
205 227 255
205 227 255
205 227 255
205 227 255
205 227 255
205 227 255
205 227 255
205 227 255
205 227 255
205 227 255
205 227 255
205 227 255
205 227 255
205 227 255
204 227 255
204 227 255
204 226 255
204 226 255
204 226 255
204 226 255
204 226 255
204 226 255
204 226 255
204 226 255
204 226 255
204 226 255
204 226 255
204 226 255
204 226 255
204 226 255
204 226 255
204 226 255
204 226 255
204 226 255
204 226 255
204 226 255
203 226 255
203 226 255
203 226 255
203 226 255
203 226 255
203 226 255
203 226 255
203 226 255
203 226 255
203 226 255
203 226 255
203 226 255
203 226 255
203 226 255
203 226 255
203 226 255
203 226 255
203 226 255
203 226 255
203 226 255
203 226 255
203 226 255
203 226 255
203 226 255
203 226 255
203 226 255
203 226 255
203 226 255
203 226 255
203 226 255
203 226 255
203 226 255
203 226 255
203 226 255
203 226 255
203 226 255
203 226 255
203 226 255
203 226 255
203 226 255
203 226 255
203 226 255
203 226 255
203 226 255
203 226 255
203 226 255
203 226 255
203 226 255
203 226 255
203 226 255
203 226 255
203 226 255
203 226 255
203 226 255
203 226 255
203 226 255
203 226 255
203 226 255
203 226 255
203 226 255
203 226 255
203 226 255
203 226 255
203 226 255
203 226 255
203 226 255
203 226 255
203 226 255
204 226 255
204 226 255
204 226 255
204 226 255
204 226 255
204 226 255
204 226 255
204 226 255
204 226 255
204 226 255
204 226 255
204 226 255
204 226 255
204 226 255
204 226 255
204 226 255
204 226 255
204 226 255
204 226 255
204 226 255
204 227 255
204 227 255
205 227 255
205 227 255
205 227 255
205 227 255
205 227 255
205 227 255
205 227 255
205 227 255
205 227 255
205 227 255
205 227 255
205 227 255
205 227 255
205 227 255
205 227 255
205 227 255
205 227 255
205 227 255
206 227 255
206 227 255
206 227 255
206 227 255
206 227 255
206 227 255
206 227 255
206 227 255
206 227 255
206 227 255
206 227 255
206 227 255
206 227 255
206 228 255
206 228 255
206 228 255
206 228 255
207 228 255
207 228 255
207 228 255
207 228 255
207 228 255
207 228 255
207 228 255
207 228 255
207 228 255
207 228 255
207 228 255
207 228 255
207 228 255
207 228 255
207 228 255
207 228 255
208 228 255
208 228 255
208 228 255
208 228 255
208 228 255
208 228 255
208 228 255
208 228 255
208 228 255
208 228 255
208 228 255
208 229 255
208 229 255
208 229 255
208 229 255
208 229 255
208 229 255
209 229 255
209 229 255
209 229 255
209 229 255
209 229 255
209 229 255
209 229 255
209 229 255
209 229 255
209 229 255
209 229 255
209 229 255
209 229 255
209 229 255
209 229 255
209 229 255
209 229 255
209 229 255
210 229 255
210 229 255
210 229 255
210 229 255
210 229 255
210 229 255
210 229 255
210 229 255
210 229 255
210 230 255
210 230 255
210 230 255
210 230 255
210 230 255
210 230 255
210 230 255
210 230 255
210 230 255
210 230 255
211 230 255
211 230 255
211 230 255
211 230 255
211 230 255
211 230 255
211 230 255
211 230 255
211 230 255
211 230 255
211 230 255
211 230 255
211 230 255
211 230 255
211 230 255
211 230 255
211 230 255
211 230 255
211 230 255
211 230 255
211 230 255
212 230 255
212 230 255
212 230 255
212 230 255
212 230 255
212 230 255
212 230 255
212 231 255
212 231 255
212 231 255
212 231 255
212 231 255
212 231 255
212 231 255
212 231 255
212 231 255
212 231 255
212 231 255
212 231 255
212 231 255
212 231 255
212 231 255
212 231 255
212 231 255
212 231 255
212 231 255
212 231 255
212 231 255
212 231 255
212 231 255
212 231 255
212 231 255
212 230 255
212 230 255
212 230 255
212 230 255
212 230 255
212 230 255
212 230 255
211 230 255
211 230 255
211 230 255
211 230 255
211 230 255
211 230 255
211 230 255
211 230 255
211 230 255
211 230 255
211 230 255
211 230 255
211 230 255
211 230 255
211 230 255
211 230 255
211 230 255
211 230 255
211 230 255
211 230 255
211 230 255
210 230 255
210 230 255
210 230 255
210 230 255
210 230 255
210 230 255
210 230 255
210 230 255
210 230 255
210 230 255
210 229 255
210 229 255
210 229 255
210 229 255
210 229 255
210 229 255
210 229 255
210 229 255
210 229 255
209 229 255
209 229 255
209 229 255
209 229 255
209 229 255
209 229 255
209 229 255
209 229 255
209 229 255
209 229 255
209 229 255
209 229 255
209 229 255
209 229 255
209 229 255
209 229 255
209 229 255
209 229 255
208 229 255
208 229 255
208 229 255
208 229 255
208 229 255
208 229 255
208 228 255
208 228 255
208 228 255
208 228 255
208 228 255
208 228 255
208 228 255
208 228 255
208 228 255
208 228 255
208 228 255
207 228 255
207 228 255
207 228 255
207 228 255
207 228 255
207 228 255
207 228 255
207 228 255
207 228 255
207 228 255
207 228 255
207 228 255
207 228 255
207 228 255
207 228 255
207 228 255
206 228 255
206 228 255
206 228 255
206 228 255
206 227 255
206 227 255
206 227 255
206 227 255
206 227 255
206 227 255
206 227 255
206 227 255
206 227 255
206 227 255
206 227 255
206 227 255
206 227 255
205 227 255
205 227 255
205 227 255
205 227 255
205 227 255
205 227 255
205 227 255
205 227 255
205 227 255
205 227 255
205 227 255
205 227 255
205 227 255
205 227 255
205 227 255
205 227 255
205 227 255
205 227 255
205 227 255
204 227 255
204 227 255
204 226 255
204 226 255
204 226 255
204 226 255
204 226 255
204 226 255
204 226 255
204 226 255
204 226 255
204 226 255
204 226 255
204 226 255
204 226 255
204 226 255
204 226 255
204 226 255
204 226 255
204 226 255
204 226 255
204 226 255
204 226 255
204 226 255
203 226 255
203 226 255
203 226 255
203 226 255
203 226 255
203 226 255
203 226 255
203 226 255
203 226 255
203 226 255
203 226 255
203 226 255
203 226 255
203 226 255
203 226 255
203 226 255
203 226 255
203 226 255
203 226 255
203 226 255
203 226 255
203 226 255
203 226 255
203 226 255
203 226 255
203 226 255
203 226 255
203 226 255
203 226 255
203 226 255
203 226 255
203 226 255
203 226 255
203 226 255
203 226 255
203 226 255
203 226 255
203 226 255
203 226 255
203 226 255
203 226 255
203 226 255
203 226 255
203 226 255
203 226 255
203 226 255
203 226 255
203 226 255
203 226 255
203 226 255
203 226 255
203 226 255
203 226 255
203 226 255
203 226 255
203 226 255
204 226 255
204 226 255
204 226 255
204 226 255
204 226 255
204 226 255
204 226 255
204 226 255
204 226 255
204 226 255
204 226 255
204 226 255
204 226 255
204 226 255
204 226 255
204 226 255
204 226 255
204 226 255
204 226 255
204 226 255
204 226 255
204 226 255
204 227 255
204 227 255
204 227 255
205 227 255
205 227 255
205 227 255
205 227 255
205 227 255
205 227 255
205 227 255
205 227 255
205 227 255
205 227 255
205 227 255
205 227 255
205 227 255
205 227 255
205 227 255
205 227 255
205 227 255
205 227 255
206 227 255
206 227 255
206 227 255
206 227 255
206 227 255
206 227 255
206 227 255
206 227 255
206 227 255
206 227 255
206 227 255
206 227 255
206 227 255
206 228 255
206 228 255
206 228 255
206 228 255
207 228 255
207 228 255
207 228 255
207 228 255
207 228 255
207 228 255
207 228 255
207 228 255
207 228 255
207 228 255
207 228 255
207 228 255
207 228 255
207 228 255
207 228 255
207 228 255
208 228 255
208 228 255
208 228 255
208 228 255
208 228 255
208 228 255
208 228 255
208 228 255
208 228 255
208 228 255
208 228 255
208 229 255
208 229 255
208 229 255
208 229 255
208 229 255
208 229 255
209 229 255
209 229 255
209 229 255
209 229 255
209 229 255
209 229 255
209 229 255
209 229 255
209 229 255
209 229 255
209 229 255
209 229 255
209 229 255
209 229 255
209 229 255
209 229 255
209 229 255
209 229 255
210 229 255
210 229 255
210 229 255
210 229 255
210 229 255
210 229 255
210 229 255
210 229 255
210 229 255
210 230 255
210 230 255
210 230 255
210 230 255
210 230 255
210 230 255
210 230 255
210 230 255
210 230 255
210 230 255
211 230 255
211 230 255
211 230 255
211 230 255
211 230 255
211 230 255
211 230 255
211 230 255
211 230 255
211 230 255
211 230 255
211 230 255
211 230 255
211 230 255
211 230 255
211 230 255
211 230 255
211 230 255
211 230 255
211 230 255
211 230 255
212 230 255
212 230 255
212 230 255
212 230 255
212 230 255
212 230 255
212 230 255
212 231 255
212 231 255
212 231 255
212 231 255
212 231 255
212 231 255
212 231 255
212 231 255
212 231 255
212 231 255
212 231 255
212 231 255
212 231 255
212 231 255
213 231 255
212 231 255
212 231 255
212 231 255
212 231 255
212 231 255
212 231 255
212 231 255
212 231 255
212 231 255
212 231 255
212 231 255
212 231 255
212 231 255
212 231 255
212 231 255
212 231 255
212 230 255
212 230 255
212 230 255
212 230 255
212 230 255
212 230 255
212 230 255
212 230 255
211 230 255
211 230 255
211 230 255
211 230 255
211 230 255
211 230 255
211 230 255
211 230 255
211 230 255
211 230 255
211 230 255
211 230 255
211 230 255
211 230 255
211 230 255
211 230 255
211 230 255
211 230 255
211 230 255
211 230 255
210 230 255
210 230 255
210 230 255
210 230 255
210 230 255
210 230 255
210 230 255
210 230 255
210 230 255
210 230 255
210 229 255
210 229 255
210 229 255
210 229 255
210 229 255
210 229 255
210 229 255
210 229 255
210 229 255
209 229 255
209 229 255
209 229 255
209 229 255
209 229 255
209 229 255
209 229 255
209 229 255
209 229 255
209 229 255
209 229 255
209 229 255
209 229 255
209 229 255
209 229 255
209 229 255
209 229 255
209 229 255
208 229 255
208 229 255
208 229 255
208 229 255
208 229 255
208 229 255
208 228 255
208 228 255
208 228 255
208 228 255
208 228 255
208 228 255
208 228 255
208 228 255
208 228 255
208 228 255
207 228 255
207 228 255
207 228 255
207 228 255
207 228 255
207 228 255
207 228 255
207 228 255
207 228 255
207 228 255
207 228 255
207 228 255
207 228 255
207 228 255
207 228 255
207 228 255
207 228 255
206 228 255
206 228 255
206 228 255
206 228 255
206 227 255
206 227 255
206 227 255
206 227 255
206 227 255
206 227 255
206 227 255
206 227 255
206 227 255
206 227 255
206 227 255
206 227 255
206 227 255
205 227 255
205 227 255
205 227 255
205 227 255
205 227 255
205 227 255
205 227 255
205 227 255
205 227 255
205 227 255
205 227 255
205 227 255
205 227 255
205 227 255
205 227 255
205 227 255
205 227 255
205 227 255
205 227 255
204 227 255
204 227 255
204 227 255
204 226 255
204 226 255
204 226 255
204 226 255
204 226 255
204 226 255
204 226 255
204 226 255
204 226 255
204 226 255
204 226 255
204 226 255
204 226 255
204 226 255
204 226 255
204 226 255
204 226 255
204 226 255
204 226 255
204 226 255
204 226 255
204 226 255
204 226 255
204 226 255
203 226 255
203 226 255
203 226 255
203 226 255
203 226 255
203 226 255
203 226 255
203 226 255
203 226 255
203 226 255
203 226 255
203 226 255
203 226 255
203 226 255
203 226 255
203 226 255
203 226 255
203 226 255
203 226 255
203 226 255
203 226 255
203 226 255
203 226 255
203 226 255
203 226 255
203 226 255
203 226 255
203 226 255
203 226 255
203 226 255
203 226 255
203 226 255
203 226 255
203 226 255
203 226 255
203 226 255
203 226 255
203 226 255
203 226 255
203 226 255
203 226 255
203 226 255
203 226 255
204 226 255
204 226 255
204 226 255
204 226 255
204 226 255
204 226 255
204 226 255
204 226 255
204 226 255
204 226 255
204 226 255
204 226 255
204 226 255
204 226 255
204 226 255
204 226 255
204 226 255
204 226 255
204 226 255
204 226 255
204 226 255
204 226 255
204 226 255
204 226 255
204 226 255
204 227 255
204 227 255
204 227 255
205 227 255
205 227 255
205 227 255
205 227 255
205 227 255
205 227 255
205 227 255
205 227 255
205 227 255
205 227 255
205 227 255
205 227 255
205 227 255
205 227 255
205 227 255
205 227 255
205 227 255
205 227 255
205 227 255
206 227 255
206 227 255
206 227 255
206 227 255
206 227 255
206 227 255
206 227 255
206 227 255
206 227 255
206 227 255
206 227 255
206 227 255
206 227 255
206 228 255
206 228 255
206 228 255
206 228 255
207 228 255
207 228 255
207 228 255
207 228 255
207 228 255
207 228 255
207 228 255
207 228 255
207 228 255
207 228 255
207 228 255
207 228 255
207 228 255
207 228 255
207 228 255
207 228 255
207 228 255
208 228 255
208 228 255
208 228 255
208 228 255
208 228 255
208 228 255
208 228 255
208 228 255
208 228 255
208 228 255
208 229 255
208 229 255
208 229 255
208 229 255
208 229 255
208 229 255
208 229 255
209 229 255
209 229 255
209 229 255
209 229 255
209 229 255
209 229 255
209 229 255
209 229 255
209 229 255
209 229 255
209 229 255
209 229 255
209 229 255
209 229 255
209 229 255
209 229 255
209 229 255
210 229 255
210 229 255
210 229 255
210 229 255
210 229 255
210 229 255
210 229 255
210 229 255
210 229 255
210 230 255
210 230 255
210 230 255
210 230 255
210 230 255
210 230 255
210 230 255
210 230 255
210 230 255
210 230 255
211 230 255
211 230 255
211 230 255
211 230 255
211 230 255
211 230 255
211 230 255
211 230 255
211 230 255
211 230 255
211 230 255
211 230 255
211 230 255
211 230 255
211 230 255
211 230 255
211 230 255
211 230 255
211 230 255
211 230 255
212 230 255
212 230 255
212 230 255
212 230 255
212 230 255
212 230 255
212 230 255
212 230 255
212 231 255
212 231 255
212 231 255
212 231 255
212 231 255
212 231 255
212 231 255
212 231 255
212 231 255
212 231 255
212 231 255
212 231 255
212 231 255
212 231 255
212 231 255
212 231 255
213 231 255
213 231 255
213 231 255
213 231 255
213 231 255
213 231 255
212 231 255
212 231 255
212 231 255
212 231 255
212 231 255
212 231 255
212 231 255
212 231 255
212 231 255
212 231 255
212 231 255
212 231 255
212 231 255
212 231 255
212 231 255
212 230 255
212 230 255
212 230 255
212 230 255
212 230 255
212 230 255
212 230 255
212 230 255
211 230 255
211 230 255
211 230 255
211 230 255
211 230 255
211 230 255
211 230 255
211 230 255
211 230 255
211 230 255
211 230 255
211 230 255
211 230 255
211 230 255
211 230 255
211 230 255
211 230 255
211 230 255
211 230 255
211 230 255
210 230 255
210 230 255
210 230 255
210 230 255
210 230 255
210 230 255
210 230 255
210 230 255
210 230 255
210 230 255
210 229 255
210 229 255
210 229 255
210 229 255
210 229 255
210 229 255
210 229 255
210 229 255
210 229 255
209 229 255
209 229 255
209 229 255
209 229 255
209 229 255
209 229 255
209 229 255
209 229 255
209 229 255
209 229 255
209 229 255
209 229 255
209 229 255
209 229 255
209 229 255
209 229 255
209 229 255
209 229 255
208 229 255
208 229 255
208 229 255
208 229 255
208 229 255
208 229 255
208 228 255
208 228 255
208 228 255
208 228 255
208 228 255
208 228 255
208 228 255
208 228 255
208 228 255
208 228 255
207 228 255
207 228 255
207 228 255
207 228 255
207 228 255
207 228 255
207 228 255
207 228 255
207 228 255
207 228 255
207 228 255
207 228 255
207 228 255
207 228 255
207 228 255
207 228 255
207 228 255
206 228 255
206 228 255
206 228 255
206 228 255
206 227 255
206 227 255
206 227 255
206 227 255
206 227 255
206 227 255
206 227 255
206 227 255
206 227 255
206 227 255
206 227 255
206 227 255
206 227 255
205 227 255
205 227 255
205 227 255
205 227 255
205 227 255
205 227 255
205 227 255
205 227 255
205 227 255
205 227 255
205 227 255
205 227 255
205 227 255
205 227 255
205 227 255
205 227 255
205 227 255
205 227 255
205 227 255
205 227 255
204 227 255
204 227 255
204 227 255
204 226 255
204 226 255
204 226 255
204 226 255
204 226 255
204 226 255
204 226 255
204 226 255
204 226 255
204 226 255
204 226 255
204 226 255
204 226 255
204 226 255
204 226 255
204 226 255
204 226 255
204 226 255
204 226 255
204 226 255
204 226 255
204 226 255
204 226 255
204 226 255
204 226 255
204 226 255
204 226 255
204 226 255
204 226 255
204 226 255
203 226 255
203 226 255
203 226 255
203 226 255
203 226 255
203 226 255
203 226 255
203 226 255
203 226 255
203 226 255
203 226 255
203 226 255
203 226 255
203 226 255
203 226 255
203 226 255
203 226 255
203 226 255
203 226 255
203 226 255
203 226 255
203 226 255
203 226 255
203 226 255
204 226 255
204 226 255
204 226 255
204 226 255
204 226 255
204 226 255
204 226 255
204 226 255
204 226 255
204 226 255
204 226 255
204 226 255
204 226 255
204 226 255
204 226 255
204 226 255
204 226 255
204 226 255
204 226 255
204 226 255
204 226 255
204 226 255
204 226 255
204 226 255
204 226 255
204 226 255
204 226 255
204 226 255
204 226 255
204 226 255
204 227 255
204 227 255
204 227 255
205 227 255
205 227 255
205 227 255
205 227 255
205 227 255
205 227 255
205 227 255
205 227 255
205 227 255
205 227 255
205 227 255
205 227 255
205 227 255
205 227 255
205 227 255
205 227 255
205 227 255
205 227 255
205 227 255
205 227 255
206 227 255
206 227 255
206 227 255
206 227 255
206 227 255
206 227 255
206 227 255
206 227 255
206 227 255
206 227 255
206 227 255
206 227 255
206 227 255
206 228 255
206 228 255
206 228 255
206 228 255
207 228 255
207 228 255
207 228 255
207 228 255
207 228 255
207 228 255
207 228 255
207 228 255
207 228 255
207 228 255
207 228 255
207 228 255
207 228 255
207 228 255
207 228 255
207 228 255
207 228 255
208 228 255
208 228 255
208 228 255
208 228 255
208 228 255
208 228 255
208 228 255
208 228 255
208 228 255
208 228 255
208 229 255
208 229 255
208 229 255
208 229 255
208 229 255
208 229 255
209 229 255
209 229 255
209 229 255
209 229 255
209 229 255
209 229 255
209 229 255
209 229 255
209 229 255
209 229 255
209 229 255
209 229 255
209 229 255
209 229 255
209 229 255
209 229 255
209 229 255
209 229 255
210 229 255
210 229 255
210 229 255
210 229 255
210 229 255
210 229 255
210 229 255
210 229 255
210 229 255
210 230 255
210 230 255
210 230 255
210 230 255
210 230 255
210 230 255
210 230 255
210 230 255
210 230 255
210 230 255
211 230 255
211 230 255
211 230 255
211 230 255
211 230 255
211 230 255
211 230 255
211 230 255
211 230 255
211 230 255
211 230 255
211 230 255
211 230 255
211 230 255
211 230 255
211 230 255
211 230 255
211 230 255
211 230 255
211 230 255
212 230 255
212 230 255
212 230 255
212 230 255
212 230 255
212 230 255
212 230 255
212 230 255
212 231 255
212 231 255
212 231 255
212 231 255
212 231 255
212 231 255
212 231 255
212 231 255
212 231 255
212 231 255
212 231 255
212 231 255
212 231 255
212 231 255
212 231 255
213 231 255
213 231 255
213 231 255
213 231 255
213 231 255
213 231 255
213 231 255
213 231 255
213 231 255
213 231 255
213 231 255
213 231 255
213 231 255
212 231 255
212 231 255
212 231 255
212 231 255
212 231 255
212 231 255
212 231 255
212 231 255
212 231 255
212 231 255
212 231 255
212 231 255
212 231 255
212 231 255
212 231 255
212 230 255
212 230 255
212 230 255
212 230 255
212 230 255
212 230 255
212 230 255
212 230 255
211 230 255
211 230 255
211 230 255
211 230 255
211 230 255
211 230 255
211 230 255
211 230 255
211 230 255
211 230 255
211 230 255
211 230 255
211 230 255
211 230 255
211 230 255
211 230 255
211 230 255
211 230 255
211 230 255
211 230 255
210 230 255
210 230 255
210 230 255
210 230 255
210 230 255
210 230 255
210 230 255
210 230 255
210 230 255
210 230 255
210 229 255
210 229 255
210 229 255
210 229 255
210 229 255
210 229 255
210 229 255
210 229 255
210 229 255
209 229 255
209 229 255
209 229 255
209 229 255
209 229 255
209 229 255
209 229 255
209 229 255
209 229 255
209 229 255
209 229 255
209 229 255
209 229 255
209 229 255
209 229 255
209 229 255
209 229 255
208 229 255
208 229 255
208 229 255
208 229 255
208 229 255
208 229 255
208 228 255
208 228 255
208 228 255
208 228 255
208 228 255
208 228 255
208 228 255
208 228 255
208 228 255
208 228 255
208 228 255
207 228 255
207 228 255
207 228 255
207 228 255
207 228 255
207 228 255
207 228 255
207 228 255
207 228 255
207 228 255
207 228 255
207 228 255
207 228 255
207 228 255
207 228 255
207 228 255
207 228 255
206 228 255
206 228 255
206 228 255
206 228 255
206 227 255
206 227 255
206 227 255
206 227 255
206 227 255
206 227 255
206 227 255
206 227 255
206 227 255
206 227 255
206 227 255
206 227 255
206 227 255
206 227 255
205 227 255
205 227 255
205 227 255
205 227 255
205 227 255
205 227 255
205 227 255
205 227 255
205 227 255
205 227 255
205 227 255
205 227 255
205 227 255
205 227 255
205 227 255
205 227 255
205 227 255
205 227 255
205 227 255
205 227 255
205 227 255
204 227 255
204 227 255
204 226 255
204 226 255
204 226 255
204 226 255
204 226 255
204 226 255
204 226 255
204 226 255
204 226 255
204 226 255
204 226 255
204 226 255
204 226 255
204 226 255
204 226 255
204 226 255
204 226 255
204 226 255
204 226 255
204 226 255
204 226 255
204 226 255
204 226 255
204 226 255
204 226 255
204 226 255
204 226 255
204 226 255
204 226 255
204 226 255
204 226 255
204 226 255
204 226 255
204 226 255
204 226 255
204 226 255
204 226 255
204 226 255
204 226 255
204 226 255
204 226 255
204 226 255
204 226 255
204 226 255
204 226 255
204 226 255
204 226 255
204 226 255
204 226 255
204 226 255
204 226 255
204 226 255
204 226 255
204 226 255
204 226 255
204 226 255
204 226 255
204 226 255
204 226 255
204 226 255
204 226 255
204 226 255
204 226 255
204 226 255
204 226 255
204 226 255
204 226 255
204 226 255
204 226 255
204 226 255
204 226 255
204 226 255
204 226 255
204 226 255
204 226 255
204 226 255
204 227 255
204 227 255
205 227 255
205 227 255
205 227 255
205 227 255
205 227 255
205 227 255
205 227 255
205 227 255
205 227 255
205 227 255
205 227 255
205 227 255
205 227 255
205 227 255
205 227 255
205 227 255
205 227 255
205 227 255
205 227 255
205 227 255
205 227 255
206 227 255
206 227 255
206 227 255
206 227 255
206 227 255
206 227 255
206 227 255
206 227 255
206 227 255
206 227 255
206 227 255
206 227 255
206 227 255
206 227 255
206 228 255
206 228 255
206 228 255
206 228 255
207 228 255
207 228 255
207 228 255
207 228 255
207 228 255
207 228 255
207 228 255
207 228 255
207 228 255
207 228 255
207 228 255
207 228 255
207 228 255
207 228 255
207 228 255
207 228 255
207 228 255
208 228 255
208 228 255
208 228 255
208 228 255
208 228 255
208 228 255
208 228 255
208 228 255
208 228 255
208 228 255
208 228 255
208 229 255
208 229 255
208 229 255
208 229 255
208 229 255
208 229 255
209 229 255
209 229 255
209 229 255
209 229 255
209 229 255
209 229 255
209 229 255
209 229 255
209 229 255
209 229 255
209 229 255
209 229 255
209 229 255
209 229 255
209 229 255
209 229 255
209 229 255
210 229 255
210 229 255
210 229 255
210 229 255
210 229 255
210 229 255
210 229 255
210 229 255
210 229 255
210 230 255
210 230 255
210 230 255
210 230 255
210 230 255
210 230 255
210 230 255
210 230 255
210 230 255
210 230 255
211 230 255
211 230 255
211 230 255
211 230 255
211 230 255
211 230 255
211 230 255
211 230 255
211 230 255
211 230 255
211 230 255
211 230 255
211 230 255
211 230 255
211 230 255
211 230 255
211 230 255
211 230 255
211 230 255
211 230 255
212 230 255
212 230 255
212 230 255
212 230 255
212 230 255
212 230 255
212 230 255
212 230 255
212 231 255
212 231 255
212 231 255
212 231 255
212 231 255
212 231 255
212 231 255
212 231 255
212 231 255
212 231 255
212 231 255
212 231 255
212 231 255
212 231 255
212 231 255
213 231 255
213 231 255
213 231 255
213 231 255
213 231 255
213 231 255
213 231 255
213 231 255
213 231 255
213 231 255
213 231 255
213 231 255
213 231 255
213 231 255
213 231 255
213 231 255
213 231 255
213 231 255
213 231 255
212 231 255
212 231 255
212 231 255
212 231 255
212 231 255
212 231 255
212 231 255
212 231 255
212 231 255
212 231 255
212 231 255
212 231 255
212 231 255
212 231 255
212 231 255
212 230 255
212 230 255
212 230 255
212 230 255
212 230 255
212 230 255
212 230 255
212 230 255
211 230 255
211 230 255
211 230 255
211 230 255
211 230 255
211 230 255
211 230 255
211 230 255
211 230 255
211 230 255
211 230 255
211 230 255
211 230 255
211 230 255
211 230 255
211 230 255
211 230 255
211 230 255
211 230 255
211 230 255
210 230 255
210 230 255
210 230 255
210 230 255
210 230 255
210 230 255
210 230 255
210 230 255
210 230 255
210 230 255
210 229 255
210 229 255
210 229 255
210 229 255
210 229 255
210 229 255
210 229 255
210 229 255
210 229 255
209 229 255
209 229 255
209 229 255
209 229 255
209 229 255
209 229 255
209 229 255
209 229 255
209 229 255
209 229 255
209 229 255
209 229 255
209 229 255
209 229 255
209 229 255
209 229 255
209 229 255
208 229 255
208 229 255
208 229 255
208 229 255
208 229 255
208 229 255
208 228 255
208 228 255
208 228 255
208 228 255
208 228 255
208 228 255
208 228 255
208 228 255
208 228 255
208 228 255
208 228 255
207 228 255
207 228 255
207 228 255
207 228 255
207 228 255
207 228 255
207 228 255
207 228 255
207 228 255
207 228 255
207 228 255
207 228 255
207 228 255
207 228 255
207 228 255
207 228 255
207 228 255
206 228 255
206 228 255
206 228 255
206 228 255
206 227 255
206 227 255
206 227 255
206 227 255
206 227 255
206 227 255
206 227 255
206 227 255
206 227 255
206 227 255
206 227 255
206 227 255
206 227 255
206 227 255
205 227 255
205 227 255
205 227 255
205 227 255
205 227 255
205 227 255
205 227 255
205 227 255
205 227 255
205 227 255
205 227 255
205 227 255
205 227 255
205 227 255
205 227 255
205 227 255
205 227 255
205 227 255
205 227 255
205 227 255
205 227 255
205 227 255
204 227 255
204 227 255
204 227 255
204 226 255
204 226 255
204 226 255
204 226 255
204 226 255
204 226 255
204 226 255
204 226 255
204 226 255
204 226 255
204 226 255
204 226 255
204 226 255
204 226 255
204 226 255
204 226 255
204 226 255
204 226 255
204 226 255
204 226 255
204 226 255
204 226 255
204 226 255
204 226 255
204 226 255
204 226 255
204 226 255
204 226 255
204 226 255
204 226 255
204 226 255
204 226 255
204 226 255
204 226 255
204 226 255
204 226 255
204 226 255
204 226 255
204 226 255
204 226 255
204 226 255
204 226 255
204 226 255
204 226 255
204 226 255
204 226 255
204 226 255
204 226 255
204 226 255
204 226 255
204 226 255
204 226 255
204 226 255
204 226 255
204 226 255
204 226 255
204 226 255
204 226 255
204 226 255
204 226 255
204 226 255
204 226 255
204 226 255
204 226 255
204 226 255
204 227 255
204 227 255
204 227 255
204 227 255
205 227 255
205 227 255
205 227 255
205 227 255
205 227 255
205 227 255
205 227 255
205 227 255
205 227 255
205 227 255
205 227 255
205 227 255
205 227 255
205 227 255
205 227 255
205 227 255
205 227 255
205 227 255
205 227 255
205 227 255
205 227 255
205 227 255
206 227 255
206 227 255
206 227 255
206 227 255
206 227 255
206 227 255
206 227 255
206 227 255
206 227 255
206 227 255
206 227 255
206 227 255
206 227 255
206 227 255
206 228 255
206 228 255
206 228 255
206 228 255
207 228 255
207 228 255
207 228 255
207 228 255
207 228 255
207 228 255
207 228 255
207 228 255
207 228 255
207 228 255
207 228 255
207 228 255
207 228 255
207 228 255
207 228 255
207 228 255
207 228 255
208 228 255
208 228 255
208 228 255
208 228 255
208 228 255
208 228 255
208 228 255
208 228 255
208 228 255
208 228 255
208 228 255
208 229 255
208 229 255
208 229 255
208 229 255
208 229 255
208 229 255
209 229 255
209 229 255
209 229 255
209 229 255
209 229 255
209 229 255
209 229 255
209 229 255
209 229 255
209 229 255
209 229 255
209 229 255
209 229 255
209 229 255
209 229 255
209 229 255
209 229 255
210 229 255
210 229 255
210 229 255
210 229 255
210 229 255
210 229 255
210 229 255
210 229 255
210 229 255
210 230 255
210 230 255
210 230 255
210 230 255
210 230 255
210 230 255
210 230 255
210 230 255
210 230 255
210 230 255
211 230 255
211 230 255
211 230 255
211 230 255
211 230 255
211 230 255
211 230 255
211 230 255
211 230 255
211 230 255
211 230 255
211 230 255
211 230 255
211 230 255
211 230 255
211 230 255
211 230 255
211 230 255
211 230 255
211 230 255
212 230 255
212 230 255
212 230 255
212 230 255
212 230 255
212 230 255
212 230 255
212 230 255
212 231 255
212 231 255
212 231 255
212 231 255
212 231 255
212 231 255
212 231 255
212 231 255
212 231 255
212 231 255
212 231 255
212 231 255
212 231 255
212 231 255
212 231 255
213 231 255
213 231 255
213 231 255
213 231 255
213 231 255
213 231 255
213 231 255
213 231 255
213 231 255
213 231 255
213 231 255
213 231 255
213 231 255
213 231 255
213 231 255
213 231 255
213 231 255
213 231 255
213 231 255
213 231 255
213 231 255
213 231 255
213 231 255
213 231 255
213 231 255
213 231 255
212 231 255
212 231 255
212 231 255
212 231 255
212 231 255
212 231 255
212 231 255
212 231 255
212 231 255
212 231 255
212 231 255
212 231 255
212 231 255
212 231 255
212 230 255
212 230 255
212 230 255
212 230 255
212 230 255
212 230 255
212 230 255
212 230 255
211 230 255
211 230 255
211 230 255
211 230 255
211 230 255
211 230 255
211 230 255
211 230 255
211 230 255
211 230 255
211 230 255
211 230 255
211 230 255
211 230 255
211 230 255
211 230 255
211 230 255
211 230 255
211 230 255
211 230 255
210 230 255
210 230 255
210 230 255
210 230 255
210 230 255
210 230 255
210 230 255
210 230 255
210 230 255
210 230 255
210 229 255
210 229 255
210 229 255
210 229 255
210 229 255
210 229 255
210 229 255
210 229 255
210 229 255
209 229 255
209 229 255
209 229 255
209 229 255
209 229 255
209 229 255
209 229 255
209 229 255
209 229 255
209 229 255
209 229 255
209 229 255
209 229 255
209 229 255
209 229 255
209 229 255
209 229 255
208 229 255
208 229 255
208 229 255
208 229 255
208 229 255
208 229 255
208 228 255
208 228 255
208 228 255
208 228 255
208 228 255
208 228 255
208 228 255
208 228 255
208 228 255
208 228 255
208 228 255
207 228 255
207 228 255
207 228 255
207 228 255
207 228 255
207 228 255
207 228 255
207 228 255
207 228 255
207 228 255
207 228 255
207 228 255
207 228 255
207 228 255
207 228 255
207 228 255
207 228 255
206 228 255
206 228 255
206 228 255
206 228 255
206 227 255
206 227 255
206 227 255
206 227 255
206 227 255
206 227 255
206 227 255
206 227 255
206 227 255
206 227 255
206 227 255
206 227 255
206 227 255
206 227 255
206 227 255
205 227 255
205 227 255
205 227 255
205 227 255
205 227 255
205 227 255
205 227 255
205 227 255
205 227 255
205 227 255
205 227 255
205 227 255
205 227 255
205 227 255
205 227 255
205 227 255
205 227 255
205 227 255
205 227 255
205 227 255
205 227 255
205 227 255
205 227 255
205 227 255
204 227 255
204 227 255
204 227 255
204 226 255
204 226 255
204 226 255
204 226 255
204 226 255
204 226 255
204 226 255
204 226 255
204 226 255
204 226 255
204 226 255
204 226 255
204 226 255
204 226 255
204 226 255
204 226 255
204 226 255
204 226 255
204 226 255
204 226 255
204 226 255
204 226 255
204 226 255
204 226 255
204 226 255
204 226 255
204 226 255
204 226 255
204 226 255
204 226 255
204 226 255
204 226 255
204 226 255
204 226 255
204 226 255
204 226 255
204 226 255
204 226 255
204 226 255
204 226 255
204 226 255
204 226 255
204 226 255
204 226 255
204 226 255
204 226 255
204 226 255
204 226 255
204 226 255
204 226 255
204 226 255
204 226 255
204 226 255
204 227 255
204 227 255
204 227 255
204 227 255
205 227 255
205 227 255
205 227 255
205 227 255
205 227 255
205 227 255
205 227 255
205 227 255
205 227 255
205 227 255
205 227 255
205 227 255
205 227 255
205 227 255
205 227 255
205 227 255
205 227 255
205 227 255
205 227 255
205 227 255
205 227 255
205 227 255
205 227 255
205 227 255
206 227 255
206 227 255
206 227 255
206 227 255
206 227 255
206 227 255
206 227 255
206 227 255
206 227 255
206 227 255
206 227 255
206 227 255
206 227 255
206 227 255
206 227 255
206 228 255
206 228 255
206 228 255
206 228 255
207 228 255
207 228 255
207 228 255
207 228 255
207 228 255
207 228 255
207 228 255
207 228 255
207 228 255
207 228 255
207 228 255
207 228 255
207 228 255
207 228 255
207 228 255
207 228 255
207 228 255
208 228 255
208 228 255
208 228 255
208 228 255
208 228 255
208 228 255
208 228 255
208 228 255
208 228 255
208 228 255
208 228 255
208 229 255
208 229 255
208 229 255
208 229 255
208 229 255
208 229 255
209 229 255
209 229 255
209 229 255
209 229 255
209 229 255
209 229 255
209 229 255
209 229 255
209 229 255
209 229 255
209 229 255
209 229 255
209 229 255
209 229 255
209 229 255
209 229 255
209 229 255
210 229 255
210 229 255
210 229 255
210 229 255
210 229 255
210 229 255
210 229 255
210 229 255
210 229 255
210 230 255
210 230 255
210 230 255
210 230 255
210 230 255
210 230 255
210 230 255
210 230 255
210 230 255
210 230 255
211 230 255
211 230 255
211 230 255
211 230 255
211 230 255
211 230 255
211 230 255
211 230 255
211 230 255
211 230 255
211 230 255
211 230 255
211 230 255
211 230 255
211 230 255
211 230 255
211 230 255
211 230 255
211 230 255
211 230 255
212 230 255
212 230 255
212 230 255
212 230 255
212 230 255
212 230 255
212 230 255
212 231 255
212 231 255
212 231 255
212 231 255
212 231 255
212 231 255
212 231 255
212 231 255
212 231 255
212 231 255
212 231 255
212 231 255
212 231 255
212 231 255
212 231 255
212 231 255
213 231 255
213 231 255
213 231 255
213 231 255
213 231 255
213 231 255
213 231 255
213 231 255
213 231 255
213 231 255
213 231 255
213 231 255
213 231 255
213 231 255
213 231 255
213 231 255
213 231 255
213 231 255
213 231 255
213 231 255
213 231 255
213 231 255
213 231 255
213 231 255
213 231 255
213 231 255
213 231 255
213 231 255
213 231 255
213 231 255
213 231 255
213 231 255
212 231 255
212 231 255
212 231 255
212 231 255
212 231 255
212 231 255
212 231 255
212 231 255
212 231 255
212 231 255
212 231 255
212 231 255
212 231 255
212 231 255
212 231 255
212 230 255
212 230 255
212 230 255
212 230 255
212 230 255
212 230 255
212 230 255
211 230 255
211 230 255
211 230 255
211 230 255
211 230 255
211 230 255
211 230 255
211 230 255
211 230 255
211 230 255
211 230 255
211 230 255
211 230 255
211 230 255
211 230 255
211 230 255
211 230 255
211 230 255
211 230 255
211 230 255
210 230 255
210 230 255
210 230 255
210 230 255
210 230 255
210 230 255
210 230 255
210 230 255
210 230 255
210 230 255
210 229 255
210 229 255
210 229 255
210 229 255
210 229 255
210 229 255
210 229 255
210 229 255
210 229 255
209 229 255
209 229 255
209 229 255
209 229 255
209 229 255
209 229 255
209 229 255
209 229 255
209 229 255
209 229 255
209 229 255
209 229 255
209 229 255
209 229 255
209 229 255
209 229 255
209 229 255
208 229 255
208 229 255
208 229 255
208 229 255
208 229 255
208 229 255
208 228 255
208 228 255
208 228 255
208 228 255
208 228 255
208 228 255
208 228 255
208 228 255
208 228 255
208 228 255
208 228 255
207 228 255
207 228 255
207 228 255
207 228 255
207 228 255
207 228 255
207 228 255
207 228 255
207 228 255
207 228 255
207 228 255
207 228 255
207 228 255
207 228 255
207 228 255
207 228 255
207 228 255
207 228 255
206 228 255
206 228 255
206 228 255
206 228 255
206 227 255
206 227 255
206 227 255
206 227 255
206 227 255
206 227 255
206 227 255
206 227 255
206 227 255
206 227 255
206 227 255
206 227 255
206 227 255
206 227 255
206 227 255
205 227 255
205 227 255
205 227 255
205 227 255
205 227 255
205 227 255
205 227 255
205 227 255
205 227 255
205 227 255
205 227 255
205 227 255
205 227 255
205 227 255
205 227 255
205 227 255
205 227 255
205 227 255
205 227 255
205 227 255
205 227 255
205 227 255
205 227 255
205 227 255
205 227 255
205 227 255
204 227 255
204 227 255
204 227 255
204 227 255
204 227 255
204 226 255
204 226 255
204 226 255
204 226 255
204 226 255
204 226 255
204 226 255
204 226 255
204 226 255
204 226 255
204 226 255
204 226 255
204 226 255
204 226 255
204 226 255
204 226 255
204 226 255
204 226 255
204 226 255
204 226 255
204 226 255
204 226 255
204 226 255
204 226 255
204 226 255
204 226 255
204 226 255
204 226 255
204 226 255
204 226 255
204 226 255
204 226 255
204 226 255
204 226 255
204 226 255
204 226 255
204 226 255
204 226 255
204 227 255
204 227 255
204 227 255
204 227 255
205 227 255
205 227 255
205 227 255
205 227 255
205 227 255
205 227 255
205 227 255
205 227 255
205 227 255
205 227 255
205 227 255
205 227 255
205 227 255
205 227 255
205 227 255
205 227 255
205 227 255
205 227 255
205 227 255
205 227 255
205 227 255
205 227 255
205 227 255
205 227 255
205 227 255
205 227 255
205 227 255
206 227 255
206 227 255
206 227 255
206 227 255
206 227 255
206 227 255
206 227 255
206 227 255
206 227 255
206 227 255
206 227 255
206 227 255
206 227 255
206 227 255
206 227 255
206 228 255
206 228 255
206 228 255
206 228 255
207 228 255
207 228 255
207 228 255
207 228 255
207 228 255
207 228 255
207 228 255
207 228 255
207 228 255
207 228 255
207 228 255
207 228 255
207 228 255
207 228 255
207 228 255
207 228 255
207 228 255
207 228 255
208 228 255
208 228 255
208 228 255
208 228 255
208 228 255
208 228 255
208 228 255
208 228 255
208 228 255
208 228 255
208 228 255
208 229 255
208 229 255
208 229 255
208 229 255
208 229 255
208 229 255
209 229 255
209 229 255
209 229 255
209 229 255
209 229 255
209 229 255
209 229 255
209 229 255
209 229 255
209 229 255
209 229 255
209 229 255
209 229 255
209 229 255
209 229 255
209 229 255
209 229 255
210 229 255
210 229 255
210 229 255
210 229 255
210 229 255
210 229 255
210 229 255
210 229 255
210 229 255
210 230 255
210 230 255
210 230 255
210 230 255
210 230 255
210 230 255
210 230 255
210 230 255
210 230 255
210 230 255
211 230 255
211 230 255
211 230 255
211 230 255
211 230 255
211 230 255
211 230 255
211 230 255
211 230 255
211 230 255
211 230 255
211 230 255
211 230 255
211 230 255
211 230 255
211 230 255
211 230 255
211 230 255
211 230 255
211 230 255
212 230 255
212 230 255
212 230 255
212 230 255
212 230 255
212 230 255
212 230 255
212 231 255
212 231 255
212 231 255
212 231 255
212 231 255
212 231 255
212 231 255
212 231 255
212 231 255
212 231 255
212 231 255
212 231 255
212 231 255
212 231 255
212 231 255
213 231 255
213 231 255
213 231 255
213 231 255
213 231 255
213 231 255
213 231 255
213 231 255
213 231 255
213 231 255
213 231 255
213 231 255
213 231 255
213 231 255
213 231 255
213 231 255
213 231 255
213 231 255
213 231 255
213 231 255
213 231 255
213 231 255
213 231 255
213 231 255
213 231 255
213 231 255
213 231 255
213 231 255
213 231 255
213 231 255
213 231 255
213 231 255
213 231 255
213 231 255
213 231 255
213 231 255
213 231 255
213 231 255
213 231 255
212 231 255
212 231 255
212 231 255
212 231 255
212 231 255
212 231 255
212 231 255
212 231 255
212 231 255
212 231 255
212 231 255
212 231 255
212 231 255
212 231 255
212 231 255
212 230 255
212 230 255
212 230 255
212 230 255
212 230 255
212 230 255
212 230 255
212 230 255
211 230 255
211 230 255
211 230 255
211 230 255
211 230 255
211 230 255
211 230 255
211 230 255
211 230 255
211 230 255
211 230 255
211 230 255
211 230 255
211 230 255
211 230 255
211 230 255
211 230 255
211 230 255
211 230 255
210 230 255
210 230 255
210 230 255
210 230 255
210 230 255
210 230 255
210 230 255
210 230 255
210 230 255
210 230 255
210 229 255
210 229 255
210 229 255
210 229 255
210 229 255
210 229 255
210 229 255
210 229 255
210 229 255
209 229 255
209 229 255
209 229 255
209 229 255
209 229 255
209 229 255
209 229 255
209 229 255
209 229 255
209 229 255
209 229 255
209 229 255
209 229 255
209 229 255
209 229 255
209 229 255
209 229 255
208 229 255
208 229 255
208 229 255
208 229 255
208 229 255
208 229 255
208 228 255
208 228 255
208 228 255
208 228 255
208 228 255
208 228 255
208 228 255
208 228 255
208 228 255
208 228 255
208 228 255
207 228 255
207 228 255
207 228 255
207 228 255
207 228 255
207 228 255
207 228 255
207 228 255
207 228 255
207 228 255
207 228 255
207 228 255
207 228 255
207 228 255
207 228 255
207 228 255
207 228 255
207 228 255
206 228 255
206 228 255
206 228 255
206 228 255
206 227 255
206 227 255
206 227 255
206 227 255
206 227 255
206 227 255
206 227 255
206 227 255
206 227 255
206 227 255
206 227 255
206 227 255
206 227 255
206 227 255
206 227 255
206 227 255
205 227 255
205 227 255
205 227 255
205 227 255
205 227 255
205 227 255
205 227 255
205 227 255
205 227 255
205 227 255
205 227 255
205 227 255
205 227 255
205 227 255
205 227 255
205 227 255
205 227 255
205 227 255
205 227 255
205 227 255
205 227 255
205 227 255
205 227 255
205 227 255
205 227 255
205 227 255
205 227 255
205 227 255
205 227 255
205 227 255
205 227 255
205 227 255
204 227 255
204 227 255
204 227 255
204 227 255
204 227 255
204 227 255
204 227 255
204 227 255
204 227 255
204 227 255
204 227 255
204 226 255
204 226 255
204 226 255
204 227 255
204 226 255
204 226 255
204 227 255
204 227 255
204 227 255
204 227 255
204 227 255
204 227 255
204 227 255
204 227 255
204 227 255
204 227 255
204 227 255
205 227 255
205 227 255
205 227 255
205 227 255
205 227 255
205 227 255
205 227 255
205 227 255
205 227 255
205 227 255
205 227 255
205 227 255
205 227 255
205 227 255
205 227 255
205 227 255
205 227 255
205 227 255
205 227 255
205 227 255
205 227 255
205 227 255
205 227 255
205 227 255
205 227 255
205 227 255
205 227 255
205 227 255
205 227 255
205 227 255
205 227 255
205 227 255
206 227 255
206 227 255
206 227 255
206 227 255
206 227 255
206 227 255
206 227 255
206 227 255
206 227 255
206 227 255
206 227 255
206 227 255
206 227 255
206 227 255
206 227 255
206 227 255
206 228 255
206 228 255
206 228 255
206 228 255
207 228 255
207 228 255
207 228 255
207 228 255
207 228 255
207 228 255
207 228 255
207 228 255
207 228 255
207 228 255
207 228 255
207 228 255
207 228 255
207 228 255
207 228 255
207 228 255
207 228 255
207 228 255
208 228 255
208 228 255
208 228 255
208 228 255
208 228 255
208 228 255
208 228 255
208 228 255
208 228 255
208 228 255
208 228 255
208 229 255
208 229 255
208 229 255
208 229 255
208 229 255
208 229 255
209 229 255
209 229 255
209 229 255
209 229 255
209 229 255
209 229 255
209 229 255
209 229 255
209 229 255
209 229 255
209 229 255
209 229 255
209 229 255
209 229 255
209 229 255
209 229 255
209 229 255
210 229 255
210 229 255
210 229 255
210 229 255
210 229 255
210 229 255
210 229 255
210 229 255
210 229 255
210 230 255
210 230 255
210 230 255
210 230 255
210 230 255
210 230 255
210 230 255
210 230 255
210 230 255
210 230 255
211 230 255
211 230 255
211 230 255
211 230 255
211 230 255
211 230 255
211 230 255
211 230 255
211 230 255
211 230 255
211 230 255
211 230 255
211 230 255
211 230 255
211 230 255
211 230 255
211 230 255
211 230 255
211 230 255
211 230 255
212 230 255
212 230 255
212 230 255
212 230 255
212 230 255
212 230 255
212 230 255
212 231 255
212 231 255
212 231 255
212 231 255
212 231 255
212 231 255
212 231 255
212 231 255
212 231 255
212 231 255
212 231 255
212 231 255
212 231 255
212 231 255
212 231 255
213 231 255
213 231 255
213 231 255
213 231 255
213 231 255
213 231 255
213 231 255
213 231 255
213 231 255
213 231 255
213 231 255
213 231 255
213 231 255
213 231 255
213 231 255
213 231 255
213 231 255
213 231 255
213 231 255
213 231 255
213 231 255
213 231 255
213 231 255
213 231 255
213 231 255
213 231 255
213 231 255
213 231 255
213 231 255
213 231 255
213 231 255
213 231 255
213 231 255
213 231 255
213 231 255
213 231 255
213 231 255
213 231 255
213 231 255
213 231 255
213 231 255
213 231 255
213 231 255
213 231 255
213 231 255
213 231 255
212 231 255
212 231 255
212 231 255
212 231 255
212 231 255
212 231 255
212 231 255
212 231 255
212 231 255
212 231 255
212 231 255
212 231 255
212 231 255
212 231 255
212 230 255
212 230 255
212 230 255
212 230 255
212 230 255
212 230 255
212 230 255
212 230 255
211 230 255
211 230 255
211 230 255
211 230 255
211 230 255
211 230 255
211 230 255
211 230 255
211 230 255
211 230 255
211 230 255
211 230 255
211 230 255
211 230 255
211 230 255
211 230 255
211 230 255
211 230 255
211 230 255
210 230 255
210 230 255
210 230 255
210 230 255
210 230 255
210 230 255
210 230 255
210 230 255
210 230 255
210 230 255
210 229 255
210 229 255
210 229 255
210 229 255
210 229 255
210 229 255
210 229 255
210 229 255
210 229 255
209 229 255
209 229 255
209 229 255
209 229 255
209 229 255
209 229 255
209 229 255
209 229 255
209 229 255
209 229 255
209 229 255
209 229 255
209 229 255
209 229 255
209 229 255
209 229 255
209 229 255
208 229 255
208 229 255
208 229 255
208 229 255
208 229 255
208 229 255
208 228 255
208 228 255
208 228 255
208 228 255
208 228 255
208 228 255
208 228 255
208 228 255
208 228 255
208 228 255
208 228 255
208 228 255
207 228 255
207 228 255
207 228 255
207 228 255
207 228 255
207 228 255
207 228 255
207 228 255
207 228 255
207 228 255
207 228 255
207 228 255
207 228 255
207 228 255
207 228 255
207 228 255
207 228 255
207 228 255
206 228 255
206 228 255
206 228 255
206 228 255
206 227 255
206 227 255
206 227 255
206 227 255
206 227 255
206 227 255
206 227 255
206 227 255
206 227 255
206 227 255
206 227 255
206 227 255
206 227 255
206 227 255
206 227 255
206 227 255
206 227 255
205 227 255
205 227 255
205 227 255
205 227 255
205 227 255
205 227 255
205 227 255
205 227 255
205 227 255
205 227 255
205 227 255
205 227 255
205 227 255
205 227 255
205 227 255
205 227 255
205 227 255
205 227 255
205 227 255
205 227 255
205 227 255
205 227 255
205 227 255
205 227 255
205 227 255
205 227 255
205 227 255
205 227 255
205 227 255
205 227 255
205 227 255
205 227 255
205 227 255
205 227 255
205 227 255
205 227 255
205 227 255
205 227 255
205 227 255
205 227 255
205 227 255
205 227 255
205 227 255
205 227 255
205 227 255
205 227 255
205 227 255
205 227 255
205 227 255
205 227 255
205 227 255
205 227 255
205 227 255
205 227 255
205 227 255
205 227 255
205 227 255
205 227 255
205 227 255
205 227 255
205 227 255
205 227 255
205 227 255
205 227 255
205 227 255
205 227 255
205 227 255
205 227 255
205 227 255
205 227 255
205 227 255
205 227 255
205 227 255
205 227 255
205 227 255
205 227 255
205 227 255
205 227 255
205 227 255
205 227 255
205 227 255
205 227 255
206 227 255
206 227 255
206 227 255
206 227 255
206 227 255
206 227 255
206 227 255
206 227 255
206 227 255
206 227 255
206 227 255
206 227 255
206 227 255
206 227 255
206 227 255
206 227 255
206 227 255
206 228 255
206 228 255
206 228 255
206 228 255
207 228 255
207 228 255
207 228 255
207 228 255
207 228 255
207 228 255
207 228 255
207 228 255
207 228 255
207 228 255
207 228 255
207 228 255
207 228 255
207 228 255
207 228 255
207 228 255
207 228 255
207 228 255
207 228 255
208 228 255
208 228 255
208 228 255
208 228 255
208 228 255
208 228 255
208 228 255
208 228 255
208 228 255
208 228 255
208 229 255
208 229 255
208 229 255
208 229 255
208 229 255
208 229 255
208 229 255
209 229 255
209 229 255
209 229 255
209 229 255
209 229 255
209 229 255
209 229 255
209 229 255
209 229 255
209 229 255
209 229 255
209 229 255
209 229 255
209 229 255
209 229 255
209 229 255
209 229 255
210 229 255
210 229 255
210 229 255
210 229 255
210 229 255
210 229 255
210 229 255
210 229 255
210 229 255
210 230 255
210 230 255
210 230 255
210 230 255
210 230 255
210 230 255
210 230 255
210 230 255
210 230 255
210 230 255
211 230 255
211 230 255
211 230 255
211 230 255
211 230 255
211 230 255
211 230 255
211 230 255
211 230 255
211 230 255
211 230 255
211 230 255
211 230 255
211 230 255
211 230 255
211 230 255
211 230 255
211 230 255
211 230 255
212 230 255
212 230 255
212 230 255
212 230 255
212 230 255
212 230 255
212 230 255
212 230 255
212 231 255
212 231 255
212 231 255
212 231 255
212 231 255
212 231 255
212 231 255
212 231 255
212 231 255
212 231 255
212 231 255
212 231 255
212 231 255
212 231 255
213 231 255
213 231 255
213 231 255
213 231 255
213 231 255
213 231 255
213 231 255
213 231 255
213 231 255
213 231 255
213 231 255
213 231 255
213 231 255
213 231 255
213 231 255
213 231 255
213 231 255
213 231 255
213 231 255
213 231 255
213 231 255
213 231 255
213 231 255
213 231 255
213 231 255
214 231 255
214 231 255
214 231 255
214 231 255
213 231 255
213 231 255
213 231 255
213 231 255
213 231 255
213 231 255
213 231 255
213 231 255
213 231 255
213 231 255
213 231 255
213 231 255
213 231 255
213 231 255
213 231 255
213 231 255
213 231 255
213 231 255
213 231 255
213 231 255
213 231 255
213 231 255
213 231 255
213 231 255
212 231 255
212 231 255
212 231 255
212 231 255
212 231 255
212 231 255
212 231 255
212 231 255
212 231 255
212 231 255
212 231 255
212 231 255
212 231 255
212 231 255
212 231 255
212 230 255
212 230 255
212 230 255
212 230 255
212 230 255
212 230 255
212 230 255
211 230 255
211 230 255
211 230 255
211 230 255
211 230 255
211 230 255
211 230 255
211 230 255
211 230 255
211 230 255
211 230 255
211 230 255
211 230 255
211 230 255
211 230 255
211 230 255
211 230 255
211 230 255
211 230 255
211 230 255
210 230 255
210 230 255
210 230 255
210 230 255
210 230 255
210 230 255
210 230 255
210 230 255
210 230 255
210 229 255
210 229 255
210 229 255
210 229 255
210 229 255
210 229 255
210 229 255
210 229 255
210 229 255
209 229 255
209 229 255
209 229 255
209 229 255
209 229 255
209 229 255
209 229 255
209 229 255
209 229 255
209 229 255
209 229 255
209 229 255
209 229 255
209 229 255
209 229 255
209 229 255
209 229 255
208 229 255
208 229 255
208 229 255
208 229 255
208 229 255
208 229 255
208 229 255
208 228 255
208 228 255
208 228 255
208 228 255
208 228 255
208 228 255
208 228 255
208 228 255
208 228 255
208 228 255
208 228 255
207 228 255
207 228 255
207 228 255
207 228 255
207 228 255
207 228 255
207 228 255
207 228 255
207 228 255
207 228 255
207 228 255
207 228 255
207 228 255
207 228 255
207 228 255
207 228 255
207 228 255
207 228 255
206 228 255
206 228 255
206 228 255
206 228 255
206 228 255
206 227 255
206 227 255
206 227 255
206 227 255
206 227 255
206 227 255
206 227 255
206 227 255
206 227 255
206 227 255
206 227 255
206 227 255
206 227 255
206 227 255
206 227 255
206 227 255
206 227 255
206 227 255
205 227 255
205 227 255
205 227 255
205 227 255
205 227 255
205 227 255
205 227 255
205 227 255
205 227 255
205 227 255
205 227 255
205 227 255
205 227 255
205 227 255
205 227 255
205 227 255
205 227 255
205 227 255
205 227 255
205 227 255
205 227 255
205 227 255
205 227 255
205 227 255
205 227 255
205 227 255
205 227 255
205 227 255
205 227 255
205 227 255
205 227 255
205 227 255
205 227 255
205 227 255
205 227 255
205 227 255
205 227 255
205 227 255
205 227 255
205 227 255
205 227 255
205 227 255
205 227 255
205 227 255
205 227 255
205 227 255
205 227 255
205 227 255
205 227 255
205 227 255
205 227 255
205 227 255
205 227 255
205 227 255
205 227 255
205 227 255
205 227 255
205 227 255
205 227 255
205 227 255
205 227 255
205 227 255
205 227 255
205 227 255
205 227 255
205 227 255
205 227 255
205 227 255
205 227 255
205 227 255
205 227 255
205 227 255
206 227 255
206 227 255
206 227 255
206 227 255
206 227 255
206 227 255
206 227 255
206 227 255
206 227 255
206 227 255
206 227 255
206 227 255
206 227 255
206 227 255
206 227 255
206 227 255
206 227 255
206 227 255
206 228 255
206 228 255
206 228 255
206 228 255
206 228 255
207 228 255
207 228 255
207 228 255
207 228 255
207 228 255
207 228 255
207 228 255
207 228 255
207 228 255
207 228 255
207 228 255
207 228 255
207 228 255
207 228 255
207 228 255
207 228 255
207 228 255
207 228 255
208 228 255
208 228 255
208 228 255
208 228 255
208 228 255
208 228 255
208 228 255
208 228 255
208 228 255
208 228 255
208 228 255
208 229 255
208 229 255
208 229 255
208 229 255
208 229 255
208 229 255
208 229 255
209 229 255
209 229 255
209 229 255
209 229 255
209 229 255
209 229 255
209 229 255
209 229 255
209 229 255
209 229 255
209 229 255
209 229 255
209 229 255
209 229 255
209 229 255
209 229 255
209 229 255
210 229 255
210 229 255
210 229 255
210 229 255
210 229 255
210 229 255
210 229 255
210 229 255
210 229 255
210 230 255
210 230 255
210 230 255
210 230 255
210 230 255
210 230 255
210 230 255
210 230 255
210 230 255
211 230 255
211 230 255
211 230 255
211 230 255
211 230 255
211 230 255
211 230 255
211 230 255
211 230 255
211 230 255
211 230 255
211 230 255
211 230 255
211 230 255
211 230 255
211 230 255
211 230 255
211 230 255
211 230 255
211 230 255
212 230 255
212 230 255
212 230 255
212 230 255
212 230 255
212 230 255
212 230 255
212 231 255
212 231 255
212 231 255
212 231 255
212 231 255
212 231 255
212 231 255
212 231 255
212 231 255
212 231 255
212 231 255
212 231 255
212 231 255
212 231 255
212 231 255
213 231 255
213 231 255
213 231 255
213 231 255
213 231 255
213 231 255
213 231 255
213 231 255
213 231 255
213 231 255
213 231 255
213 231 255
213 231 255
213 231 255
213 231 255
213 231 255
213 231 255
213 231 255
213 231 255
213 231 255
213 231 255
213 231 255
213 231 255
213 231 255
214 231 255
214 231 255
214 231 255
214 231 255
214 232 255
214 232 255
214 232 255
214 231 255
214 231 255
214 231 255
214 231 255
213 231 255
213 231 255
213 231 255
213 231 255
213 231 255
213 231 255
213 231 255
213 231 255
213 231 255
213 231 255
213 231 255
213 231 255
213 231 255
213 231 255
213 231 255
213 231 255
213 231 255
213 231 255
213 231 255
213 231 255
213 231 255
213 231 255
213 231 255
213 231 255
213 231 255
212 231 255
212 231 255
212 231 255
212 231 255
212 231 255
212 231 255
212 231 255
212 231 255
212 231 255
212 231 255
212 231 255
212 231 255
212 231 255
212 231 255
212 230 255
212 230 255
212 230 255
212 230 255
212 230 255
212 230 255
212 230 255
211 230 255
211 230 255
211 230 255
211 230 255
211 230 255
211 230 255
211 230 255
211 230 255
211 230 255
211 230 255
211 230 255
211 230 255
211 230 255
211 230 255
211 230 255
211 230 255
211 230 255
211 230 255
211 230 255
211 230 255
210 230 255
210 230 255
210 230 255
210 230 255
210 230 255
210 230 255
210 230 255
210 230 255
210 230 255
210 229 255
210 229 255
210 229 255
210 229 255
210 229 255
210 229 255
210 229 255
210 229 255
210 229 255
209 229 255
209 229 255
209 229 255
209 229 255
209 229 255
209 229 255
209 229 255
209 229 255
209 229 255
209 229 255
209 229 255
209 229 255
209 229 255
209 229 255
209 229 255
209 229 255
209 229 255
209 229 255
208 229 255
208 229 255
208 229 255
208 229 255
208 229 255
208 229 255
208 228 255
208 228 255
208 228 255
208 228 255
208 228 255
208 228 255
208 228 255
208 228 255
208 228 255
208 228 255
208 228 255
207 228 255
207 228 255
207 228 255
207 228 255
207 228 255
207 228 255
207 228 255
207 228 255
207 228 255
207 228 255
207 228 255
207 228 255
207 228 255
207 228 255
207 228 255
207 228 255
207 228 255
207 228 255
207 228 255
206 228 255
206 228 255
206 228 255
206 228 255
206 228 255
206 227 255
206 227 255
206 227 255
206 227 255
206 227 255
206 227 255
206 227 255
206 227 255
206 227 255
206 227 255
206 227 255
206 227 255
206 227 255
206 227 255
206 227 255
206 227 255
206 227 255
206 227 255
206 227 255
205 227 255
205 227 255
205 227 255
205 227 255
205 227 255
205 227 255
205 227 255
205 227 255
205 227 255
205 227 255
205 227 255
205 227 255
205 227 255
205 227 255
205 227 255
205 227 255
205 227 255
205 227 255
205 227 255
205 227 255
205 227 255
205 227 255
205 227 255
205 227 255
205 227 255
205 227 255
205 227 255
205 227 255
205 227 255
205 227 255
205 227 255
205 227 255
205 227 255
205 227 255
205 227 255
205 227 255
205 227 255
205 227 255
205 227 255
205 227 255
205 227 255
205 227 255
205 227 255
205 227 255
205 227 255
205 227 255
205 227 255
205 227 255
205 227 255
205 227 255
205 227 255
205 227 255
205 227 255
205 227 255
205 227 255
205 227 255
205 227 255
205 227 255
205 227 255
205 227 255
205 227 255
205 227 255
206 227 255
206 227 255
206 227 255
206 227 255
206 227 255
206 227 255
206 227 255
206 227 255
206 227 255
206 227 255
206 227 255
206 227 255
206 227 255
206 227 255
206 227 255
206 227 255
206 227 255
206 227 255
206 227 255
206 228 255
206 228 255
206 228 255
206 228 255
206 228 255
207 228 255
207 228 255
207 228 255
207 228 255
207 228 255
207 228 255
207 228 255
207 228 255
207 228 255
207 228 255
207 228 255
207 228 255
207 228 255
207 228 255
207 228 255
207 228 255
207 228 255
207 228 255
207 228 255
208 228 255
208 228 255
208 228 255
208 228 255
208 228 255
208 228 255
208 228 255
208 228 255
208 228 255
208 228 255
208 228 255
208 229 255
208 229 255
208 229 255
208 229 255
208 229 255
208 229 255
209 229 255
209 229 255
209 229 255
209 229 255
209 229 255
209 229 255
209 229 255
209 229 255
209 229 255
209 229 255
209 229 255
209 229 255
209 229 255
209 229 255
209 229 255
209 229 255
209 229 255
209 229 255
210 229 255
210 229 255
210 229 255
210 229 255
210 229 255
210 229 255
210 229 255
210 229 255
210 229 255
210 230 255
210 230 255
210 230 255
210 230 255
210 230 255
210 230 255
210 230 255
210 230 255
210 230 255
211 230 255
211 230 255
211 230 255
211 230 255
211 230 255
211 230 255
211 230 255
211 230 255
211 230 255
211 230 255
211 230 255
211 230 255
211 230 255
211 230 255
211 230 255
211 230 255
211 230 255
211 230 255
211 230 255
211 230 255
212 230 255
212 230 255
212 230 255
212 230 255
212 230 255
212 230 255
212 230 255
212 231 255
212 231 255
212 231 255
212 231 255
212 231 255
212 231 255
212 231 255
212 231 255
212 231 255
212 231 255
212 231 255
212 231 255
212 231 255
212 231 255
213 231 255
213 231 255
213 231 255
213 231 255
213 231 255
213 231 255
213 231 255
213 231 255
213 231 255
213 231 255
213 231 255
213 231 255
213 231 255
213 231 255
213 231 255
213 231 255
213 231 255
213 231 255
213 231 255
213 231 255
213 231 255
213 231 255
213 231 255
213 231 255
213 231 255
214 231 255
214 231 255
214 231 255
214 231 255
214 231 255
214 232 255
214 232 255
214 232 255
214 232 255
214 232 255
214 232 255
214 232 255
214 232 255
214 231 255
214 231 255
214 231 255
214 231 255
214 231 255
213 231 255
213 231 255
213 231 255
213 231 255
213 231 255
213 231 255
213 231 255
213 231 255
213 231 255
213 231 255
213 231 255
213 231 255
213 231 255
213 231 255
213 231 255
213 231 255
213 231 255
213 231 255
213 231 255
213 231 255
213 231 255
213 231 255
213 231 255
213 231 255
212 231 255
212 231 255
212 231 255
212 231 255
212 231 255
212 231 255
212 231 255
212 231 255
212 231 255
212 231 255
212 231 255
212 231 255
212 231 255
212 231 255
212 230 255
212 230 255
212 230 255
212 230 255
212 230 255
212 230 255
212 230 255
212 230 255
211 230 255
211 230 255
211 230 255
211 230 255
211 230 255
211 230 255
211 230 255
211 230 255
211 230 255
211 230 255
211 230 255
211 230 255
211 230 255
211 230 255
211 230 255
211 230 255
211 230 255
211 230 255
211 230 255
210 230 255
210 230 255
210 230 255
210 230 255
210 230 255
210 230 255
210 230 255
210 230 255
210 230 255
210 229 255
210 229 255
210 229 255
210 229 255
210 229 255
210 229 255
210 229 255
210 229 255
210 229 255
209 229 255
209 229 255
209 229 255
209 229 255
209 229 255
209 229 255
209 229 255
209 229 255
209 229 255
209 229 255
209 229 255
209 229 255
209 229 255
209 229 255
209 229 255
209 229 255
209 229 255
209 229 255
208 229 255
208 229 255
208 229 255
208 229 255
208 229 255
208 229 255
208 228 255
208 228 255
208 228 255
208 228 255
208 228 255
208 228 255
208 228 255
208 228 255
208 228 255
208 228 255
208 228 255
208 228 255
207 228 255
207 228 255
207 228 255
207 228 255
207 228 255
207 228 255
207 228 255
207 228 255
207 228 255
207 228 255
207 228 255
207 228 255
207 228 255
207 228 255
207 228 255
207 228 255
207 228 255
207 228 255
207 228 255
206 228 255
206 228 255
206 228 255
206 228 255
206 228 255
206 227 255
206 227 255
206 227 255
206 227 255
206 227 255
206 227 255
206 227 255
206 227 255
206 227 255
206 227 255
206 227 255
206 227 255
206 227 255
206 227 255
206 227 255
206 227 255
206 227 255
206 227 255
206 227 255
206 227 255
206 227 255
206 227 255
205 227 255
205 227 255
205 227 255
205 227 255
205 227 255
205 227 255
205 227 255
205 227 255
205 227 255
205 227 255
205 227 255
205 227 255
205 227 255
205 227 255
205 227 255
205 227 255
205 227 255
205 227 255
205 227 255
205 227 255
205 227 255
205 227 255
205 227 255
205 227 255
205 227 255
205 227 255
205 227 255
205 227 255
205 227 255
205 227 255
205 227 255
205 227 255
205 227 255
205 227 255
205 227 255
205 227 255
205 227 255
205 227 255
205 227 255
205 227 255
205 227 255
205 227 255
205 227 255
205 227 255
205 227 255
205 227 255
205 227 255
205 227 255
206 227 255
206 227 255
206 227 255
206 227 255
206 227 255
206 227 255
206 227 255
206 227 255
206 227 255
206 227 255
206 227 255
206 227 255
206 227 255
206 227 255
206 227 255
206 227 255
206 227 255
206 227 255
206 227 255
206 227 255
206 227 255
206 227 255
206 228 255
206 228 255
206 228 255
206 228 255
206 228 255
207 228 255
207 228 255
207 228 255
207 228 255
207 228 255
207 228 255
207 228 255
207 228 255
207 228 255
207 228 255
207 228 255
207 228 255
207 228 255
207 228 255
207 228 255
207 228 255
207 228 255
207 228 255
207 228 255
208 228 255
208 228 255
208 228 255
208 228 255
208 228 255
208 228 255
208 228 255
208 228 255
208 228 255
208 228 255
208 228 255
208 228 255
208 229 255
208 229 255
208 229 255
208 229 255
208 229 255
208 229 255
209 229 255
209 229 255
209 229 255
209 229 255
209 229 255
209 229 255
209 229 255
209 229 255
209 229 255
209 229 255
209 229 255
209 229 255
209 229 255
209 229 255
209 229 255
209 229 255
209 229 255
209 229 255
210 229 255
210 229 255
210 229 255
210 229 255
210 229 255
210 229 255
210 229 255
210 229 255
210 229 255
210 230 255
210 230 255
210 230 255
210 230 255
210 230 255
210 230 255
210 230 255
210 230 255
210 230 255
211 230 255
211 230 255
211 230 255
211 230 255
211 230 255
211 230 255
211 230 255
211 230 255
211 230 255
211 230 255
211 230 255
211 230 255
211 230 255
211 230 255
211 230 255
211 230 255
211 230 255
211 230 255
211 230 255
211 230 255
212 230 255
212 230 255
212 230 255
212 230 255
212 230 255
212 230 255
212 230 255
212 231 255
212 231 255
212 231 255
212 231 255
212 231 255
212 231 255
212 231 255
212 231 255
212 231 255
212 231 255
212 231 255
212 231 255
212 231 255
212 231 255
213 231 255
213 231 255
213 231 255
213 231 255
213 231 255
213 231 255
213 231 255
213 231 255
213 231 255
213 231 255
213 231 255
213 231 255
213 231 255
213 231 255
213 231 255
213 231 255
213 231 255
213 231 255
213 231 255
213 231 255
213 231 255
213 231 255
213 231 255
213 231 255
214 231 255
214 231 255
214 231 255
214 231 255
214 231 255
214 232 255
214 232 255
214 232 255
214 232 255
214 232 255
214 232 255
214 232 255
214 232 255
214 232 255
214 232 255
214 232 255
214 232 255
214 232 255
214 232 255
214 232 255
214 232 255
214 231 255
214 231 255
214 231 255
214 231 255
214 231 255
213 231 255
213 231 255
213 231 255
213 231 255
213 231 255
213 231 255
213 231 255
213 231 255
213 231 255
213 231 255
213 231 255
213 231 255
213 231 255
213 231 255
213 231 255
213 231 255
213 231 255
213 231 255
213 231 255
213 231 255
213 231 255
213 231 255
213 231 255
212 231 255
212 231 255
212 231 255
212 231 255
212 231 255
212 231 255
212 231 255
212 231 255
212 231 255
212 231 255
212 231 255
212 231 255
212 231 255
212 231 255
212 231 255
212 230 255
212 230 255
212 230 255
212 230 255
212 230 255
212 230 255
212 230 255
211 230 255
211 230 255
211 230 255
211 230 255
211 230 255
211 230 255
211 230 255
211 230 255
211 230 255
211 230 255
211 230 255
211 230 255
211 230 255
211 230 255
211 230 255
211 230 255
211 230 255
211 230 255
211 230 255
210 230 255
210 230 255
210 230 255
210 230 255
210 230 255
210 230 255
210 230 255
210 230 255
210 230 255
210 229 255
210 229 255
210 229 255
210 229 255
210 229 255
210 229 255
210 229 255
210 229 255
210 229 255
209 229 255
209 229 255
209 229 255
209 229 255
209 229 255
209 229 255
209 229 255
209 229 255
209 229 255
209 229 255
209 229 255
209 229 255
209 229 255
209 229 255
209 229 255
209 229 255
209 229 255
209 229 255
208 229 255
208 229 255
208 229 255
208 229 255
208 229 255
208 229 255
208 229 255
208 228 255
208 228 255
208 228 255
208 228 255
208 228 255
208 228 255
208 228 255
208 228 255
208 228 255
208 228 255
208 228 255
208 228 255
207 228 255
207 228 255
207 228 255
207 228 255
207 228 255
207 228 255
207 228 255
207 228 255
207 228 255
207 228 255
207 228 255
207 228 255
207 228 255
207 228 255
207 228 255
207 228 255
207 228 255
207 228 255
207 228 255
207 228 255
206 228 255
206 228 255
206 228 255
206 228 255
206 228 255
206 227 255
206 227 255
206 227 255
206 227 255
206 227 255
206 227 255
206 227 255
206 227 255
206 227 255
206 227 255
206 227 255
206 227 255
206 227 255
206 227 255
206 227 255
206 227 255
206 227 255
206 227 255
206 227 255
206 227 255
206 227 255
206 227 255
206 227 255
206 227 255
206 227 255
206 227 255
206 227 255
206 227 255
205 227 255
205 227 255
205 227 255
205 227 255
205 227 255
205 227 255
205 227 255
205 227 255
205 227 255
205 227 255
205 227 255
205 227 255
205 227 255
205 227 255
205 227 255
205 227 255
205 227 255
205 227 255
205 227 255
205 227 255
205 227 255
205 227 255
205 227 255
205 227 255
205 227 255
205 227 255
205 227 255
206 227 255
206 227 255
206 227 255
206 227 255
206 227 255
206 227 255
206 227 255
206 227 255
206 227 255
206 227 255
206 227 255
206 227 255
206 227 255
206 227 255
206 227 255
206 227 255
206 227 255
206 227 255
206 227 255
206 227 255
206 227 255
206 227 255
206 227 255
206 227 255
206 227 255
206 227 255
206 228 255
206 228 255
206 228 255
206 228 255
206 228 255
206 228 255
207 228 255
207 228 255
207 228 255
207 228 255
207 228 255
207 228 255
207 228 255
207 228 255
207 228 255
207 228 255
207 228 255
207 228 255
207 228 255
207 228 255
207 228 255
207 228 255
207 228 255
207 228 255
207 228 255
207 228 255
208 228 255
208 228 255
208 228 255
208 228 255
208 228 255
208 228 255
208 228 255
208 228 255
208 228 255
208 228 255
208 228 255
208 228 255
208 229 255
208 229 255
208 229 255
208 229 255
208 229 255
208 229 255
208 229 255
209 229 255
209 229 255
209 229 255
209 229 255
209 229 255
209 229 255
209 229 255
209 229 255
209 229 255
209 229 255
209 229 255
209 229 255
209 229 255
209 229 255
209 229 255
209 229 255
209 229 255
210 229 255
210 229 255
210 229 255
210 229 255
210 229 255
210 229 255
210 229 255
210 229 255
210 229 255
210 229 255
210 230 255
210 230 255
210 230 255
210 230 255
210 230 255
210 230 255
210 230 255
210 230 255
210 230 255
211 230 255
211 230 255
211 230 255
211 230 255
211 230 255
211 230 255
211 230 255
211 230 255
211 230 255
211 230 255
211 230 255
211 230 255
211 230 255
211 230 255
211 230 255
211 230 255
211 230 255
211 230 255
211 230 255
212 230 255
212 230 255
212 230 255
212 230 255
212 230 255
212 230 255
212 230 255
212 231 255
212 231 255
212 231 255
212 231 255
212 231 255
212 231 255
212 231 255
212 231 255
212 231 255
212 231 255
212 231 255
212 231 255
212 231 255
212 231 255
212 231 255
213 231 255
213 231 255
213 231 255
213 231 255
213 231 255
213 231 255
213 231 255
213 231 255
213 231 255
213 231 255
213 231 255
213 231 255
213 231 255
213 231 255
213 231 255
213 231 255
213 231 255
213 231 255
213 231 255
213 231 255
213 231 255
213 231 255
213 231 255
214 231 255
214 231 255
214 231 255
214 231 255
214 231 255
214 232 255
214 232 255
214 232 255
214 232 255
214 232 255
214 232 255
214 232 255
214 232 255
214 232 255
214 232 255
214 232 255
214 232 255
214 232 255
214 232 255
214 232 255
214 232 255
214 232 255
214 232 255
214 232 255
214 232 255
214 232 255
214 232 255
214 232 255
214 232 255
214 231 255
214 231 255
214 231 255
214 231 255
214 231 255
213 231 255
213 231 255
213 231 255
213 231 255
213 231 255
213 231 255
213 231 255
213 231 255
213 231 255
213 231 255
213 231 255
213 231 255
213 231 255
213 231 255
213 231 255
213 231 255
213 231 255
213 231 255
213 231 255
213 231 255
213 231 255
213 231 255
213 231 255
212 231 255
212 231 255
212 231 255
212 231 255
212 231 255
212 231 255
212 231 255
212 231 255
212 231 255
212 231 255
212 231 255
212 231 255
212 231 255
212 231 255
212 230 255
212 230 255
212 230 255
212 230 255
212 230 255
212 230 255
212 230 255
211 230 255
211 230 255
211 230 255
211 230 255
211 230 255
211 230 255
211 230 255
211 230 255
211 230 255
211 230 255
211 230 255
211 230 255
211 230 255
211 230 255
211 230 255
211 230 255
211 230 255
211 230 255
211 230 255
210 230 255
210 230 255
210 230 255
210 230 255
210 230 255
210 230 255
210 230 255
210 230 255
210 230 255
210 230 255
210 229 255
210 229 255
210 229 255
210 229 255
210 229 255
210 229 255
210 229 255
210 229 255
210 229 255
209 229 255
209 229 255
209 229 255
209 229 255
209 229 255
209 229 255
209 229 255
209 229 255
209 229 255
209 229 255
209 229 255
209 229 255
209 229 255
209 229 255
209 229 255
209 229 255
209 229 255
209 229 255
208 229 255
208 229 255
208 229 255
208 229 255
208 229 255
208 229 255
208 228 255
208 228 255
208 228 255
208 228 255
208 228 255
208 228 255
208 228 255
208 228 255
208 228 255
208 228 255
208 228 255
208 228 255
207 228 255
207 228 255
207 228 255
207 228 255
207 228 255
207 228 255
207 228 255
207 228 255
207 228 255
207 228 255
207 228 255
207 228 255
207 228 255
207 228 255
207 228 255
207 228 255
207 228 255
207 228 255
207 228 255
207 228 255
207 228 255
207 228 255
206 228 255
206 228 255
206 228 255
206 228 255
206 228 255
206 228 255
206 227 255
206 227 255
206 227 255
206 227 255
206 227 255
206 227 255
206 227 255
206 227 255
206 227 255
206 227 255
206 227 255
206 227 255
206 227 255
206 227 255
206 227 255
206 227 255
206 227 255
206 227 255
206 227 255
206 227 255
206 227 255
206 227 255
206 227 255
206 227 255
206 227 255
206 227 255
206 227 255
206 227 255
206 227 255
206 227 255
206 227 255
206 227 255
206 227 255
206 227 255
206 227 255
206 227 255
206 227 255
206 227 255
206 227 255
206 227 255
206 227 255
206 227 255
206 227 255
206 227 255
206 227 255
206 227 255
206 227 255
206 227 255
206 227 255
206 227 255
206 227 255
206 227 255
206 227 255
206 227 255
206 227 255
206 227 255
206 227 255
206 227 255
206 227 255
206 227 255
206 227 255
206 227 255
206 227 255
206 227 255
206 227 255
206 227 255
206 227 255
206 227 255
206 227 255
206 227 255
206 227 255
206 228 255
206 228 255
206 228 255
206 228 255
206 228 255
207 228 255
207 228 255
207 228 255
207 228 255
207 228 255
207 228 255
207 228 255
207 228 255
207 228 255
207 228 255
207 228 255
207 228 255
207 228 255
207 228 255
207 228 255
207 228 255
207 228 255
207 228 255
207 228 255
207 228 255
207 228 255
207 228 255
208 228 255
208 228 255
208 228 255
208 228 255
208 228 255
208 228 255
208 228 255
208 228 255
208 228 255
208 228 255
208 228 255
208 228 255
208 229 255
208 229 255
208 229 255
208 229 255
208 229 255
208 229 255
209 229 255
209 229 255
209 229 255
209 229 255
209 229 255
209 229 255
209 229 255
209 229 255
209 229 255
209 229 255
209 229 255
209 229 255
209 229 255
209 229 255
209 229 255
209 229 255
209 229 255
209 229 255
210 229 255
210 229 255
210 229 255
210 229 255
210 229 255
210 229 255
210 229 255
210 229 255
210 229 255
210 230 255
210 230 255
210 230 255
210 230 255
210 230 255
210 230 255
210 230 255
210 230 255
210 230 255
211 230 255
211 230 255
211 230 255
211 230 255
211 230 255
211 230 255
211 230 255
211 230 255
211 230 255
211 230 255
211 230 255
211 230 255
211 230 255
211 230 255
211 230 255
211 230 255
211 230 255
211 230 255
211 230 255
211 230 255
212 230 255
212 230 255
212 230 255
212 230 255
212 230 255
212 230 255
212 230 255
212 231 255
212 231 255
212 231 255
212 231 255
212 231 255
212 231 255
212 231 255
212 231 255
212 231 255
212 231 255
212 231 255
212 231 255
212 231 255
212 231 255
213 231 255
213 231 255
213 231 255
213 231 255
213 231 255
213 231 255
213 231 255
213 231 255
213 231 255
213 231 255
213 231 255
213 231 255
213 231 255
213 231 255
213 231 255
213 231 255
213 231 255
213 231 255
213 231 255
213 231 255
213 231 255
213 231 255
213 231 255
213 231 255
214 231 255
214 231 255
214 231 255
214 231 255
214 232 255
214 232 255
214 232 255
214 232 255
214 232 255
214 232 255
214 232 255
214 232 255
214 232 255
214 232 255
214 232 255
214 232 255
214 232 255
214 232 255
214 232 255
214 232 255
214 232 255
214 232 255
214 232 255
214 232 255
214 232 255
214 232 255
214 232 255
214 232 255
214 232 255
214 232 255
214 232 255
214 232 255
214 232 255
214 232 255
214 232 255
214 231 255
214 231 255
214 231 255
214 231 255
214 231 255
213 231 255
213 231 255
213 231 255
213 231 255
213 231 255
213 231 255
213 231 255
213 231 255
213 231 255
213 231 255
213 231 255
213 231 255
213 231 255
213 231 255
213 231 255
213 231 255
213 231 255
213 231 255
213 231 255
213 231 255
213 231 255
213 231 255
213 231 255
212 231 255
212 231 255
212 231 255
212 231 255
212 231 255
212 231 255
212 231 255
212 231 255
212 231 255
212 231 255
212 231 255
212 231 255
212 231 255
212 231 255
212 230 255
212 230 255
212 230 255
212 230 255
212 230 255
212 230 255
212 230 255
212 230 255
211 230 255
211 230 255
211 230 255
211 230 255
211 230 255
211 230 255
211 230 255
211 230 255
211 230 255
211 230 255
211 230 255
211 230 255
211 230 255
211 230 255
211 230 255
211 230 255
211 230 255
211 230 255
211 230 255
210 230 255
210 230 255
210 230 255
210 230 255
210 230 255
210 230 255
210 230 255
210 230 255
210 230 255
210 229 255
210 229 255
210 229 255
210 229 255
210 229 255
210 229 255
210 229 255
210 229 255
210 229 255
209 229 255
209 229 255
209 229 255
209 229 255
209 229 255
209 229 255
209 229 255
209 229 255
209 229 255
209 229 255
209 229 255
209 229 255
209 229 255
209 229 255
209 229 255
209 229 255
209 229 255
209 229 255
208 229 255
208 229 255
208 229 255
208 229 255
208 229 255
208 229 255
208 229 255
208 228 255
208 228 255
208 228 255
208 228 255
208 228 255
208 228 255
208 228 255
208 228 255
208 228 255
208 228 255
208 228 255
208 228 255
207 228 255
207 228 255
207 228 255
207 228 255
207 228 255
207 228 255
207 228 255
207 228 255
207 228 255
207 228 255
207 228 255
207 228 255
207 228 255
207 228 255
207 228 255
207 228 255
207 228 255
207 228 255
207 228 255
207 228 255
207 228 255
207 228 255
207 228 255
206 228 255
206 228 255
206 228 255
206 228 255
206 228 255
206 228 255
206 228 255
206 227 255
206 227 255
206 227 255
206 227 255
206 227 255
206 227 255
206 227 255
206 227 255
206 227 255
206 227 255
206 227 255
206 227 255
206 227 255
206 227 255
206 227 255
206 227 255
206 227 255
206 227 255
206 227 255
206 227 255
206 227 255
206 227 255
206 227 255
206 227 255
206 227 255
206 227 255
206 227 255
206 227 255
206 227 255
206 227 255
206 227 255
206 227 255
206 227 255
206 227 255
206 227 255
206 227 255
206 227 255
206 227 255
206 227 255
206 227 255
206 227 255
206 227 255
206 227 255
206 227 255
206 227 255
206 227 255
206 227 255
206 227 255
206 227 255
206 227 255
206 227 255
206 227 255
206 227 255
206 227 255
206 227 255
206 227 255
206 227 255
206 227 255
206 228 255
206 228 255
206 228 255
206 228 255
206 228 255
206 228 255
206 228 255
207 228 255
207 228 255
207 228 255
207 228 255
207 228 255
207 228 255
207 228 255
207 228 255
207 228 255
207 228 255
207 228 255
207 228 255
207 228 255
207 228 255
207 228 255
207 228 255
207 228 255
207 228 255
207 228 255
207 228 255
207 228 255
207 228 255
207 228 255
208 228 255
208 228 255
208 228 255
208 228 255
208 228 255
208 228 255
208 228 255
208 228 255
208 228 255
208 228 255
208 228 255
208 228 255
208 229 255
208 229 255
208 229 255
208 229 255
208 229 255
208 229 255
208 229 255
209 229 255
209 229 255
209 229 255
209 229 255
209 229 255
209 229 255
209 229 255
209 229 255
209 229 255
209 229 255
209 229 255
209 229 255
209 229 255
209 229 255
209 229 255
209 229 255
209 229 255
209 229 255
210 229 255
210 229 255
210 229 255
210 229 255
210 229 255
210 229 255
210 229 255
210 229 255
210 229 255
210 230 255
210 230 255
210 230 255
210 230 255
210 230 255
210 230 255
210 230 255
210 230 255
210 230 255
211 230 255
211 230 255
211 230 255
211 230 255
211 230 255
211 230 255
211 230 255
211 230 255
211 230 255
211 230 255
211 230 255
211 230 255
211 230 255
211 230 255
211 230 255
211 230 255
211 230 255
211 230 255
211 230 255
212 230 255
212 230 255
212 230 255
212 230 255
212 230 255
212 230 255
212 230 255
212 230 255
212 231 255
212 231 255
212 231 255
212 231 255
212 231 255
212 231 255
212 231 255
212 231 255
212 231 255
212 231 255
212 231 255
212 231 255
212 231 255
213 231 255
213 231 255
213 231 255
213 231 255
213 231 255
213 231 255
213 231 255
213 231 255
213 231 255
213 231 255
213 231 255
213 231 255
213 231 255
213 231 255
213 231 255
213 231 255
213 231 255
213 231 255
213 231 255
213 231 255
213 231 255
213 231 255
213 231 255
213 231 255
214 231 255
214 231 255
214 231 255
214 231 255
214 231 255
214 232 255
214 232 255
214 232 255
214 232 255
214 232 255
214 232 255
214 232 255
214 232 255
214 232 255
214 232 255
214 232 255
214 232 255
214 232 255
214 232 255
214 232 255
214 232 255
214 232 255
214 232 255
214 232 255
214 232 255
214 232 255
214 232 255
214 232 255
214 232 255
214 232 255
214 232 255
214 232 255
214 232 255
214 232 255
214 232 255
214 232 255
214 232 255
214 232 255
214 232 255
214 232 255
214 232 255
214 232 255
214 232 255
214 231 255
214 231 255
214 231 255
214 231 255
214 231 255
213 231 255
213 231 255
213 231 255
213 231 255
213 231 255
213 231 255
213 231 255
213 231 255
213 231 255
213 231 255
213 231 255
213 231 255
213 231 255
213 231 255
213 231 255
213 231 255
213 231 255
213 231 255
213 231 255
213 231 255
213 231 255
213 231 255
213 231 255
212 231 255
212 231 255
212 231 255
212 231 255
212 231 255
212 231 255
212 231 255
212 231 255
212 231 255
212 231 255
212 231 255
212 231 255
212 231 255
212 231 255
212 230 255
212 230 255
212 230 255
212 230 255
212 230 255
212 230 255
212 230 255
211 230 255
211 230 255
211 230 255
211 230 255
211 230 255
211 230 255
211 230 255
211 230 255
211 230 255
211 230 255
211 230 255
211 230 255
211 230 255
211 230 255
211 230 255
211 230 255
211 230 255
211 230 255
211 230 255
210 230 255
210 230 255
210 230 255
210 230 255
210 230 255
210 230 255
210 230 255
210 230 255
210 230 255
210 230 255
210 229 255
210 229 255
210 229 255
210 229 255
210 229 255
210 229 255
210 229 255
210 229 255
210 229 255
209 229 255
209 229 255
209 229 255
209 229 255
209 229 255
209 229 255
209 229 255
209 229 255
209 229 255
209 229 255
209 229 255
209 229 255
209 229 255
209 229 255
209 229 255
209 229 255
209 229 255
209 229 255
208 229 255
208 229 255
208 229 255
208 229 255
208 229 255
208 229 255
208 229 255
208 228 255
208 228 255
208 228 255
208 228 255
208 228 255
208 228 255
208 228 255
208 228 255
208 228 255
208 228 255
208 228 255
208 228 255
208 228 255
207 228 255
207 228 255
207 228 255
207 228 255
207 228 255
207 228 255
207 228 255
207 228 255
207 228 255
207 228 255
207 228 255
207 228 255
207 228 255
207 228 255
207 228 255
207 228 255
207 228 255
207 228 255
207 228 255
207 228 255
207 228 255
207 228 255
207 228 255
207 228 255
207 228 255
206 228 255
206 228 255
206 228 255
206 228 255
206 228 255
206 228 255
206 228 255
206 228 255
206 227 255
206 227 255
206 227 255
206 227 255
206 227 255
206 227 255
206 227 255
206 227 255
206 227 255
206 227 255
206 227 255
206 227 255
206 227 255
206 227 255
206 227 255
206 227 255
206 227 255
206 227 255
206 227 255
206 227 255
206 227 255
206 227 255
206 227 255
206 227 255
206 227 255
206 227 255
206 227 255
206 227 255
206 227 255
206 227 255
206 227 255
206 227 255
206 227 255
206 227 255
206 227 255
206 227 255
206 227 255
206 227 255
206 227 255
206 227 255
206 227 255
206 227 255
206 228 255
206 228 255
206 228 255
206 228 255
206 228 255
206 228 255
206 228 255
206 228 255
206 228 255
207 228 255
207 228 255
207 228 255
207 228 255
207 228 255
207 228 255
207 228 255
207 228 255
207 228 255
207 228 255
207 228 255
207 228 255
207 228 255
207 228 255
207 228 255
207 228 255
207 228 255
207 228 255
207 228 255
207 228 255
207 228 255
207 228 255
207 228 255
207 228 255
207 228 255
208 228 255
208 228 255
208 228 255
208 228 255
208 228 255
208 228 255
208 228 255
208 228 255
208 228 255
208 228 255
208 228 255
208 228 255
208 229 255
208 229 255
208 229 255
208 229 255
208 229 255
208 229 255
208 229 255
209 229 255
209 229 255
209 229 255
209 229 255
209 229 255
209 229 255
209 229 255
209 229 255
209 229 255
209 229 255
209 229 255
209 229 255
209 229 255
209 229 255
209 229 255
209 229 255
209 229 255
209 229 255
210 229 255
210 229 255
210 229 255
210 229 255
210 229 255
210 229 255
210 229 255
210 229 255
210 229 255
210 230 255
210 230 255
210 230 255
210 230 255
210 230 255
210 230 255
210 230 255
210 230 255
210 230 255
210 230 255
211 230 255
211 230 255
211 230 255
211 230 255
211 230 255
211 230 255
211 230 255
211 230 255
211 230 255
211 230 255
211 230 255
211 230 255
211 230 255
211 230 255
211 230 255
211 230 255
211 230 255
211 230 255
211 230 255
212 230 255
212 230 255
212 230 255
212 230 255
212 230 255
212 230 255
212 230 255
212 231 255
212 231 255
212 231 255
212 231 255
212 231 255
212 231 255
212 231 255
212 231 255
212 231 255
212 231 255
212 231 255
212 231 255
212 231 255
212 231 255
213 231 255
213 231 255
213 231 255
213 231 255
213 231 255
213 231 255
213 231 255
213 231 255
213 231 255
213 231 255
213 231 255
213 231 255
213 231 255
213 231 255
213 231 255
213 231 255
213 231 255
213 231 255
213 231 255
213 231 255
213 231 255
213 231 255
213 231 255
214 231 255
214 231 255
214 231 255
214 231 255
214 231 255
214 232 255
214 232 255
214 232 255
214 232 255
214 232 255
214 232 255
214 232 255
214 232 255
214 232 255
214 232 255
214 232 255
214 232 255
214 232 255
214 232 255
214 232 255
214 232 255
214 232 255
214 232 255
214 232 255
214 232 255
214 232 255
215 232 255
215 232 255
215 232 255
214 232 255
214 232 255
214 232 255
214 232 255
214 232 255
214 232 255
214 232 255
214 232 255
214 232 255
214 232 255
214 232 255
214 232 255
214 232 255
214 232 255
214 232 255
214 232 255
214 232 255
214 232 255
214 232 255
214 232 255
214 232 255
214 232 255
214 231 255
214 231 255
214 231 255
214 231 255
214 231 255
213 231 255
213 231 255
213 231 255
213 231 255
213 231 255
213 231 255
213 231 255
213 231 255
213 231 255
213 231 255
213 231 255
213 231 255
213 231 255
213 231 255
212 231 254
213 231 255
213 231 255
212 231 254
212 231 255
212 231 255
212 231 255
213 231 255
213 231 255
213 231 255
213 231 255
212 231 254
213 231 255
212 231 254
213 231 255
212 230 254
212 231 255
212 231 255
212 231 255
212 231 255
212 231 255
212 231 255
212 230 255
212 230 255
212 230 255
212 230 255
212 230 255
212 230 255
212 230 255
211 230 255
211 230 255
211 230 255
211 230 255
211 230 255
211 230 255
211 230 255
211 230 255
211 230 255
211 230 255
211 230 255
211 230 255
211 230 255
211 230 255
211 230 255
211 230 255
211 230 255
211 230 255
211 230 255
211 230 255
210 230 255
210 230 255
210 230 255
210 230 255
210 230 255
210 230 255
210 230 255
210 230 255
210 230 255
210 229 255
210 229 255
210 229 255
210 229 255
210 229 255
210 229 255
210 229 255
210 229 255
210 229 255
209 229 255
209 229 255
209 229 255
209 229 255
209 229 255
209 229 255
209 229 255
209 229 255
209 229 255
209 229 255
209 229 255
209 229 255
209 229 255
209 229 255
209 229 255
209 229 255
209 229 255
209 229 255
208 229 255
208 229 255
208 229 255
208 229 255
208 229 255
208 229 255
208 229 255
208 229 255
208 228 255
208 228 255
208 228 255
208 228 255
208 228 255
208 228 255
208 228 255
208 228 255
208 228 255
208 228 255
208 228 255
208 228 255
208 228 255
207 228 255
207 228 255
207 228 255
207 228 255
207 228 255
207 228 255
207 228 255
207 228 255
207 228 255
207 228 255
207 228 255
207 228 255
207 228 255
207 228 255
207 228 255
207 228 255
207 228 255
207 228 255
207 228 255
207 228 255
207 228 255
207 228 255
207 228 255
207 228 255
207 228 255
207 228 255
207 228 255
207 228 255
207 228 255
206 228 255
206 228 255
206 228 255
206 228 255
206 228 255
206 228 255
206 228 255
206 228 255
206 228 255
206 228 255
206 228 255
206 228 255
206 228 255
206 228 255
206 228 255
206 227 255
206 227 255
206 227 255
206 227 255
206 227 255
206 227 255
206 227 255
206 227 255
206 227 255
206 227 255
206 227 255
206 227 255
206 227 255
206 228 255
206 228 255
206 228 255
206 228 255
206 228 255
206 228 255
206 228 255
206 228 255
206 228 255
206 228 255
206 228 255
206 228 255
206 228 255
206 228 255
207 228 255
207 228 255
207 228 255
207 228 255
207 228 255
207 228 255
207 228 255
207 228 255
207 228 255
207 228 255
207 228 255
207 228 255
207 228 255
207 228 255
207 228 255
207 228 255
207 228 255
207 228 255
207 228 255
207 228 255
207 228 255
207 228 255
207 228 255
207 228 255
207 228 255
207 228 255
207 228 255
207 228 255
207 228 255
208 228 255
208 228 255
208 228 255
208 228 255
208 228 255
208 228 255
208 228 255
208 228 255
208 228 255
208 228 255
208 228 255
208 228 255
208 228 255
208 228 255
208 229 255
208 229 255
208 229 255
208 229 255
208 229 255
208 229 255
209 229 255
209 229 255
209 229 255
209 229 255
209 229 255
209 229 255
209 229 255
209 229 255
209 229 255
209 229 255
209 229 255
209 229 255
209 229 255
209 229 255
209 229 255
209 229 255
209 229 255
209 229 255
209 229 255
210 229 255
210 229 255
210 229 255
210 229 255
210 229 255
210 229 255
210 229 255
210 229 255
210 229 255
210 230 255
210 230 255
210 230 255
210 230 255
210 230 255
210 230 255
210 230 255
210 230 255
210 230 255
211 230 255
211 230 255
211 230 255
211 230 255
211 230 255
211 230 255
211 230 255
211 230 255
211 230 255
211 230 255
211 230 255
211 230 255
211 230 255
211 230 255
211 230 255
211 230 255
211 230 255
211 230 255
211 230 255
212 230 255
212 230 255
212 230 255
212 230 255
212 230 255
212 230 255
212 230 255
212 230 255
212 231 255
212 231 255
212 231 255
212 231 255
211 230 254
207 224 246
203 220 240
205 222 245
194 210 228
194 209 224
187 200 212
187 199 209
185 198 207
178 189 193
181 192 201
172 183 191
183 194 200
193 207 221
183 194 201
181 194 204
187 200 211
193 205 214
193 206 220
199 213 228
201 217 234
202 218 239
207 223 244
212 230 253
213 231 255
213 231 255
213 231 255
213 231 255
213 231 255
213 231 255
213 231 255
213 231 255
213 231 255
214 231 255
214 231 255
214 231 255
214 231 255
214 232 255
214 232 255
214 232 255
214 232 255
214 232 255
214 232 255
214 232 255
214 232 255
214 232 255
214 232 255
214 232 255
214 232 255
214 232 255
214 232 255
214 232 255
214 232 255
214 232 255
214 232 255
214 232 255
214 232 255
214 232 255
214 232 255
215 232 255
215 232 255
215 232 255
215 232 255
215 232 255
215 232 255
215 232 255
215 232 255
215 232 255
215 232 255
214 232 255
214 232 255
214 232 255
214 232 255
214 232 255
214 232 255
214 232 255
214 232 255
214 232 255
214 232 255
214 232 255
214 232 255
214 232 255
214 232 255
214 232 255
214 232 255
214 232 255
214 232 255
214 232 255
214 232 255
214 232 255
214 232 255
214 232 255
214 231 255
214 232 254
213 231 254
213 231 253
214 231 253
213 231 254
213 231 253
214 232 255
212 230 252
212 230 254
212 230 254
212 230 253
211 230 252
211 230 253
210 229 252
211 230 253
212 230 253
212 230 255
212 230 250
211 229 252
210 229 251
212 231 252
212 230 253
211 230 254
212 231 254
211 230 254
212 231 255
212 230 254
210 229 253
210 229 251
211 230 254
212 230 254
212 231 255
213 231 253
212 230 254
211 230 255
212 231 255
211 230 254
213 231 255
212 230 255
212 230 255
212 230 255
212 230 255
212 230 255
212 230 255
212 230 255
212 230 255
211 230 255
211 230 255
211 230 255
211 230 255
211 230 255
211 230 255
211 230 255
211 230 255
211 230 255
211 230 255
211 230 255
211 230 255
211 230 255
211 230 255
211 230 255
211 230 255
211 230 255
211 230 255
211 230 255
210 230 255
210 230 255
210 230 255
210 230 255
210 230 255
210 230 255
210 230 255
210 230 255
210 230 255
210 230 255
210 229 255
210 229 255
210 229 255
210 229 255
210 229 255
210 229 255
210 229 255
210 229 255
210 229 255
209 229 255
209 229 255
209 229 255
209 229 255
209 229 255
209 229 255
209 229 255
209 229 255
209 229 255
209 229 255
209 229 255
209 229 255
209 229 255
209 229 255
209 229 255
209 229 255
209 229 255
209 229 255
209 229 255
208 229 255
208 229 255
208 229 255
208 229 255
208 229 255
208 229 255
208 229 255
208 228 255
208 228 255
208 228 255
208 228 255
208 228 255
208 228 255
208 228 255
208 228 255
208 228 255
208 228 255
208 228 255
208 228 255
208 228 255
208 228 255
207 228 255
207 228 255
207 228 255
207 228 255
207 228 255
207 228 255
207 228 255
207 228 255
207 228 255
207 228 255
207 228 255
207 228 255
207 228 255
207 228 255
207 228 255
207 228 255
207 228 255
207 228 255
207 228 255
207 228 255
207 228 255
207 228 255
207 228 255
207 228 255
207 228 255
207 228 255
207 228 255
207 228 255
207 228 255
207 228 255
207 228 255
207 228 255
207 228 255
207 228 255
207 228 255
207 228 255
206 228 255
206 228 255
206 228 255
206 228 255
206 228 255
206 228 255
206 228 255
206 228 255
206 228 255
206 228 255
206 228 255
206 228 255
206 228 255
206 228 255
206 228 255
206 228 255
206 228 255
207 228 255
207 228 255
207 228 255
207 228 255
207 228 255
207 228 255
207 228 255
207 228 255
207 228 255
207 228 255
207 228 255
207 228 255
207 228 255
207 228 255
207 228 255
207 228 255
207 228 255
207 228 255
207 228 255
207 228 255
207 228 255
207 228 255
207 228 255
207 228 255
207 228 255
207 228 255
207 228 255
207 228 255
207 228 255
207 228 255
207 228 255
207 228 255
207 228 255
207 228 255
207 228 255
207 228 255
207 228 255
208 228 255
208 228 255
208 228 255
208 228 255
208 228 255
208 228 255
208 228 255
208 228 255
208 228 255
208 228 255
208 228 255
208 228 255
208 228 255
208 228 255
208 229 255
208 229 255
208 229 255
208 229 255
208 229 255
208 229 255
208 229 255
209 229 255
209 229 255
209 229 255
209 229 255
209 229 255
209 229 255
209 229 255
209 229 255
209 229 255
209 229 255
209 229 255
209 229 255
209 229 255
209 229 255
209 229 255
209 229 255
209 229 255
209 229 255
209 229 255
210 229 255
210 229 255
210 229 255
210 229 255
210 229 255
210 229 255
210 229 255
210 229 255
210 229 255
210 229 255
210 230 255
210 230 255
210 230 255
210 230 255
210 230 255
210 230 255
210 230 255
210 230 255
210 230 255
211 230 255
211 230 255
211 230 255
211 230 255
211 230 255
211 230 255
211 230 255
211 230 255
211 230 255
211 230 255
211 230 255
211 230 255
211 230 255
211 230 255
211 230 255
211 230 255
211 230 255
211 230 255
211 230 255
212 230 255
212 230 255
212 230 255
212 230 255
212 230 255
212 230 255
209 227 251
197 212 229
194 207 220
183 195 203
173 182 181
174 182 181
151 154 134
153 155 136
136 135 104
121 118 81
134 132 91
148 146 100
144 141 97
138 136 94
150 147 99
145 142 98
144 141 96
132 129 88
137 135 92
133 130 88
136 134 92
140 136 92
133 130 89
135 132 89
149 145 99
129 126 87
137 134 90
139 136 92
135 132 89
144 141 95
135 132 89
141 137 92
140 137 94
146 145 113
153 157 142
161 166 151
163 170 165
185 195 197
187 199 208
192 204 216
205 221 240
212 229 251
214 232 255
214 232 255
214 232 255
214 232 255
214 232 255
214 232 255
214 232 255
214 232 255
214 232 255
214 232 255
214 232 255
214 232 255
214 232 255
214 232 255
214 232 255
214 232 255
214 232 255
214 232 255
214 232 255
214 232 255
214 232 255
214 232 255
215 232 255
215 232 255
215 232 255
215 232 255
215 232 255
215 232 255
215 232 255
215 232 255
215 232 255
215 232 255
215 232 255
215 232 255
215 232 255
215 232 255
215 232 255
215 232 255
215 232 255
215 232 255
214 232 255
214 232 255
214 232 255
214 232 255
214 232 255
214 232 255
214 232 255
214 232 255
214 232 255
214 232 255
214 232 255
214 232 255
214 232 255
214 232 255
214 232 255
213 231 253
215 232 255
214 231 254
212 230 254
213 230 253
213 231 252
213 231 254
213 231 255
211 230 253
212 231 253
211 230 251
211 230 253
211 230 254
210 229 248
210 229 251
209 229 253
211 229 252
210 229 250
210 229 251
212 230 255
211 230 253
211 230 252
210 230 254
209 228 250
210 229 252
209 229 254
209 229 253
209 228 251
210 230 255
209 228 252
209 229 252
210 229 253
210 229 254
209 229 251
208 228 253
210 229 253
210 230 254
209 229 250
211 230 255
210 229 253
211 230 253
209 228 251
211 229 253
210 229 253
210 230 254
212 230 255
213 231 255
211 230 254
212 230 255
211 230 255
211 230 255
212 230 255
212 230 255
212 230 255
211 230 255
211 230 255
211 230 255
211 230 255
211 230 255
211 230 255
211 230 255
211 230 255
211 230 255
211 230 255
211 230 255
211 230 255
211 230 255
211 230 255
211 230 255
211 230 255
211 230 255
211 230 255
211 230 255
211 230 255
210 230 255
210 230 255
210 230 255
210 230 255
210 230 255
210 230 255
210 230 255
210 230 255
210 230 255
210 229 255
210 229 255
210 229 255
210 229 255
210 229 255
210 229 255
210 229 255
210 229 255
210 229 255
209 229 255
209 229 255
209 229 255
209 229 255
209 229 255
209 229 255
209 229 255
209 229 255
209 229 255
209 229 255
209 229 255
209 229 255
209 229 255
209 229 255
209 229 255
209 229 255
209 229 255
209 229 255
209 229 255
209 229 255
208 229 255
208 229 255
208 229 255
208 229 255
208 229 255
208 229 255
208 229 255
208 228 255
208 228 255
208 228 255
208 228 255
208 228 255
208 228 255
208 228 255
208 228 255
208 228 255
208 228 255
208 228 255
208 228 255
208 228 255
208 228 255
208 228 255
207 228 255
207 228 255
207 228 255
207 228 255
207 228 255
207 228 255
207 228 255
207 228 255
207 228 255
207 228 255
207 228 255
207 228 255
207 228 255
207 228 255
207 228 255
207 228 255
207 228 255
207 228 255
207 228 255
207 228 255
207 228 255
207 228 255
207 228 255
207 228 255
207 228 255
207 228 255
207 228 255
207 228 255
207 228 255
207 228 255
207 228 255
207 228 255
207 228 255
207 228 255
207 228 255
207 228 255
207 228 255
207 228 255
207 228 255
207 228 255
207 228 255
207 228 255
207 228 255
207 228 255
207 228 255
207 228 255
207 228 255
207 228 255
207 228 255
207 228 255
207 228 255
207 228 255
207 228 255
207 228 255
207 228 255
207 228 255
207 228 255
207 228 255
207 228 255
207 228 255
207 228 255
207 228 255
207 228 255
207 228 255
207 228 255
207 228 255
207 228 255
207 228 255
207 228 255
207 228 255
207 228 255
207 228 255
207 228 255
207 228 255
207 228 255
207 228 255
207 228 255
207 228 255
207 228 255
207 228 255
208 228 255
208 228 255
208 228 255
208 228 255
208 228 255
208 228 255
208 228 255
208 228 255
208 228 255
208 228 255
208 228 255
208 228 255
208 228 255
208 228 255
208 228 255
208 229 255
208 229 255
208 229 255
208 229 255
208 229 255
208 229 255
208 229 255
209 229 255
209 229 255
209 229 255
209 229 255
209 229 255
209 229 255
209 229 255
209 229 255
209 229 255
209 229 255
209 229 255
209 229 255
209 229 255
209 229 255
209 229 255
209 229 255
209 229 255
209 229 255
209 229 255
209 229 255
210 229 255
210 229 255
210 229 255
210 229 255
210 229 255
210 229 255
210 229 255
210 229 255
210 229 255
210 230 255
210 230 255
210 230 255
210 230 255
210 230 255
210 230 255
210 230 255
210 230 255
210 230 255
211 230 255
211 230 255
211 230 255
211 230 255
211 230 255
211 230 255
211 230 255
211 230 255
211 230 255
211 230 255
211 230 255
211 230 255
211 230 255
211 230 255
211 230 255
211 230 255
211 230 255
211 230 255
211 230 255
211 230 255
212 230 255
212 230 255
212 230 255
208 226 247
200 216 232
183 194 199
171 182 188
156 160 142
140 140 114
144 141 97
145 142 98
146 143 99
146 143 99
139 137 93
134 132 91
130 128 89
138 136 94
138 135 92
132 130 89
135 133 89
139 137 93
136 133 90
130 127 87
139 136 94
138 137 95
142 139 94
134 132 91
151 148 101
142 139 95
155 152 104
140 137 93
140 138 93
133 130 89
136 134 91
139 137 93
139 135 91
142 139 93
148 145 99
138 135 93
142 139 93
143 140 96
132 130 89
149 145 99
147 144 98
133 130 88
126 123 84
134 131 89
139 135 91
136 134 89
135 131 87
138 133 90
139 139 114
155 160 149
179 187 189
187 198 206
196 211 227
211 228 250
214 232 255
214 232 255
214 232 255
214 232 255
214 232 255
214 232 255
214 232 255
214 232 255
214 232 255
214 232 255
214 232 255
214 232 255
215 232 255
215 232 255
215 232 255
215 232 255
215 232 255
215 232 255
215 232 255
215 232 255
215 232 255
215 232 255
215 232 255
215 232 255
215 232 255
215 232 255
215 232 255
215 232 255
215 232 255
215 232 255
215 232 255
215 232 255
215 232 255
215 232 255
215 232 255
215 232 255
215 232 255
215 232 255
214 232 255
214 232 255
214 232 255
214 232 255
214 232 255
213 231 254
213 231 254
215 232 255
214 232 254
213 231 253
212 231 253
213 231 253
211 230 253
212 230 252
210 229 250
212 231 253
212 230 254
210 229 252
211 230 252
210 229 252
211 230 255
208 227 251
210 230 255
210 230 255
211 230 255
210 230 254
210 230 255
210 229 255
210 230 255
209 229 255
209 229 255
209 229 255
208 229 255
209 229 255
209 229 255
208 229 255
208 228 255
208 228 255
209 229 254
208 228 255
208 229 255
206 228 255
209 229 255
207 228 255
209 229 255
208 228 255
208 229 255
207 228 255
208 228 254
208 228 254
208 228 255
209 229 254
209 229 253
206 226 251
210 229 254
209 229 255
207 227 247
208 228 252
209 229 255
210 229 253
209 229 251
213 231 255
212 230 253
212 230 253
211 230 255
211 230 255
212 230 255
212 230 255
212 230 255
211 230 255
211 230 255
211 230 255
211 230 255
211 230 255
211 230 255
211 230 255
211 230 255
211 230 255
211 230 255
211 230 255
211 230 255
211 230 255
211 230 255
211 230 255
211 230 255
211 230 255
211 230 255
211 230 255
210 230 255
210 230 255
210 230 255
210 230 255
210 230 255
210 230 255
210 230 255
210 230 255
210 230 255
210 230 255
210 229 255
210 229 255
210 229 255
210 229 255
210 229 255
210 229 255
210 229 255
210 229 255
210 229 255
209 229 255
209 229 255
209 229 255
209 229 255
209 229 255
209 229 255
209 229 255
209 229 255
209 229 255
209 229 255
209 229 255
209 229 255
209 229 255
209 229 255
209 229 255
209 229 255
209 229 255
209 229 255
209 229 255
209 229 255
208 229 255
208 229 255
208 229 255
208 229 255
208 229 255
208 229 255
208 229 255
208 229 255
208 228 255
208 228 255
208 228 255
208 228 255
208 228 255
208 228 255
208 228 255
208 228 255
208 228 255
208 228 255
208 228 255
208 228 255
208 228 255
208 228 255
208 228 255
208 228 255
207 228 255
207 228 255
207 228 255
207 228 255
207 228 255
207 228 255
207 228 255
207 228 255
207 228 255
207 228 255
207 228 255
207 228 255
207 228 255
207 228 255
207 228 255
207 228 255
207 228 255
207 228 255
207 228 255
207 228 255
207 228 255
207 228 255
207 228 255
207 228 255
207 228 255
207 228 255
207 228 255
207 228 255
207 228 255
207 228 255
207 228 255
207 228 255
207 228 255
207 228 255
207 228 255
207 228 255
207 228 255
207 228 255
207 228 255
207 228 255
207 228 255
207 228 255
207 228 255
207 228 255
207 228 255
207 228 255
207 228 255
207 228 255
207 228 255
207 228 255
207 228 255
207 228 255
207 228 255
207 228 255
207 228 255
207 228 255
207 228 255
207 228 255
207 228 255
207 228 255
207 228 255
207 228 255
207 228 255
207 228 255
207 228 255
207 228 255
207 228 255
207 228 255
208 228 255
208 228 255
208 228 255
208 228 255
208 228 255
208 228 255
208 228 255
208 228 255
208 228 255
208 228 255
208 228 255
208 228 255
208 228 255
208 228 255
208 228 255
208 228 255
208 229 255
208 229 255
208 229 255
208 229 255
208 229 255
208 229 255
208 229 255
208 229 255
209 229 255
209 229 255
209 229 255
209 229 255
209 229 255
209 229 255
209 229 255
209 229 255
209 229 255
209 229 255
209 229 255
209 229 255
209 229 255
209 229 255
209 229 255
209 229 255
209 229 255
209 229 255
209 229 255
209 229 255
210 229 255
210 229 255
210 229 255
210 229 255
210 229 255
210 229 255
210 229 255
210 229 255
210 229 255
210 230 255
210 230 255
210 230 255
210 230 255
210 230 255
210 230 255
210 230 255
210 230 255
210 230 255
210 230 255
211 230 255
211 230 255
211 230 255
211 230 255
211 230 255
211 230 255
211 230 255
211 230 255
211 230 255
211 230 255
211 230 255
211 230 255
211 230 255
211 230 255
211 230 255
211 230 255
211 230 255
211 230 255
211 230 255
212 230 255
212 230 255
204 221 243
188 202 216
182 194 200
163 168 154
141 141 113
130 127 87
142 140 96
135 132 90
126 124 85
143 141 96
151 149 103
138 135 93
142 140 96
142 139 96
152 149 103
142 140 96
148 145 98
139 138 95
141 139 95
138 135 93
133 131 90
139 137 93
144 142 97
128 126 87
145 142 98
130 128 87
137 134 92
142 140 96
147 145 99
140 137 95
137 134 91
146 143 98
136 134 92
146 144 99
143 140 96
144 141 96
142 139 95
147 144 99
137 135 92
144 141 96
152 149 101
146 143 97
148 145 98
146 143 96
137 134 92
130 127 84
139 136 92
136 134 91
144 141 96
131 128 86
142 139 93
135 132 89
136 133 90
140 137 93
142 139 95
139 137 93
131 129 84
131 128 87
141 138 89
144 143 118
165 170 162
176 184 186
194 208 222
208 224 245
214 232 255
214 232 255
214 232 255
215 232 255
215 232 255
215 232 255
215 232 255
215 232 255
215 232 255
215 232 255
215 232 255
215 232 255
215 232 255
215 232 255
215 232 255
215 232 255
215 232 255
215 232 255
215 232 255
215 232 255
215 232 255
215 232 255
215 232 255
215 232 255
215 232 255
215 232 255
215 232 255
215 232 255
215 232 255
215 232 255
215 232 255
215 232 255
215 232 255
214 231 254
213 230 252
214 232 255
214 232 255
214 232 255
213 231 255
212 230 250
213 231 251
213 231 254
211 230 252
213 231 253
212 231 254
210 229 250
210 229 253
211 230 255
211 230 254
212 230 255
211 230 255
210 230 255
211 230 255
210 229 255
210 229 255
210 230 255
210 229 255
209 229 255
209 229 255
209 229 255
208 228 255
208 228 255
208 228 255
208 228 255
209 229 255
207 228 255
207 228 255
206 228 255
206 228 255
207 228 255
207 228 255
205 227 255
206 227 255
207 228 255
206 227 255
206 227 254
206 227 255
206 227 255
206 228 255
207 228 254
206 227 255
207 228 255
207 228 255
208 228 255
206 227 254
207 228 255
207 228 255
206 227 255
208 228 254
208 228 255
208 228 254
208 228 254
209 229 255
209 229 254
209 228 252
209 229 254
210 229 252
209 228 251
211 230 254
212 230 254
210 229 252
210 229 254
211 230 253
211 230 255
212 230 255
212 230 255
211 230 255
211 230 255
211 230 255
211 230 255
211 230 255
211 230 255
211 230 255
211 230 255
211 230 255
211 230 255
211 230 255
211 230 255
211 230 255
211 230 255
211 230 255
211 230 255
211 230 255
211 230 255
211 230 255
210 230 255
210 230 255
210 230 255
210 230 255
210 230 255
210 230 255
210 230 255
210 230 255
210 230 255
210 230 255
210 229 255
210 229 255
210 229 255
210 229 255
210 229 255
210 229 255
210 229 255
210 229 255
210 229 255
209 229 255
209 229 255
209 229 255
209 229 255
209 229 255
209 229 255
209 229 255
209 229 255
209 229 255
209 229 255
209 229 255
209 229 255
209 229 255
209 229 255
209 229 255
209 229 255
209 229 255
209 229 255
209 229 255
209 229 255
209 229 255
208 229 255
208 229 255
208 229 255
208 229 255
208 229 255
208 229 255
208 229 255
208 229 255
208 228 255
208 228 255
208 228 255
208 228 255
208 228 255
208 228 255
208 228 255
208 228 255
208 228 255
208 228 255
208 228 255
208 228 255
208 228 255
208 228 255
208 228 255
208 228 255
208 228 255
208 228 255
207 228 255
207 228 255
207 228 255
207 228 255
207 228 255
207 228 255
207 228 255
207 228 255
207 228 255
207 228 255
207 228 255
207 228 255
207 228 255
207 228 255
207 228 255
207 228 255
207 228 255
207 228 255
207 228 255
207 228 255
207 228 255
207 228 255
207 228 255
207 228 255
207 228 255
207 228 255
207 228 255
207 228 255
207 228 255
207 228 255
207 228 255
207 228 255
207 228 255
207 228 255
207 228 255
207 228 255
207 228 255
207 228 255
207 228 255
207 228 255
207 228 255
207 228 255
207 228 255
207 228 255
207 228 255
207 228 255
207 228 255
207 228 255
207 228 255
207 228 255
207 228 255
207 228 255
207 228 255
207 228 255
208 228 255
208 228 255
208 228 255
208 228 255
208 228 255
208 228 255
208 228 255
208 228 255
208 228 255
208 228 255
208 228 255
208 228 255
208 228 255
208 228 255
208 228 255
208 228 255
208 228 255
208 228 255
208 229 255
208 229 255
208 229 255
208 229 255
208 229 255
208 229 255
208 229 255
208 229 255
208 229 255
209 229 255
209 229 255
209 229 255
209 229 255
209 229 255
209 229 255
209 229 255
209 229 255
209 229 255
209 229 255
209 229 255
209 229 255
209 229 255
209 229 255
209 229 255
209 229 255
209 229 255
209 229 255
209 229 255
209 229 255
210 229 255
210 229 255
210 229 255
210 229 255
210 229 255
210 229 255
210 229 255
210 229 255
210 229 255
210 230 255
210 230 255
210 230 255
210 230 255
210 230 255
210 230 255
210 230 255
210 230 255
210 230 255
210 230 255
211 230 255
211 230 255
211 230 255
211 230 255
211 230 255
211 230 255
211 230 255
211 230 255
211 230 255
211 230 255
211 230 255
211 230 255
211 230 255
211 230 255
211 230 255
211 230 255
211 230 255
211 230 255
211 230 255
212 230 255
211 230 255
204 222 243
184 195 201
168 176 172
162 166 150
143 140 96
145 143 99
144 141 98
138 136 93
144 142 99
139 137 94
153 151 104
136 133 92
130 127 85
144 141 97
141 139 95
138 136 93
145 143 97
134 132 91
138 136 93
131 130 90
151 148 100
145 143 97
141 139 96
138 135 93
142 140 96
145 143 97
138 136 94
147 145 99
141 139 95
147 146 99
142 140 96
145 143 98
142 140 95
145 143 99
149 145 98
146 143 97
149 146 98
145 143 98
131 130 89
154 151 101
141 139 95
142 139 96
142 141 96
151 148 101
145 142 94
137 134 92
141 138 93
138 136 93
141 138 92
155 151 103
138 136 90
146 142 95
145 142 96
142 139 94
145 142 95
143 140 93
142 139 95
142 140 93
137 135 91
132 130 87
139 136 91
137 134 89
142 138 93
135 131 88
139 135 89
145 142 96
137 135 89
135 131 87
153 154 128
167 174 170
191 202 211
206 221 240
215 232 255
215 232 255
215 232 255
215 232 255
215 232 255
215 232 255
215 232 255
215 232 255
215 232 255
215 232 255
215 232 255
215 232 255
215 232 255
215 232 255
215 232 255
215 232 255
215 232 255
215 232 255
215 232 255
215 232 255
215 232 255
215 232 255
215 232 255
215 232 255
215 232 255
215 232 255
215 232 255
215 232 255
215 232 254
214 231 253
213 231 254
213 230 251
213 231 252
212 230 252
212 231 253
213 231 254
211 230 254
212 231 255
212 230 255
211 230 254
211 230 255
212 231 255
210 230 254
210 230 255
210 230 255
210 230 255
208 229 255
210 229 255
208 229 255
209 229 255
208 228 254
209 229 255
208 228 255
207 228 255
208 228 255
207 228 255
207 228 255
207 228 255
207 228 255
205 227 255
206 227 255
205 227 255
206 227 255
205 227 255
205 227 255
205 227 255
205 227 255
205 227 255
204 226 255
205 227 255
204 226 255
204 227 255
204 226 255
204 226 255
204 226 255
203 225 254
204 226 255
204 227 255
204 226 255
205 227 254
205 227 255
204 226 255
205 227 254
205 227 255
205 227 255
206 227 255
206 227 255
207 228 254
206 227 255
206 227 255
207 228 255
207 228 255
208 229 254
208 228 255
208 228 253
209 229 255
208 228 253
210 230 255
210 229 253
211 230 255
211 230 254
212 230 254
211 230 254
212 230 255
212 230 255
211 230 255
211 230 255
211 230 255
211 230 255
211 230 255
211 230 255
211 230 255
211 230 255
211 230 255
211 230 255
211 230 255
211 230 255
211 230 255
211 230 255
211 230 255
211 230 255
211 230 255
211 230 255
211 230 255
211 230 255
210 230 255
210 230 255
210 230 255
210 230 255
210 230 255
210 230 255
210 230 255
210 230 255
210 230 255
210 230 255
210 229 255
210 229 255
210 229 255
210 229 255
210 229 255
210 229 255
210 229 255
210 229 255
210 229 255
209 229 255
209 229 255
209 229 255
209 229 255
209 229 255
209 229 255
209 229 255
209 229 255
209 229 255
209 229 255
209 229 255
209 229 255
209 229 255
209 229 255
209 229 255
209 229 255
209 229 255
209 229 255
209 229 255
209 229 255
209 229 255
209 229 255
208 229 255
208 229 255
208 229 255
208 229 255
208 229 255
208 229 255
208 229 255
208 229 255
208 229 255
208 228 255
208 228 255
208 228 255
208 228 255
208 228 255
208 228 255
208 228 255
208 228 255
208 228 255
208 228 255
208 228 255
208 228 255
208 228 255
208 228 255
208 228 255
208 228 255
208 228 255
208 228 255
208 228 255
208 228 255
208 228 255
208 228 255
208 228 255
207 228 255
207 228 255
207 228 255
207 228 255
207 228 255
207 228 255
207 228 255
207 228 255
207 228 255
207 228 255
207 228 255
207 228 255
207 228 255
207 228 255
207 228 255
207 228 255
207 228 255
207 228 255
207 228 255
207 228 255
207 228 255
207 228 255
207 228 255
207 228 255
207 228 255
207 228 255
207 228 255
207 228 255
207 228 255
207 228 255
207 228 255
207 228 255
208 228 255
208 228 255
208 228 255
208 228 255
208 228 255
208 228 255
208 228 255
208 228 255
208 228 255
208 228 255
208 228 255
208 228 255
208 228 255
208 228 255
208 228 255
208 228 255
208 228 255
208 228 255
208 228 255
208 228 255
208 228 255
208 228 255
208 228 255
208 229 255
208 229 255
208 229 255
208 229 255
208 229 255
208 229 255
208 229 255
208 229 255
208 229 255
209 229 255
209 229 255
209 229 255
209 229 255
209 229 255
209 229 255
209 229 255
209 229 255
209 229 255
209 229 255
209 229 255
209 229 255
209 229 255
209 229 255
209 229 255
209 229 255
209 229 255
209 229 255
209 229 255
209 229 255
209 229 255
209 229 255
210 229 255
210 229 255
210 229 255
210 229 255
210 229 255
210 229 255
210 229 255
210 229 255
210 229 255
210 230 255
210 230 255
210 230 255
210 230 255
210 230 255
210 230 255
210 230 255
210 230 255
210 230 255
210 230 255
211 230 255
211 230 255
211 230 255
211 230 255
211 230 255
211 230 255
211 230 255
211 230 255
211 230 255
211 230 255
211 230 255
211 230 255
211 230 255
211 230 255
211 230 255
211 230 255
211 230 255
211 230 255
211 230 255
211 230 255
212 230 255
205 222 245
189 203 216
172 180 178
154 155 131
148 146 101
128 126 87
133 131 90
132 130 90
134 132 92
137 135 93
140 137 94
148 146 101
140 138 94
137 135 93
145 143 98
138 135 93
146 143 99
153 151 104
132 129 89
143 142 97
146 144 98
140 138 95
140 138 93
139 136 93
149 148 101
143 140 96
149 147 100
140 138 94
146 143 97
140 137 93
149 147 100
153 151 104
144 141 96
131 130 89
146 143 97
141 138 94
145 143 98
152 149 102
143 140 95
139 138 94
147 145 100
146 144 97
152 148 100
153 150 103
140 138 94
150 147 99
147 145 98
146 143 96
142 139 96
145 142 98
143 141 96
154 151 101
141 139 94
140 136 92
150 146 98
138 135 91
143 140 95
141 138 93
152 148 99
144 140 94
150 147 99
155 151 101
138 135 93
144 141 96
131 128 85
140 136 92
152 149 100
144 140 93
140 136 90
145 141 96
140 137 92
136 132 89
144 141 95
141 138 91
142 138 92
132 130 85
151 151 125
167 173 170
189 202 216
211 228 250
215 232 255
215 232 255
215 232 255
215 232 255
215 232 255
215 232 255
215 232 255
215 232 255
215 232 255
215 232 255
215 232 255
215 232 255
215 232 255
215 232 255
215 232 255
215 232 255
215 232 255
215 232 255
215 232 255
216 233 255
215 232 255
212 229 245
214 232 254
213 231 251
214 231 252
214 231 253
213 231 253
211 229 247
213 231 254
213 231 255
213 231 254
212 230 254
211 230 255
211 230 255
210 230 255
211 230 255
211 230 255
210 229 255
210 229 255
208 228 255
209 229 255
208 229 255
209 229 255
208 228 255
206 228 255
206 228 255
207 228 255
207 228 255
205 226 254
206 227 255
206 227 255
205 227 255
205 227 255
205 227 255
205 227 255
203 226 255
204 226 255
205 227 255
203 226 255
203 226 255
204 226 255
202 225 255
203 226 255
203 226 255
202 225 255
203 226 255
203 225 254
203 226 255
203 226 255
202 225 255
203 226 255
203 225 254
201 225 255
202 225 253
202 225 254
202 225 255
203 226 255
202 225 255
203 226 255
202 224 254
204 226 255
204 226 255
203 226 255
204 226 255
204 226 254
204 226 255
205 227 255
206 227 255
206 227 255
205 227 255
205 227 255
208 228 255
208 229 255
207 228 255
208 228 254
210 229 254
209 229 254
211 230 254
209 228 252
212 231 255
212 230 252
212 230 255
212 231 255
212 230 255
212 230 255
211 230 255
211 230 255
211 230 255
211 230 255
211 230 255
211 230 255
211 230 255
211 230 255
211 230 255
211 230 255
211 230 255
211 230 255
211 230 255
211 230 255
211 230 255
211 230 255
211 230 255
211 230 255
211 230 255
211 230 255
210 230 255
210 230 255
210 230 255
210 230 255
210 230 255
210 230 255
210 230 255
210 230 255
210 230 255
210 230 255
210 229 255
210 229 255
210 229 255
210 229 255
210 229 255
210 229 255
210 229 255
210 229 255
210 229 255
209 229 255
209 229 255
209 229 255
209 229 255
209 229 255
209 229 255
209 229 255
209 229 255
209 229 255
209 229 255
209 229 255
209 229 255
209 229 255
209 229 255
209 229 255
209 229 255
209 229 255
209 229 255
209 229 255
209 229 255
209 229 255
209 229 255
209 229 255
208 229 255
208 229 255
208 229 255
208 229 255
208 229 255
208 229 255
208 229 255
208 229 255
208 229 255
208 229 255
208 228 255
208 228 255
208 228 255
208 228 255
208 228 255
208 228 255
208 228 255
208 228 255
208 228 255
208 228 255
208 228 255
208 228 255
208 228 255
208 228 255
208 228 255
208 228 255
208 228 255
208 228 255
208 228 255
208 228 255
208 228 255
208 228 255
208 228 255
208 228 255
208 228 255
208 228 255
208 228 255
208 228 255
208 228 255
208 228 255
208 228 255
208 228 255
208 228 255
208 228 255
208 228 255
208 228 255
208 228 255
208 228 255
208 228 255
208 228 255
208 228 255
208 228 255
208 228 255
208 228 255
208 228 255
208 228 255
208 228 255
208 228 255
208 228 255
208 228 255
208 228 255
208 228 255
208 228 255
208 228 255
208 228 255
208 228 255
208 228 255
208 228 255
208 228 255
208 228 255
208 228 255
208 228 255
208 228 255
208 228 255
208 228 255
208 229 255
208 229 255
208 229 255
208 229 255
208 229 255
208 229 255
208 229 255
208 229 255
208 229 255
208 229 255
208 229 255
209 229 255
209 229 255
209 229 255
209 229 255
209 229 255
209 229 255
209 229 255
209 229 255
209 229 255
209 229 255
209 229 255
209 229 255
209 229 255
209 229 255
209 229 255
209 229 255
209 229 255
209 229 255
209 229 255
209 229 255
209 229 255
209 229 255
210 229 255
210 229 255
210 229 255
210 229 255
210 229 255
210 229 255
210 229 255
210 229 255
210 229 255
210 229 255
210 230 255
210 230 255
210 230 255
210 230 255
210 230 255
210 230 255
210 230 255
210 230 255
210 230 255
210 230 255
211 230 255
211 230 255
211 230 255
211 230 255
211 230 255
211 230 255
211 230 255
211 230 255
211 230 255
211 230 255
211 230 255
211 230 255
211 230 255
211 230 255
211 230 255
211 230 255
211 230 255
211 230 255
211 230 255
211 230 255
212 230 255
211 230 255
198 214 231
172 183 190
149 156 149
135 133 92
128 126 87
141 140 97
142 140 96
141 138 96
139 137 95
136 134 93
146 144 100
138 137 95
140 139 96
145 143 99
147 145 101
150 148 101
150 149 103
152 149 101
146 144 99
136 135 93
150 148 101
149 148 101
156 153 106
141 140 96
133 132 92
145 143 97
150 148 101
157 155 107
143 140 96
152 149 101
144 142 99
151 148 101
147 144 99
150 148 101
151 149 103
148 146 99
136 135 92
144 141 95
146 143 98
145 144 99
147 145 99
142 139 94
153 150 101
153 150 102
147 145 97
131 129 87
135 134 90
145 143 97
141 139 95
148 145 99
153 150 101
148 146 98
142 139 93
143 139 93
152 149 101
145 143 96
141 139 95
150 147 101
150 148 100
138 135 91
153 150 99
147 145 98
137 135 92
145 142 93
140 138 93
147 144 97
150 147 101
146 143 97
132 129 84
146 142 94
142 139 93
146 142 96
137 134 89
147 144 95
149 145 98
141 139 94
133 130 88
137 134 90
143 139 91
142 138 90
131 127 83
127 124 82
138 135 95
148 151 140
177 187 191
205 221 241
215 232 255
215 232 255
215 232 255
215 232 255
215 232 255
215 232 255
215 232 255
216 233 255
216 233 255
216 232 255
215 232 255
216 233 255
215 232 255
214 231 251
215 232 253
215 232 254
214 231 253
212 231 252
214 231 253
212 230 250
214 231 253
212 230 253
213 231 255
213 231 255
212 231 255
211 230 255
210 230 255
211 230 254
211 230 255
210 230 255
210 229 255
209 229 255
209 229 255
209 229 255
209 229 255
207 227 254
208 228 255
207 228 254
206 227 254
207 228 255
206 228 255
205 227 255
205 227 255
206 227 255
204 226 255
205 227 255
204 227 255
204 226 255
204 226 255
204 226 255
203 226 255
203 226 255
203 226 255
203 226 255
202 225 255
202 225 255
203 226 255
201 225 255
201 225 255
202 225 255
202 225 255
201 225 255
201 225 255
201 225 255
201 225 255
201 225 255
200 224 255
200 224 255
201 225 255
200 224 255
201 225 255
200 224 255
201 225 255
200 224 255
200 224 255
200 224 255
200 224 255
202 225 255
201 225 255
202 225 255
201 225 255
202 225 254
202 225 255
203 226 255
203 226 255
204 226 255
203 226 255
204 226 255
204 226 255
205 227 255
205 227 255
205 227 255
206 228 255
209 229 255
208 228 255
208 228 253
208 228 253
209 228 252
209 229 252
211 229 251
211 230 252
212 231 255
211 230 253
212 230 255
212 230 255
212 230 255
211 230 255
211 230 255
211 230 255
211 230 255
211 230 255
211 230 255
211 230 255
211 230 255
211 230 255
211 230 255
211 230 255
211 230 255
211 230 255
211 230 255
211 230 255
211 230 255
211 230 255
211 230 255
211 230 255
211 230 255
210 230 255
210 230 255
210 230 255
210 230 255
210 230 255
210 230 255
210 230 255
210 230 255
210 230 255
210 230 255
210 229 255
210 229 255
210 229 255
210 229 255
210 229 255
210 229 255
210 229 255
210 229 255
210 229 255
210 229 255
209 229 255
209 229 255
209 229 255
209 229 255
209 229 255
209 229 255
209 229 255
209 229 255
209 229 255
209 229 255
209 229 255
209 229 255
209 229 255
209 229 255
209 229 255
209 229 255
209 229 255
209 229 255
209 229 255
209 229 255
209 229 255
209 229 255
209 229 255
209 229 255
208 229 255
208 229 255
208 229 255
208 229 255
208 229 255
208 229 255
208 229 255
208 229 255
208 229 255
208 229 255
208 229 255
208 229 255
208 228 255
208 228 255
208 228 255
208 228 255
208 228 255
208 228 255
208 228 255
208 228 255
208 228 255
208 228 255
208 228 255
208 228 255
208 228 255
208 228 255
208 228 255
208 228 255
208 228 255
208 228 255
208 228 255
208 228 255
208 228 255
208 228 255
208 228 255
208 228 255
208 228 255
208 228 255
208 228 255
208 228 255
208 228 255
208 228 255
208 228 255
208 228 255
208 228 255
208 228 255
208 228 255
208 228 255
208 228 255
208 228 255
208 228 255
208 228 255
208 228 255
208 228 255
208 228 255
208 228 255
208 228 255
208 228 255
208 228 255
208 228 255
208 228 255
208 228 255
208 229 255
208 229 255
208 229 255
208 229 255
208 229 255
208 229 255
208 229 255
208 229 255
208 229 255
208 229 255
208 229 255
208 229 255
209 229 255
209 229 255
209 229 255
209 229 255
209 229 255
209 229 255
209 229 255
209 229 255
209 229 255
209 229 255
209 229 255
209 229 255
209 229 255
209 229 255
209 229 255
209 229 255
209 229 255
209 229 255
209 229 255
209 229 255
209 229 255
209 229 255
209 229 255
209 229 255
210 229 255
210 229 255
210 229 255
210 229 255
210 229 255
210 229 255
210 229 255
210 229 255
210 229 255
210 229 255
210 230 255
210 230 255
210 230 255
210 230 255
210 230 255
210 230 255
210 230 255
210 230 255
210 230 255
210 230 255
211 230 255
211 230 255
211 230 255
211 230 255
211 230 255
211 230 255
211 230 255
211 230 255
211 230 255
211 230 255
211 230 255
211 230 255
211 230 255
211 230 255
211 230 255
211 230 255
211 230 255
211 230 255
211 230 255
211 230 255
212 230 255
212 230 255
211 229 254
197 212 228
178 186 186
152 154 129
147 144 99
132 130 89
142 140 96
135 134 93
133 130 89
144 142 99
147 146 101
139 137 95
139 137 93
145 142 96
152 149 103
138 135 93
143 141 97
142 140 96
146 144 100
144 142 98
147 145 100
136 135 93
143 141 96
149 148 102
138 136 95
147 146 101
149 147 100
149 146 101
152 149 101
152 150 103
147 145 100
151 149 102
159 156 108
153 151 104
147 145 98
143 140 97
149 146 99
145 143 98
153 150 102
152 151 103
151 147 101
151 147 101
147 145 99
141 138 94
150 148 99
152 150 102
152 149 101
141 139 94
139 136 91
147 145 100
149 146 98
149 146 99
152 150 103
151 148 101
152 150 100
142 139 94
143 140 95
144 142 96
150 147 101
147 144 96
140 137 93
138 136 92
137 135 89
136 133 88
142 138 93
142 140 96
146 144 99
147 144 96
149 146 99
140 137 93
148 145 99
139 136 90
134 131 87
153 149 99
140 137 91
140 137 90
133 130 88
142 138 93
143 141 96
147 144 96
133 131 85
137 132 86
145 142 94
134 130 86
139 135 89
148 145 94
139 135 89
135 132 87
142 137 89
135 131 83
150 151 124
171 177 172
199 213 229
215 232 255
216 232 255
216 233 255
216 233 255
216 233 255
216 233 255
216 233 255
216 233 255
215 232 254
216 232 253
216 232 254
215 232 252
213 231 253
214 231 252
213 231 252
212 230 254
213 231 254
213 231 255
213 231 255
211 230 255
213 231 255
211 230 255
210 229 254
211 230 255
210 230 255
210 229 255
209 229 255
208 229 255
208 228 255
208 228 255
208 228 255
207 228 255
207 228 255
207 228 255
206 227 254
206 227 255
205 227 255
205 227 253
205 227 255
205 227 255
203 226 255
204 226 255
204 226 255
204 226 255
204 226 255
202 225 255
203 226 255
203 226 255
202 225 255
202 225 255
202 225 255
202 225 255
201 224 255
201 225 255
200 224 255
201 225 255
200 224 255
200 224 255
200 224 255
200 224 255
199 224 255
199 224 255
199 224 255
199 223 255
199 224 255
200 224 255
199 224 255
199 224 255
199 224 255
199 223 255
199 224 255
199 224 255
200 224 255
199 224 255
199 224 255
199 224 255
199 224 255
199 224 255
200 224 255
200 224 255
200 224 255
200 224 255
200 224 255
201 225 255
201 225 255
202 225 255
201 225 253
203 226 254
203 226 255
204 226 255
206 228 255
205 227 255
206 228 255
206 227 255
208 228 255
208 229 255
209 229 254
208 228 252
210 229 253
211 230 254
211 230 254
211 230 254
211 230 254
212 230 255
212 230 255
212 230 255
212 230 255
211 230 255
211 230 255
211 230 255
211 230 255
211 230 255
211 230 255
211 230 255
211 230 255
211 230 255
211 230 255
211 230 255
211 230 255
211 230 255
211 230 255
211 230 255
211 230 255
211 230 255
211 230 255
211 230 255
211 230 255
210 230 255
210 230 255
210 230 255
210 230 255
210 230 255
210 230 255
210 230 255
210 230 255
210 230 255
210 230 255
210 229 255
210 229 255
210 229 255
210 229 255
210 229 255
210 229 255
210 229 255
210 229 255
210 229 255
210 229 255
210 229 255
209 229 255
209 229 255
209 229 255
209 229 255
209 229 255
209 229 255
209 229 255
209 229 255
209 229 255
209 229 255
209 229 255
209 229 255
209 229 255
209 229 255
209 229 255
209 229 255
209 229 255
209 229 255
209 229 255
209 229 255
209 229 255
209 229 255
209 229 255
209 229 255
209 229 255
209 229 255
208 229 255
208 229 255
208 229 255
208 229 255
208 229 255
208 229 255
208 229 255
208 229 255
208 229 255
208 229 255
208 229 255
208 229 255
208 229 255
208 229 255
208 229 255
208 229 255
208 229 255
208 229 255
208 228 255
208 228 255
208 228 255
208 228 255
208 228 255
208 228 255
208 228 255
208 228 255
208 228 255
208 228 255
208 228 255
208 228 255
208 228 255
208 228 255
208 228 255
208 228 255
208 228 255
208 228 255
208 228 255
208 228 255
208 228 255
208 228 255
208 228 255
208 228 255
208 228 255
208 229 255
208 229 255
208 229 255
208 229 255
208 229 255
208 229 255
208 229 255
208 229 255
208 229 255
208 229 255
208 229 255
208 229 255
208 229 255
208 229 255
208 229 255
208 229 255
208 229 255
209 229 255
209 229 255
209 229 255
209 229 255
209 229 255
209 229 255
209 229 255
209 229 255
209 229 255
209 229 255
209 229 255
209 229 255
209 229 255
209 229 255
209 229 255
209 229 255
209 229 255
209 229 255
209 229 255
209 229 255
209 229 255
209 229 255
209 229 255
209 229 255
209 229 255
209 229 255
210 229 255
210 229 255
210 229 255
210 229 255
210 229 255
210 229 255
210 229 255
210 229 255
210 229 255
210 229 255
210 229 255
210 230 255
210 230 255
210 230 255
210 230 255
210 230 255
210 230 255
210 230 255
210 230 255
210 230 255
210 230 255
211 230 255
211 230 255
211 230 255
211 230 255
211 230 255
211 230 255
211 230 255
211 230 255
211 230 255
211 230 255
211 230 255
211 230 255
211 230 255
211 230 255
211 230 255
211 230 255
211 230 255
211 230 255
211 230 255
211 230 255
212 230 255
212 230 255
212 230 255
212 230 255
202 218 239
178 187 190
142 144 122
129 127 87
144 142 98
135 133 90
135 133 91
143 141 97
146 144 100
134 132 91
140 138 95
138 136 95
146 145 101
138 136 94
147 144 98
147 145 100
147 144 99
139 137 94
143 142 96
135 134 93
142 140 97
141 139 96
144 142 97
154 151 104
153 151 103
152 150 104
144 142 98
157 155 106
148 146 101
144 142 97
147 144 99
151 147 99
148 146 101
148 146 99
146 144 97
155 152 102
157 154 106
148 147 101
152 150 102
157 154 106
150 147 100
148 145 99
143 141 96
150 148 102
145 143 96
153 151 102
145 142 97
146 143 96
152 149 101
144 142 96
147 145 99
149 147 100
147 144 99
146 143 93
149 146 98
157 154 105
149 146 99
152 148 101
148 146 99
147 144 96
150 146 98
148 146 97
148 144 99
149 146 100
150 148 99
142 139 93
147 144 96
151 147 100
149 146 99
146 143 96
150 146 94
147 143 93
149 146 96
153 150 100
147 144 96
146 143 95
146 143 95
150 147 98
139 136 92
147 143 94
146 142 92
138 135 92
139 135 88
149 146 96
149 146 96
151 147 99
137 134 89
150 146 93
146 141 91
140 136 88
139 136 89
151 147 98
133 129 85
147 143 94
129 125 79
156 156 128
177 187 193
203 217 231
216 233 255
216 233 255
215 232 254
216 232 254
213 231 251
215 232 254
215 232 252
212 230 248
213 231 253
213 231 253
213 231 254
213 231 255
212 231 255
212 230 254
211 230 255
212 230 255
209 229 255
211 230 255
210 230 255
210 229 255
210 229 255
209 229 255
208 229 255
208 228 255
208 228 255
207 228 255
207 228 255
207 228 255
206 227 255
205 227 254
206 227 255
205 227 255
205 227 255
204 226 255
204 226 255
203 226 255
204 226 255
203 226 255
202 225 255
203 226 255
202 225 255
202 225 255
202 225 255
202 225 255
201 225 255
201 225 255
201 225 255
200 224 255
200 224 255
200 224 255
200 224 255
199 224 255
199 224 255
199 224 255
199 224 255
199 223 255
198 223 255
199 223 255
198 223 255
198 223 255
198 223 255
198 223 255
198 223 255
197 223 255
197 223 255
197 222 255
198 223 255
197 223 255
197 223 255
197 223 255
197 223 255
198 223 255
197 223 255
198 223 255
198 223 255
198 223 255
199 224 255
199 223 255
198 223 255
199 224 255
199 224 255
199 224 255
199 224 255
200 224 255
200 224 255
201 225 255
201 225 255
201 225 255
202 225 255
202 225 254
203 226 254
205 227 255
205 227 255
206 227 255
207 228 255
208 229 255
209 229 254
210 230 254
209 229 253
211 230 254
211 230 252
211 230 254
212 230 255
212 230 255
212 230 255
212 230 255
212 230 255
212 230 255
211 230 255
211 230 255
211 230 255
211 230 255
211 230 255
211 230 255
211 230 255
211 230 255
211 230 255
211 230 255
211 230 255
211 230 255
211 230 255
211 230 255
211 230 255
211 230 255
211 230 255
211 230 255
211 230 255
211 230 255
210 230 255
210 230 255
210 230 255
210 230 255
210 230 255
210 230 255
210 230 255
210 230 255
210 230 255
210 230 255
210 230 255
210 229 255
210 229 255
210 229 255
210 229 255
210 229 255
210 229 255
210 229 255
210 229 255
210 229 255
210 229 255
210 229 255
209 229 255
209 229 255
209 229 255
209 229 255
209 229 255
209 229 255
209 229 255
209 229 255
209 229 255
209 229 255
209 229 255
209 229 255
209 229 255
209 229 255
209 229 255
209 229 255
209 229 255
209 229 255
209 229 255
209 229 255
209 229 255
209 229 255
209 229 255
209 229 255
209 229 255
209 229 255
209 229 255
209 229 255
209 229 255
209 229 255
209 229 255
208 229 255
208 229 255
208 229 255
208 229 255
208 229 255
208 229 255
208 229 255
208 229 255
208 229 255
208 229 255
208 229 255
208 229 255
208 229 255
208 229 255
208 229 255
208 229 255
208 229 255
208 229 255
208 229 255
208 229 255
208 229 255
208 229 255
208 229 255
208 229 255
208 229 255
208 229 255
208 229 255
208 229 255
208 229 255
208 229 255
208 229 255
208 229 255
208 229 255
208 229 255
208 229 255
208 229 255
208 229 255
208 229 255
208 229 255
208 229 255
209 229 255
209 229 255
209 229 255
209 229 255
209 229 255
209 229 255
209 229 255
209 229 255
209 229 255
209 229 255
209 229 255
209 229 255
209 229 255
209 229 255
209 229 255
209 229 255
209 229 255
209 229 255
209 229 255
209 229 255
209 229 255
209 229 255
209 229 255
209 229 255
209 229 255
209 229 255
209 229 255
209 229 255
209 229 255
209 229 255
209 229 255
210 229 255
210 229 255
210 229 255
210 229 255
210 229 255
210 229 255
210 229 255
210 229 255
210 229 255
210 229 255
210 229 255
210 230 255
210 230 255
210 230 255
210 230 255
210 230 255
210 230 255
210 230 255
210 230 255
210 230 255
210 230 255
210 230 255
211 230 255
211 230 255
211 230 255
211 230 255
211 230 255
211 230 255
211 230 255
211 230 255
211 230 255
211 230 255
211 230 255
211 230 255
211 230 255
211 230 255
211 230 255
211 230 255
211 230 255
211 230 255
211 230 255
211 230 255
212 230 255
212 230 255
212 230 255
212 230 255
212 230 255
206 224 247
187 200 213
144 146 127
146 144 99
144 142 97
138 136 93
137 135 93
140 138 96
141 139 95
140 138 96
149 146 101
143 140 96
132 130 91
145 142 98
154 150 104
148 146 101
145 143 99
143 142 98
137 136 94
141 139 97
142 140 96
155 152 105
145 143 99
142 140 96
150 148 101
144 143 99
153 151 104
148 147 101
146 144 99
148 146 100
149 147 101
148 146 100
146 144 98
144 141 96
152 149 101
153 151 104
141 139 96
147 145 99
141 139 95
148 145 99
148 145 99
149 146 99
150 147 99
152 149 101
152 148 100
144 142 96
148 146 99
148 145 98
150 148 101
144 141 95
150 147 97
153 151 104
151 148 102
150 148 102
141 139 94
147 145 100
153 150 101
147 144 96
145 142 97
159 156 106
147 144 97
153 151 103
149 146 96
159 155 105
146 144 97
142 139 94
155 151 101
142 139 90
141 139 95
146 143 97
148 144 97
145 143 97
145 143 94
147 144 96
142 139 90
153 148 98
152 149 101
156 153 102
151 148 98
144 141 93
154 151 101
143 140 94
151 147 99
140 137 90
133 130 86
134 131 87
142 138 91
147 144 93
134 131 86
149 145 96
137 134 88
138 133 87
139 134 89
147 143 96
137 133 87
141 138 92
138 135 89
142 138 88
139 135 87
144 139 92
142 139 91
154 159 152
214 231 252
214 231 253
215 232 254
214 231 253
213 231 253
213 231 254
213 231 253
213 231 254
212 231 255
213 231 255
212 231 255
212 231 254
210 230 254
211 230 255
211 230 255
210 230 255
210 229 255
209 229 255
209 229 255
209 229 255
208 229 255
207 228 255
207 228 255
207 228 255
206 227 255
206 227 255
206 227 255
205 227 254
205 227 255
204 226 255
205 227 255
204 226 255
204 226 255
203 226 255
203 226 255
203 226 255
202 225 255
202 225 255
201 225 255
201 225 255
201 225 255
201 225 255
200 224 255
200 224 255
199 224 255
199 224 255
200 224 255
199 224 255
199 223 255
198 223 255
198 223 255
198 223 255
197 223 255
198 223 255
198 223 255
197 223 255
198 223 255
197 223 255
197 223 255
197 223 255
196 222 255
196 222 255
196 222 255
196 222 255
196 222 255
196 222 255
196 222 255
195 222 255
196 222 255
196 222 255
196 222 255
195 222 255
196 222 255
196 222 255
197 223 255
197 223 255
196 222 255
197 223 255
197 223 255
197 223 255
198 223 255
198 223 255
198 223 255
199 223 255
199 223 255
199 224 255
199 224 255
200 224 255
201 225 255
201 225 255
202 225 255
203 226 255
204 226 254
204 226 255
205 227 255
205 227 254
208 228 255
208 228 255
207 228 254
209 229 255
211 230 254
211 230 254
211 230 255
212 231 255
212 230 255
212 230 255
212 230 255
212 230 255
212 230 255
212 230 255
212 230 255
211 230 255
211 230 255
211 230 255
211 230 255
211 230 255
211 230 255
211 230 255
211 230 255
211 230 255
211 230 255
211 230 255
211 230 255
211 230 255
211 230 255
211 230 255
211 230 255
211 230 255
211 230 255
211 230 255
211 230 255
211 230 255
210 230 255
210 230 255
210 230 255
210 230 255
210 230 255
210 230 255
210 230 255
210 230 255
210 230 255
210 230 255
210 230 255
210 229 255
210 229 255
210 229 255
210 229 255
210 229 255
210 229 255
210 229 255
210 229 255
210 229 255
210 229 255
210 229 255
210 229 255
209 229 255
209 229 255
209 229 255
209 229 255
209 229 255
209 229 255
209 229 255
209 229 255
209 229 255
209 229 255
209 229 255
209 229 255
209 229 255
209 229 255
209 229 255
209 229 255
209 229 255
209 229 255
209 229 255
209 229 255
209 229 255
209 229 255
209 229 255
209 229 255
209 229 255
209 229 255
209 229 255
209 229 255
209 229 255
209 229 255
209 229 255
209 229 255
209 229 255
209 229 255
209 229 255
209 229 255
209 229 255
209 229 255
209 229 255
209 229 255
209 229 255
209 229 255
209 229 255
209 229 255
209 229 255
209 229 255
209 229 255
209 229 255
209 229 255
209 229 255
209 229 255
209 229 255
209 229 255
209 229 255
209 229 255
209 229 255
209 229 255
209 229 255
209 229 255
209 229 255
209 229 255
209 229 255
209 229 255
209 229 255
209 229 255
209 229 255
209 229 255
209 229 255
209 229 255
209 229 255
209 229 255
209 229 255
209 229 255
209 229 255
209 229 255
209 229 255
209 229 255
209 229 255
209 229 255
209 229 255
209 229 255
209 229 255
209 229 255
209 229 255
209 229 255
209 229 255
209 229 255
209 229 255
209 229 255
209 229 255
210 229 255
210 229 255
210 229 255
210 229 255
210 229 255
210 229 255
210 229 255
210 229 255
210 229 255
210 229 255
210 229 255
210 229 255
210 229 255
210 230 255
210 230 255
210 230 255
210 230 255
210 230 255
210 230 255
210 230 255
210 230 255
210 230 255
210 230 255
211 230 255
211 230 255
211 230 255
211 230 255
211 230 255
211 230 255
211 230 255
211 230 255
211 230 255
211 230 255
211 230 255
211 230 255
211 230 255
211 230 255
211 230 255
211 230 255
211 230 255
211 230 255
211 230 255
211 230 255
211 230 255
212 230 255
212 230 255
212 230 255
212 230 255
212 230 255
212 230 255
212 230 255
200 216 234
169 179 182
147 147 112
141 139 96
142 141 98
143 141 98
138 136 95
141 139 96
134 132 90
142 141 98
137 136 95
142 140 96
154 152 104
138 137 95
146 144 100
139 138 94
138 136 94
141 139 96
145 144 99
147 145 98
147 145 101
159 157 109
145 143 98
151 149 103
141 139 96
148 146 98
146 144 99
155 151 103
145 143 99
154 151 104
158 156 108
148 146 100
159 156 106
142 140 96
151 149 103
149 147 101
143 141 96
154 152 105
149 146 99
144 142 98
150 148 101
155 152 102
145 142 97
148 145 97
154 151 104
144 141 96
155 153 105
153 152 103
145 142 96
148 145 99
146 143 96
149 146 99
142 141 96
145 143 96
146 143 96
146 142 95
158 155 104
155 152 101
148 144 99
151 149 99
150 148 99
145 142 95
145 143 98
143 140 96
142 139 93
148 145 99
149 146 96
151 148 101
147 144 98
147 145 94
147 144 94
155 151 101
149 146 99
145 142 95
148 144 98
152 148 99
150 146 96
140 136 89
145 142 96
147 144 96
149 146 98
146 142 95
148 144 94
137 134 88
143 140 93
148 145 96
153 149 98
159 155 101
151 147 98
150 146 98
144 141 93
142 139 92
146 142 94
140 137 94
139 136 91
148 144 93
143 139 90
149 146 96
134 130 85
138 134 85
129 125 83
135 132 89
143 139 89
141 137 88
214 231 252
214 231 251
214 231 253
213 231 254
214 232 255
213 231 255
213 231 255
213 231 255
212 231 255
212 231 255
212 230 255
211 230 255
210 230 255
210 230 255
209 229 255
209 229 255
209 229 255
208 229 255
208 228 255
208 228 255
207 228 254
207 228 255
206 227 255
206 227 255
206 227 255
206 227 255
205 227 255
204 226 255
204 226 255
203 226 255
203 226 255
203 226 255
203 226 255
202 225 255
202 225 255
202 225 255
201 225 255
201 225 255
201 225 255
200 224 255
200 224 255
200 224 255
199 224 255
199 224 255
199 224 255
199 224 255
198 223 255
197 223 255
198 223 255
198 223 255
198 223 255
197 223 255
197 222 255
197 222 255
196 222 255
196 222 255
196 222 255
196 222 255
195 222 255
196 222 255
196 222 255
195 222 255
195 222 255
195 222 255
195 222 255
195 221 255
194 221 255
195 221 255
195 221 255
194 221 255
195 221 255
194 221 255
195 222 255
195 222 255
195 222 255
195 221 255
195 222 255
195 222 255
195 222 255
196 222 255
195 222 255
196 222 255
196 222 255
197 223 255
197 223 255
198 223 255
198 223 255
199 224 255
198 223 255
200 224 255
199 224 255
200 224 255
201 225 255
202 225 255
203 226 255
204 226 255
205 227 255
206 228 255
207 228 254
207 228 255
209 229 254
210 229 254
209 229 253
211 230 252
211 230 252
212 231 255
212 230 255
212 231 255
212 230 255
212 230 255
212 230 255
212 230 255
212 230 255
212 230 255
212 230 255
211 230 255
211 230 255
211 230 255
211 230 255
211 230 255
211 230 255
211 230 255
211 230 255
211 230 255
211 230 255
211 230 255
211 230 255
211 230 255
211 230 255
211 230 255
211 230 255
211 230 255
211 230 255
211 230 255
211 230 255
211 230 255
210 230 255
210 230 255
210 230 255
210 230 255
210 230 255
210 230 255
210 230 255
210 230 255
210 230 255
210 230 255
210 230 255
210 230 255
210 229 255
210 229 255
210 229 255
210 229 255
210 229 255
210 229 255
210 229 255
210 229 255
210 229 255
210 229 255
210 229 255
210 229 255
210 229 255
209 229 255
209 229 255
209 229 255
209 229 255
209 229 255
209 229 255
209 229 255
209 229 255
209 229 255
209 229 255
209 229 255
209 229 255
209 229 255
209 229 255
209 229 255
209 229 255
209 229 255
209 229 255
209 229 255
209 229 255
209 229 255
209 229 255
209 229 255
209 229 255
209 229 255
209 229 255
209 229 255
209 229 255
209 229 255
209 229 255
209 229 255
209 229 255
209 229 255
209 229 255
209 229 255
209 229 255
209 229 255
209 229 255
209 229 255
209 229 255
209 229 255
209 229 255
209 229 255
209 229 255
209 229 255
209 229 255
209 229 255
209 229 255
209 229 255
209 229 255
209 229 255
209 229 255
209 229 255
209 229 255
209 229 255
209 229 255
209 229 255
209 229 255
209 229 255
209 229 255
209 229 255
209 229 255
209 229 255
209 229 255
209 229 255
209 229 255
209 229 255
209 229 255
209 229 255
209 229 255
209 229 255
209 229 255
209 229 255
209 229 255
209 229 255
209 229 255
209 229 255
209 229 255
210 229 255
210 229 255
210 229 255
210 229 255
210 229 255
210 229 255
210 229 255
210 229 255
210 229 255
210 229 255
210 229 255
210 229 255
210 229 255
210 230 255
210 230 255
210 230 255
210 230 255
210 230 255
210 230 255
210 230 255
210 230 255
210 230 255
210 230 255
210 230 255
210 230 255
211 230 255
211 230 255
211 230 255
211 230 255
211 230 255
211 230 255
211 230 255
211 230 255
211 230 255
211 230 255
211 230 255
211 230 255
211 230 255
211 230 255
211 230 255
211 230 255
211 230 255
211 230 255
211 230 255
211 230 255
211 230 255
212 230 255
212 230 255
212 230 255
212 230 255
212 230 255
212 230 255
212 230 255
212 231 255
210 228 252
194 208 220
158 163 156
135 133 91
138 136 94
136 134 92
143 142 98
133 131 91
141 139 96
138 137 96
138 137 95
141 140 96
148 146 101
143 142 97
156 154 106
142 140 97
144 142 99
147 145 100
150 146 99
143 142 98
149 148 103
146 143 98
152 149 102
147 145 98
140 139 96
153 151 104
146 144 99
148 146 101
150 150 104
156 154 106
140 137 94
149 147 99
156 155 108
160 157 108
142 140 96
147 145 100
149 147 100
148 145 99
152 150 103
143 141 95
150 147 100
156 154 107
153 150 101
156 154 104
144 142 97
158 156 103
160 157 106
153 150 101
145 142 98
148 145 99
151 148 101
145 142 96
152 149 101
147 145 99
153 149 99
145 142 96
155 152 101
150 147 99
141 139 92
141 138 95
148 145 99
153 150 102
154 150 100
162 158 106
156 153 102
150 147 99
157 154 104
139 135 91
151 148 98
151 147 97
151 147 98
154 150 101
149 146 101
153 150 101
157 154 104
142 139 91
147 144 96
145 142 96
151 149 100
151 147 96
145 142 95
151 147 99
156 153 103
149 147 98
151 147 100
141 138 94
152 149 99
141 139 92
149 145 97
143 139 92
145 141 95
139 135 88
145 141 96
145 142 94
144 141 91
141 137 88
152 147 96
142 137 91
140 137 92
138 135 88
134 129 83
143 138 92
145 141 94
133 129 85
145 141 92
139 135 89
145 140 92
214 231 254
214 231 254
213 231 254
214 232 255
213 231 255
212 231 255
212 231 255
212 231 255
211 230 255
210 230 255
211 230 255
209 229 255
210 229 255
209 229 255
209 229 255
208 228 254
208 228 254
207 228 255
207 228 255
207 228 255
206 227 255
206 228 255
206 227 255
205 227 255
205 227 255
204 226 254
204 227 255
204 226 255
203 226 255
202 225 255
202 225 255
202 225 255
202 225 255
202 225 255
202 225 255
200 224 255
200 224 255
200 224 255
200 224 255
200 224 255
199 224 255
199 224 255
198 223 255
199 224 255
198 223 255
197 223 255
197 223 255
197 223 255
197 223 255
196 222 255
196 222 255
196 222 255
196 222 255
196 222 255
195 222 255
196 222 255
195 221 255
195 222 255
194 221 255
194 221 255
194 221 255
194 221 255
194 221 255
193 221 255
193 221 255
193 221 255
194 221 255
193 221 255
194 221 255
194 221 255
193 221 255
193 221 255
193 221 255
193 221 255
194 221 255
194 221 255
193 221 255
194 221 255
194 221 255
194 221 255
194 221 255
195 221 255
195 221 255
195 222 255
195 222 255
195 222 255
197 222 255
196 222 255
197 223 255
198 223 255
197 223 255
199 224 255
198 223 255
200 224 255
200 224 255
201 224 255
202 225 255
203 226 255
205 227 255
205 227 255
206 227 255
207 228 255
208 228 255
206 226 250
210 229 252
212 231 254
211 230 253
212 230 254
212 231 255
212 231 255
212 231 255
212 231 255
212 231 255
212 230 255
212 230 255
212 230 255
212 230 255
212 230 255
212 230 255
212 230 255
211 230 255
211 230 255
211 230 255
211 230 255
211 230 255
211 230 255
211 230 255
211 230 255
211 230 255
211 230 255
211 230 255
211 230 255
211 230 255
211 230 255
211 230 255
211 230 255
211 230 255
211 230 255
211 230 255
211 230 255
211 230 255
210 230 255
210 230 255
210 230 255
210 230 255
210 230 255
210 230 255
210 230 255
210 230 255
210 230 255
210 230 255
210 230 255
210 230 255
210 230 255
210 229 255
210 229 255
210 229 255
210 229 255
210 229 255
210 229 255
210 229 255
210 229 255
210 229 255
210 229 255
210 229 255
210 229 255
210 229 255
210 229 255
209 229 255
209 229 255
209 229 255
209 229 255
209 229 255
209 229 255
209 229 255
209 229 255
209 229 255
209 229 255
209 229 255
209 229 255
209 229 255
209 229 255
209 229 255
209 229 255
209 229 255
209 229 255
209 229 255
209 229 255
209 229 255
209 229 255
209 229 255
209 229 255
209 229 255
209 229 255
209 229 255
209 229 255
209 229 255
209 229 255
209 229 255
209 229 255
209 229 255
209 229 255
209 229 255
209 229 255
209 229 255
209 229 255
209 229 255
209 229 255
209 229 255
209 229 255
209 229 255
209 229 255
209 229 255
209 229 255
209 229 255
209 229 255
209 229 255
209 229 255
209 229 255
209 229 255
209 229 255
209 229 255
209 229 255
209 229 255
209 229 255
209 229 255
209 229 255
209 229 255
209 229 255
209 229 255
209 229 255
210 229 255
210 229 255
210 229 255
210 229 255
210 229 255
210 229 255
210 229 255
210 229 255
210 229 255
210 229 255
210 229 255
210 229 255
210 229 255
210 229 255
210 229 255
210 229 255
210 230 255
210 230 255
210 230 255
210 230 255
210 230 255
210 230 255
210 230 255
210 230 255
210 230 255
210 230 255
210 230 255
210 230 255
211 230 255
211 230 255
211 230 255
211 230 255
211 230 255
211 230 255
211 230 255
211 230 255
211 230 255
211 230 255
211 230 255
211 230 255
211 230 255
211 230 255
211 230 255
211 230 255
211 230 255
211 230 255
211 230 255
211 230 255
211 230 255
212 230 255
212 230 255
212 230 255
212 230 255
212 230 255
212 230 255
212 230 255
212 231 255
212 231 255
212 231 255
212 231 255
210 228 252
182 193 200
145 148 129
125 124 85
139 137 95
138 135 93
138 135 93
144 143 99
148 146 102
145 142 99
144 143 99
141 140 97
146 144 100
145 142 98
151 150 105
141 140 98
146 143 98
142 140 95
140 139 95
149 148 103
146 144 99
157 154 106
147 145 100
150 148 103
152 150 104
148 146 100
144 142 99
150 148 99
153 151 103
149 149 103
147 144 98
148 146 99
141 139 96
150 148 103
153 152 104
158 155 107
156 153 104
149 147 99
158 156 108
154 151 104
154 152 104
151 148 101
145 143 96
150 146 99
161 158 107
154 151 104
154 152 103
152 149 99
154 151 100
152 150 103
148 144 96
149 146 99
151 149 102
160 156 105
159 156 106
151 148 101
153 150 103
158 156 104
150 147 101
151 148 100
153 151 101
159 155 104
156 153 104
152 148 101
146 144 98
149 145 98
144 141 96
150 145 97
148 145 97
146 142 96
157 154 105
151 148 99
141 139 94
146 142 96
161 158 107
143 141 93
154 151 101
152 149 101
158 154 106
144 141 93
152 150 99
145 142 94
153 149 99
152 147 97
147 143 94
151 147 96
153 148 98
142 139 93
147 144 96
141 137 91
144 141 95
153 148 98
146 141 92
141 138 91
139 136 89
137 134 89
138 134 89
140 137 90
149 146 95
146 142 94
146 142 95
152 149 99
145 142 94
145 141 93
149 145 93
142 139 89
141 139 92
139 135 85
145 142 93
213 231 255
214 232 255
213 231 255
213 231 255
212 231 255
212 231 255
212 230 255
211 230 255
210 230 255
210 229 255
210 229 254
209 229 255
209 229 255
209 229 255
209 229 255
208 228 255
207 228 255
207 228 255
206 228 255
206 227 255
206 227 255
205 227 255
205 227 255
204 226 255
204 226 255
204 226 255
204 226 255
203 226 255
202 225 255
202 225 255
202 225 255
202 225 255
201 225 255
201 225 255
201 225 255
200 224 255
200 224 255
200 224 255
199 224 255
199 223 255
199 224 255
198 223 255
198 223 255
197 223 255
197 223 255
197 223 255
197 223 255
196 222 255
197 222 255
196 222 255
196 222 255
195 222 255
195 222 255
195 221 255
195 221 255
195 221 255
194 221 255
194 221 255
194 221 255
193 221 255
194 221 255
193 221 255
193 221 255
193 220 255
193 220 255
193 221 255
193 221 255
193 220 255
192 220 255
193 220 255
192 220 255
192 220 255
192 220 255
193 220 255
192 220 255
192 220 255
192 220 255
193 221 255
193 220 255
192 220 255
193 221 255
194 221 255
193 221 255
194 221 255
194 221 255
194 221 255
194 221 255
195 221 255
195 221 255
196 222 255
196 222 255
196 222 255
197 223 255
197 223 255
199 224 255
200 224 255
199 224 255
201 225 255
201 225 255
203 226 255
202 225 254
203 226 254
206 227 255
205 227 255
207 228 255
208 228 253
210 230 254
210 229 252
212 231 254
212 231 255
212 231 255
212 231 255
212 231 255
212 231 255
212 231 255
212 231 255
212 231 255
212 230 255
212 230 255
212 230 255
212 230 255
212 230 255
212 230 255
212 230 255
211 230 255
211 230 255
211 230 255
211 230 255
211 230 255
211 230 255
211 230 255
211 230 255
211 230 255
211 230 255
211 230 255
211 230 255
211 230 255
211 230 255
211 230 255
211 230 255
211 230 255
211 230 255
211 230 255
211 230 255
211 230 255
211 230 255
211 230 255
210 230 255
210 230 255
210 230 255
210 230 255
210 230 255
210 230 255
210 230 255
210 230 255
210 230 255
210 230 255
210 230 255
210 230 255
210 230 255
210 230 255
210 229 255
210 229 255
210 229 255
210 229 255
210 229 255
210 229 255
210 229 255
210 229 255
210 229 255
210 229 255
210 229 255
210 229 255
210 229 255
210 229 255
210 229 255
210 229 255
209 229 255
209 229 255
209 229 255
209 229 255
209 229 255
209 229 255
209 229 255
209 229 255
209 229 255
209 229 255
209 229 255
209 229 255
209 229 255
209 229 255
209 229 255
209 229 255
209 229 255
209 229 255
209 229 255
209 229 255
208 228 255
207 226 253
203 223 250
202 222 250
205 225 252
209 229 255
209 229 255
209 229 255
209 229 255
209 229 255
209 229 255
209 229 255
209 229 255
209 229 255
209 229 255
209 229 255
209 229 255
209 229 255
209 229 255
209 229 255
209 229 255
209 229 255
209 229 255
209 229 255
209 229 255
209 229 255
210 229 255
210 229 255
210 229 255
210 229 255
210 229 255
210 229 255
210 229 255
210 229 255
210 229 255
210 229 255
210 229 255
210 229 255
210 229 255
210 229 255
210 229 255
210 229 255
210 229 255
210 230 255
210 230 255
210 230 255
210 230 255
210 230 255
210 230 255
210 230 255
210 230 255
210 230 255
210 230 255
210 230 255
210 230 255
210 230 255
211 230 255
211 230 255
211 230 255
211 230 255
211 230 255
211 230 255
211 230 255
211 230 255
211 230 255
211 230 255
211 230 255
211 230 255
211 230 255
211 230 255
211 230 255
211 230 255
211 230 255
211 230 255
211 230 255
211 230 255
211 230 255
211 230 255
212 230 255
212 230 255
212 230 255
212 230 255
212 230 255
212 230 255
212 230 255
212 230 255
212 231 255
212 231 255
212 231 255
212 231 255
212 231 255
212 231 255
210 228 252
181 193 204
147 147 116
133 130 90
137 135 94
145 144 100
138 136 95
146 145 101
144 142 99
145 143 99
143 142 98
143 142 98
149 147 101
146 144 99
147 145 101
136 135 94
146 144 99
145 142 98
146 144 100
149 147 101
151 149 102
153 151 103
142 140 98
150 148 103
146 143 98
147 146 101
146 144 99
152 150 103
146 145 101
144 141 97
149 147 98
157 155 107
149 147 100
153 151 104
150 146 100
145 143 97
155 153 106
147 145 100
156 154 104
148 146 99
153 149 100
154 151 101
160 156 106
157 154 105
146 144 98
158 156 107
162 160 108
147 145 98
153 150 103
151 148 100
147 144 97
155 153 105
152 148 99
149 146 97
158 156 107
157 154 105
148 146 99
152 150 101
155 152 103
144 142 96
143 140 94
145 143 98
150 148 99
153 150 101
152 150 102
156 152 101
148 145 96
165 161 110
153 150 97
151 148 99
156 153 101
146 145 95
159 155 103
157 153 102
158 156 105
150 147 97
146 143 96
156 153 104
152 149 98
151 148 99
155 152 101
151 147 96
154 150 97
148 146 99
152 149 100
149 146 98
155 150 100
148 145 95
152 148 96
154 150 99
144 141 95
155 152 102
142 139 93
153 149 97
146 143 95
151 147 98
149 145 98
143 139 92
149 145 93
138 135 87
143 140 89
133 130 85
140 137 88
148 143 96
152 148 99
140 136 89
145 141 94
149 145 93
140 137 91
152 148 99
149 145 96
214 231 255
213 231 255
212 231 255
212 231 255
212 230 255
212 231 255
210 230 255
210 230 255
210 229 255
209 229 255
209 229 255
208 229 255
209 229 255
207 228 254
208 228 255
207 228 255
207 228 255
207 228 255
206 227 255
206 227 255
205 227 255
205 227 255
205 227 255
203 226 255
204 226 255
203 226 255
203 226 255
202 225 255
203 226 255
202 225 255
201 225 255
201 225 255
201 225 255
200 224 255
200 224 255
200 224 255
199 224 255
199 223 255
199 223 255
198 223 255
198 223 255
197 223 255
197 223 255
197 223 255
196 222 255
196 222 255
196 222 255
196 222 255
196 222 255
195 222 255
195 221 255
195 221 255
194 221 255
194 221 255
194 221 255
194 221 255
194 221 255
193 221 255
193 221 255
193 221 255
193 220 255
192 220 255
193 220 255
192 220 255
192 220 255
192 220 255
192 220 255
192 220 255
192 220 255
191 220 255
191 220 255
191 220 255
191 220 255
192 220 255
191 220 255
191 220 255
191 220 255
191 220 255
192 220 255
192 220 255
191 220 255
192 220 255
192 220 255
192 220 255
192 220 255
193 220 255
193 221 255
193 221 255
193 221 255
194 221 255
194 221 255
194 221 255
195 222 255
196 222 255
196 222 255
197 223 255
198 223 255
199 223 254
199 224 255
200 224 255
201 225 255
201 225 255
203 226 255
204 226 255
205 227 255
206 227 255
207 228 255
209 229 255
209 229 253
209 229 250
211 230 255
212 231 255
212 231 255
212 231 255
212 231 255
212 231 255
212 231 255
212 231 255
212 231 255
212 231 255
212 231 255
212 231 255
212 230 255
212 230 255
212 230 255
212 230 255
212 230 255
212 230 255
212 230 255
211 230 255
211 230 255
211 230 255
211 230 255
211 230 255
211 230 255
211 230 255
211 230 255
211 230 255
211 230 255
211 230 255
211 230 255
211 230 255
211 230 255
211 230 255
211 230 255
211 230 255
211 230 255
211 230 255
211 230 255
211 230 255
211 230 255
211 230 255
211 230 255
210 230 255
210 230 255
210 230 255
210 230 255
210 230 255
210 230 255
210 230 255
210 230 255
210 230 255
210 230 255
210 230 255
210 230 255
210 230 255
210 230 255
210 230 255
210 229 255
210 229 255
210 229 255
210 229 255
210 229 255
210 229 255
210 229 255
210 229 255
210 229 255
210 229 255
210 229 255
210 229 255
210 229 255
210 229 255
210 229 255
210 229 255
210 229 255
210 229 255
210 229 255
210 229 255
210 229 255
210 229 255
194 214 244
172 193 230
160 181 218
133 156 206
120 145 199
92 122 184
85 115 179
66 101 175
68 103 175
66 102 173
67 102 173
69 105 179
70 104 173
74 108 178
99 126 184
103 130 187
141 163 206
157 179 219
179 199 234
196 216 246
208 228 254
210 229 255
210 229 255
210 229 255
210 229 255
210 229 255
210 229 255
210 229 255
210 229 255
210 229 255
210 229 255
210 229 255
210 229 255
210 229 255
210 229 255
210 229 255
210 229 255
210 229 255
210 229 255
210 229 255
210 229 255
210 229 255
210 229 255
210 230 255
210 230 255
210 230 255
210 230 255
210 230 255
210 230 255
210 230 255
210 230 255
210 230 255
210 230 255
210 230 255
210 230 255
210 230 255
210 230 255
211 230 255
211 230 255
211 230 255
211 230 255
211 230 255
211 230 255
211 230 255
211 230 255
211 230 255
211 230 255
211 230 255
211 230 255
211 230 255
211 230 255
211 230 255
211 230 255
211 230 255
211 230 255
211 230 255
211 230 255
211 230 255
211 230 255
211 230 255
211 230 255
212 230 255
212 230 255
212 230 255
212 230 255
212 230 255
212 230 255
212 230 255
212 231 255
212 231 255
212 231 255
212 231 255
212 231 255
212 231 255
212 231 255
212 231 255
212 231 255
209 226 248
178 189 197
134 133 106
135 132 90
137 135 93
137 135 93
152 150 103
152 149 104
146 144 100
137 136 94
140 138 95
147 145 100
149 148 102
146 143 99
148 146 100
138 137 95
148 147 101
143 142 99
139 138 95
144 142 97
145 144 99
153 151 105
156 154 107
154 152 105
144 143 99
148 146 99
148 146 100
157 155 107
150 148 102
155 153 105
159 157 108
146 145 99
153 151 104
159 157 109
149 146 97
151 149 102
147 145 99
146 144 98
157 155 106
158 156 106
149 146 100
149 146 101
149 147 99
151 148 101
154 152 103
156 153 105
159 156 106
155 153 104
148 145 100
151 148 100
143 141 95
151 148 101
155 151 101
151 149 101
147 144 97
154 152 104
150 147 98
159 155 103
155 153 103
153 150 100
164 159 107
146 143 96
148 145 99
150 147 100
155 151 101
157 153 102
151 149 100
145 142 93
152 148 99
150 147 99
149 145 98
152 149 99
153 150 101
150 148 98
164 160 108
151 148 99
156 153 104
147 145 99
152 150 100
155 152 101
159 155 106
147 144 95
158 155 104
149 146 98
150 147 98
155 152 101
154 152 101
144 141 92
160 157 105
139 135 89
151 147 99
145 142 93
151 147 98
156 152 99
145 142 91
146 142 95
155 151 100
153 149 98
152 147 98
143 140 93
151 147 96
152 149 99
147 143 96
146 142 94
155 152 101
143 139 87
137 133 89
154 150 101
145 140 90
148 143 94
143 139 89
149 145 96
144 140 90
212 231 255
212 230 255
212 231 255
212 230 255
211 230 255
211 230 255
210 229 255
210 229 255
210 229 255
209 229 255
209 229 255
208 229 255
209 229 255
207 228 255
207 228 255
207 228 255
206 227 255
205 227 255
205 227 255
205 227 255
204 226 255
204 226 255
204 226 255
203 226 255
203 226 255
203 226 255
202 225 255
202 225 255
202 225 255
201 225 255
201 225 255
200 224 255
200 224 255
200 224 255
200 224 255
199 224 255
199 223 255
199 223 255
198 223 255
198 223 255
197 223 255
197 223 255
197 222 255
196 222 255
196 222 255
196 222 255
196 222 255
195 222 255
195 222 255
195 221 255
194 221 255
194 221 255
194 221 255
194 221 255
193 221 255
193 221 255
193 220 255
193 220 255
192 220 255
192 220 255
192 220 255
192 220 255
192 220 255
192 220 255
191 220 255
191 220 255
191 219 255
191 220 255
191 220 255
191 219 255
191 219 255
190 219 255
190 219 255
190 219 255
191 219 255
190 219 255
190 219 255
190 219 255
191 219 255
191 219 255
190 219 255
191 219 255
191 220 255
191 220 255
191 220 255
191 220 255
191 220 255
192 220 255
192 220 255
192 220 255
193 220 255
193 221 255
194 221 255
194 221 255
195 222 255
195 222 255
196 222 255
197 223 255
196 222 255
197 223 255
199 224 255
200 224 255
200 224 255
201 225 254
203 226 255
203 226 254
203 226 253
206 228 255
208 228 255
209 229 254
209 229 252
211 230 254
212 230 252
212 231 255
213 231 255
212 231 255
212 231 255
212 231 255
212 231 255
212 231 255
212 231 255
212 231 255
212 231 255
212 231 255
212 231 255
212 231 255
212 230 255
212 230 255
212 230 255
212 230 255
212 230 255
212 230 255
212 230 255
212 230 255
211 230 255
211 230 255
211 230 255
211 230 255
211 230 255
211 230 255
211 230 255
211 230 255
211 230 255
211 230 255
211 230 255
211 230 255
211 230 255
211 230 255
211 230 255
211 230 255
211 230 255
211 230 255
211 230 255
211 230 255
211 230 255
211 230 255
211 230 255
211 230 255
211 230 255
210 230 255
210 230 255
210 230 255
210 230 255
210 230 255
210 230 255
210 230 255
210 230 255
210 230 255
210 230 255
210 230 255
210 230 255
210 230 255
210 230 255
210 230 255
210 230 255
210 230 255
210 230 255
210 229 255
210 229 255
210 229 255
210 229 255
210 229 255
210 229 255
210 229 255
210 229 255
205 225 252
182 203 235
149 170 211
133 157 206
78 109 173
68 103 174
68 104 177
67 102 173
67 102 168
68 103 171
66 101 167
67 102 172
67 102 169
66 101 168
66 102 170
68 104 171
66 102 173
69 105 180
67 103 173
66 101 169
69 105 176
68 103 172
68 102 170
66 102 172
67 103 171
71 106 179
126 149 198
150 171 214
191 211 242
208 228 254
210 229 255
210 229 255
210 229 255
210 229 255
210 229 255
210 229 255
210 229 255
210 229 255
210 230 255
210 230 255
210 230 255
210 230 255
210 230 255
210 230 255
210 230 255
210 230 255
210 230 255
210 230 255
210 230 255
210 230 255
210 230 255
210 230 255
210 230 255
210 230 255
210 230 255
210 230 255
211 230 255
211 230 255
211 230 255
211 230 255
211 230 255
211 230 255
211 230 255
211 230 255
211 230 255
211 230 255
211 230 255
211 230 255
211 230 255
211 230 255
211 230 255
211 230 255
211 230 255
211 230 255
211 230 255
211 230 255
211 230 255
211 230 255
211 230 255
211 230 255
211 230 255
212 230 255
212 230 255
212 230 255
212 230 255
212 230 255
212 230 255
212 230 255
212 231 255
212 231 255
212 231 255
212 231 255
212 231 255
212 231 255
212 231 255
212 231 255
212 231 255
212 231 255
212 231 255
212 231 255
212 230 254
178 191 203
139 140 117
141 138 96
142 140 96
139 138 97
145 142 97
151 149 104
142 140 97
137 135 94
145 144 100
141 140 97
142 141 96
149 147 101
138 137 95
135 134 93
157 154 107
142 140 96
136 134 93
149 148 102
143 141 97
148 146 99
156 154 106
152 151 105
154 152 105
150 149 104
154 152 105
159 156 107
151 149 102
149 146 101
151 149 101
153 151 103
161 158 109
150 148 101
143 141 97
152 149 103
158 155 105
146 144 99
153 151 105
152 149 101
150 148 100
154 152 104
153 151 103
151 148 101
147 146 99
155 152 103
140 137 94
149 147 101
155 152 104
161 159 107
161 157 106
157 155 104
164 159 108
155 152 103
157 155 105
153 151 100
161 157 107
153 150 99
155 152 104
156 153 102
153 150 102
162 159 108
159 156 106
149 146 99
152 149 100
158 154 102
155 152 103
150 147 99
142 138 93
153 151 102
150 146 98
155 152 100
157 153 101
160 156 103
149 145 96
150 147 99
154 150 99
156 152 103
150 146 97
157 152 99
151 147 98
150 147 94
150 146 98
152 149 99
153 149 97
160 156 104
155 151 102
147 143 94
153 150 101
151 148 99
143 140 93
151 148 98
153 149 99
150 147 96
158 154 104
145 142 93
146 142 95
157 153 99
146 143 95
146 142 94
153 149 98
147 143 93
143 140 89
144 140 89
150 147 96
151 147 99
150 147 96
151 147 98
151 147 97
144 140 91
145 141 93
155 151 100
151 147 96
141 137 87
149 145 93
212 230 255
211 230 255
212 230 255
211 230 255
210 230 255
210 229 255
209 229 255
209 229 255
208 229 255
209 229 255
208 228 255
207 228 255
207 228 255
207 228 255
207 228 255
206 227 255
205 227 255
205 227 255
205 227 255
205 227 255
204 226 255
204 226 255
203 226 255
203 226 255
203 226 255
202 225 255
202 225 255
202 225 255
201 225 255
201 225 255
200 224 255
200 224 255
199 224 255
199 224 255
199 224 255
198 223 255
198 223 255
198 223 255
198 223 255
197 223 255
197 223 255
197 222 255
196 222 255
196 222 255
196 222 255
195 222 255
195 222 255
195 221 255
194 221 255
194 221 255
194 221 255
194 221 255
194 221 255
193 221 255
193 220 255
193 220 254
194 221 255
194 221 255
194 221 254
195 221 254
194 221 253
197 223 254
195 221 250
195 222 253
194 221 254
193 220 254
195 221 254
196 222 253
195 221 253
194 220 252
194 221 253
194 221 253
194 221 255
192 220 252
191 219 254
191 219 255
190 219 255
189 219 255
189 219 255
190 219 255
190 219 255
190 219 255
190 219 255
190 219 255
191 219 255
191 219 255
190 219 255
191 220 255
191 220 255
191 220 255
192 220 255
192 220 255
192 220 255
193 220 255
194 221 255
193 221 255
194 221 255
195 221 255
196 222 255
196 222 255
197 222 255
197 223 255
198 223 255
200 224 255
200 224 255
202 225 255
203 226 255
203 226 255
205 227 255
206 227 254
208 228 255
209 229 253
208 228 254
212 230 253
212 230 252
211 230 253
213 231 255
212 231 255
212 231 255
212 231 255
212 231 255
212 231 255
212 231 255
212 231 255
212 231 255
212 231 255
212 231 255
212 231 255
212 231 255
212 231 255
212 231 255
212 231 255
212 230 255
212 230 255
212 230 255
212 230 255
212 230 255
212 230 255
212 230 255
212 230 255
211 230 255
211 230 255
211 230 255
211 230 255
211 230 255
211 230 255
211 230 255
211 230 255
211 230 255
211 230 255
211 230 255
211 230 255
211 230 255
211 230 255
211 230 255
211 230 255
211 230 255
211 230 255
211 230 255
211 230 255
211 230 255
211 230 255
211 230 255
211 230 255
211 230 255
211 230 255
211 230 255
210 230 255
210 230 255
210 230 255
210 230 255
210 230 255
210 230 255
210 230 255
210 230 255
210 230 255
210 230 255
210 230 255
210 230 255
210 230 255
210 230 255
210 230 255
206 225 251
177 198 233
122 147 198
75 107 177
67 102 171
69 104 177
69 105 177
67 102 171
67 102 173
68 104 174
66 101 169
67 102 170
67 103 174
68 104 170
65 100 169
67 103 172
65 100 168
67 103 172
66 102 170
66 101 171
66 101 167
66 100 165
68 103 172
66 101 166
66 101 171
67 103 169
67 102 168
66 100 169
67 102 170
68 104 175
66 101 173
66 101 168
83 114 182
142 164 209
179 199 232
208 228 254
210 230 255
210 230 255
210 230 255
210 230 255
210 230 255
210 230 255
210 230 255
210 230 255
210 230 255
210 230 255
210 230 255
210 230 255
210 230 255
210 230 255
210 230 255
211 230 255
211 230 255
211 230 255
211 230 255
211 230 255
211 230 255
211 230 255
211 230 255
211 230 255
211 230 255
211 230 255
211 230 255
211 230 255
211 230 255
211 230 255
211 230 255
211 230 255
211 230 255
211 230 255
211 230 255
211 230 255
211 230 255
211 230 255
211 230 255
211 230 255
211 230 255
211 230 255
212 230 255
212 230 255
212 230 255
212 230 255
212 230 255
212 230 255
212 230 255
212 230 255
212 231 255
212 231 255
212 231 255
212 231 255
212 231 255
212 231 255
212 231 255
212 231 255
212 231 255
212 231 255
212 231 255
212 231 255
212 231 255
212 231 255
212 231 255
213 231 255
193 207 221
156 160 143
126 124 85
140 138 95
140 139 97
134 134 93
151 148 103
150 148 102
149 147 102
153 151 105
146 144 100
149 147 103
138 137 96
147 145 99
154 152 105
141 140 98
150 148 101
154 151 104
157 156 109
149 147 100
146 144 99
146 144 99
158 156 108
147 146 99
149 147 101
156 155 106
144 143 100
152 150 102
150 148 101
151 148 101
144 142 98
148 146 99
153 152 104
149 146 99
154 151 105
157 155 105
160 157 107
159 156 108
154 152 105
161 158 108
152 150 102
160 157 107
158 155 106
151 148 100
145 142 94
150 147 101
149 147 100
157 154 103
150 147 99
161 158 108
163 160 110
151 148 100
160 158 108
161 157 107
153 149 101
163 160 110
149 146 99
161 158 107
158 155 104
152 149 101
151 149 99
156 153 103
153 151 101
153 151 104
153 149 99
155 151 101
154 151 101
153 149 101
155 151 101
149 145 99
153 150 101
155 152 101
146 142 93
158 155 102
158 154 105
154 151 100
163 158 104
150 147 96
156 152 101
163 159 104
158 154 103
153 149 99
152 149 101
150 147 96
145 140 93
152 148 97
162 158 104
151 148 96
146 143 94
150 147 99
154 150 99
148 145 95
152 149 96
151 148 97
152 148 96
150 147 95
145 141 93
142 138 88
146 142 88
146 142 94
152 148 98
154 149 98
152 149 97
154 150 101
154 150 100
149 145 94
145 142 93
141 137 92
150 147 97
149 145 96
150 146 98
147 143 93
145 141 89
146 142 92
145 141 91
142 137 90
211 230 254
211 230 255
211 230 255
210 230 255
210 229 255
210 229 255
209 229 255
209 229 255
209 229 255
208 228 255
207 228 255
207 228 255
207 228 255
206 228 255
206 227 255
206 227 255
205 227 255
205 227 255
205 227 255
204 226 255
204 226 255
203 226 255
203 226 255
202 225 255
202 225 255
202 225 255
202 225 255
201 225 255
201 224 255
200 224 255
200 224 255
200 224 255
199 224 255
199 224 255
198 223 255
198 223 255
198 223 255
197 223 255
197 223 255
197 223 255
197 223 255
196 222 255
196 222 255
196 222 255
195 222 255
195 222 255
195 221 255
194 221 255
195 221 254
196 222 252
196 221 253
197 222 252
198 223 253
200 224 255
199 222 242
199 223 247
200 223 252
199 223 251
200 223 247
201 224 248
199 223 250
199 223 248
200 223 250
203 225 251
200 223 248
199 222 250
199 223 247
200 224 251
200 224 252
198 222 246
199 222 246
201 224 254
200 224 248
197 221 247
197 222 250
199 223 246
198 222 251
197 222 252
197 222 251
198 222 250
195 221 250
193 220 252
192 220 255
191 219 254
189 219 255
189 219 255
189 219 255
190 219 255
190 219 255
190 219 255
190 219 255
191 219 255
191 219 255
191 220 255
192 220 255
193 220 255
193 220 255
194 221 255
194 221 255
195 221 255
195 222 255
196 222 255
196 222 255
197 223 255
199 224 255
199 223 255
200 224 255
201 225 255
202 225 255
204 226 255
205 227 255
206 227 255
208 229 255
210 229 255
210 229 252
211 230 252
211 229 253
213 231 255
213 231 255
213 231 255
213 231 255
213 231 255
212 231 255
212 231 255
212 231 255
212 231 255
212 231 255
212 231 255
212 231 255
212 231 255
212 231 255
212 231 255
212 231 255
212 231 255
212 231 255
212 231 255
212 231 255
212 230 255
212 230 255
212 230 255
212 230 255
212 230 255
212 230 255
212 230 255
212 230 255
212 230 255
211 230 255
211 230 255
211 230 255
211 230 255
211 230 255
211 230 255
211 230 255
211 230 255
211 230 255
211 230 255
211 230 255
211 230 255
211 230 255
211 230 255
211 230 255
211 230 255
211 230 255
211 230 255
211 230 255
211 230 255
211 230 255
211 230 255
211 230 255
211 230 255
211 230 255
211 230 255
211 230 255
211 230 255
211 230 255
211 230 255
211 230 255
210 230 255
210 230 255
210 229 255
193 212 242
134 156 202
70 104 170
68 103 173
67 103 174
67 103 174
67 102 170
68 103 173
68 104 176
67 102 168
66 101 169
68 103 175
69 105 177
69 105 177
67 102 170
66 101 164
66 101 161
69 104 174
67 103 173
68 103 172
67 102 171
67 102 172
66 101 169
65 100 162
66 100 167
66 101 169
65 100 167
68 104 174
65 100 163
69 104 177
66 100 166
67 103 172
66 100 168
65 99 163
68 103 172
68 105 174
66 101 168
78 108 171
127 150 200
194 213 242
210 230 255
210 230 255
210 230 255
211 230 255
211 230 255
211 230 255
211 230 255
211 230 255
211 230 255
211 230 255
211 230 255
211 230 255
211 230 255
211 230 255
211 230 255
211 230 255
211 230 255
211 230 255
211 230 255
211 230 255
211 230 255
211 230 255
211 230 255
211 230 255
211 230 255
211 230 255
211 230 255
211 230 255
211 230 255
211 230 255
211 230 255
211 230 255
211 230 255
211 230 255
212 230 255
212 230 255
212 230 255
212 230 255
212 230 255
212 230 255
212 230 255
212 230 255
212 230 255
212 231 255
212 231 255
212 231 255
212 231 255
212 231 255
212 231 255
212 231 255
212 231 255
212 231 255
212 231 255
212 231 255
212 231 255
212 231 255
212 231 255
212 231 255
213 231 255
213 231 255
213 231 255
213 231 255
209 226 247
169 176 170
132 130 89
137 135 93
135 133 91
148 145 99
144 142 98
140 137 94
148 145 100
150 148 103
138 137 95
141 139 96
141 139 96
155 153 105
144 142 99
142 140 96
144 143 97
149 147 102
153 151 104
143 141 97
149 148 103
148 145 101
151 150 102
148 146 101
154 152 104
158 156 107
149 147 102
150 147 99
151 149 103
150 149 102
146 144 99
152 150 103
158 155 106
147 145 98
159 156 106
158 156 107
148 146 98
152 149 101
151 148 100
161 158 109
152 149 102
149 147 99
167 164 112
155 152 101
153 151 102
147 146 100
154 151 101
160 156 107
159 155 104
156 154 104
149 148 99
157 153 104
157 154 102
158 154 104
152 150 101
156 153 103
153 150 101
158 155 105
161 157 106
159 156 106
150 147 101
159 154 104
151 149 99
160 156 103
157 153 103
154 152 105
152 149 99
160 156 101
150 147 99
154 151 101
153 150 101
149 145 94
160 158 108
153 151 101
158 154 101
149 146 96
154 150 98
151 147 95
158 153 104
156 153 102
150 148 100
157 154 101
155 152 100
158 154 103
147 145 96
146 143 95
153 149 99
153 150 99
158 154 101
152 148 96
145 142 92
152 149 99
156 152 98
152 148 99
148 145 95
158 155 102
160 156 103
144 140 91
144 140 92
152 148 97
136 133 89
157 153 99
141 138 89
147 144 97
150 146 94
156 152 100
146 143 95
154 150 96
142 138 89
144 140 93
151 148 99
146 143 94
145 141 87
159 154 101
152 148 96
158 154 102
147 143 91
137 134 88
211 230 255
211 230 255
210 230 255
210 229 255
209 229 255
209 229 255
209 229 255
208 229 255
208 228 255
208 228 255
207 228 255
207 228 255
206 227 255
206 227 255
205 227 255
205 227 255
205 227 255
204 226 255
204 226 255
204 226 255
203 226 255
203 226 255
203 226 255
202 225 255
202 225 255
201 225 255
201 225 255
201 225 255
200 224 255
200 224 255
200 224 255
199 224 255
199 223 255
199 223 255
198 223 255
198 223 255
198 223 255
197 223 255
197 223 255
196 222 255
196 222 255
196 222 255
196 222 255
196 222 255
196 222 252
198 222 251
201 224 252
200 223 246
202 224 250
203 225 254
203 225 250
200 223 250
202 224 251
200 223 247
203 225 248
203 225 250
199 221 240
199 223 246
202 224 248
203 225 251
202 224 250
201 224 250
202 225 252
200 222 246
201 224 251
202 224 250
201 224 247
199 222 241
199 223 246
201 224 245
199 223 247
199 222 245
200 223 248
198 222 250
202 225 251
200 223 246
200 224 251
200 224 250
199 222 246
198 222 248
199 223 250
201 224 252
198 222 248
199 223 247
197 222 252
196 221 247
192 218 247
191 219 252
190 219 254
189 219 255
190 219 255
190 219 255
190 219 255
190 219 255
190 219 255
191 220 255
191 220 255
192 220 255
192 220 255
193 220 255
194 221 255
195 222 255
194 221 255
196 222 255
196 222 255
197 223 255
198 223 255
199 223 255
200 224 255
200 224 254
203 226 255
204 226 255
205 227 255
208 228 255
209 229 255
211 230 254
210 229 252
212 231 254
213 231 255
213 231 255
213 231 255
213 231 255
213 231 255
213 231 255
213 231 255
213 231 255
213 231 255
212 231 255
212 231 255
212 231 255
212 231 255
212 231 255
212 231 255
212 231 255
212 231 255
212 231 255
212 231 255
212 231 255
212 231 255
212 231 255
212 231 255
212 231 255
212 231 255
212 230 255
212 230 255
212 230 255
212 230 255
212 230 255
212 230 255
212 230 255
212 230 255
212 230 255
211 230 255
211 230 255
211 230 255
211 230 255
211 230 255
211 230 255
211 230 255
211 230 255
211 230 255
211 230 255
211 230 255
211 230 255
211 230 255
211 230 255
211 230 255
211 230 255
211 230 255
211 230 255
211 230 255
211 230 255
211 230 255
211 230 255
211 230 255
211 230 255
211 230 255
207 226 253
173 193 227
104 131 188
67 103 175
67 103 171
66 101 170
67 102 169
68 104 175
67 102 170
66 101 167
68 104 168
68 103 174
66 101 165
65 100 168
66 100 165
65 98 162
67 103 171
66 101 166
68 103 172
68 104 172
67 102 165
67 103 172
68 103 170
67 102 171
68 104 172
68 104 174
66 100 162
67 102 169
67 102 168
65 100 163
67 102 172
65 99 162
65 100 169
67 103 167
66 101 165
63 97 161
66 101 170
65 100 164
66 101 166
67 102 171
65 100 167
67 103 175
67 103 175
109 135 190
179 198 230
207 226 253
211 230 255
211 230 255
211 230 255
211 230 255
211 230 255
211 230 255
211 230 255
211 230 255
211 230 255
211 230 255
211 230 255
211 230 255
211 230 255
211 230 255
211 230 255
211 230 255
211 230 255
211 230 255
211 230 255
211 230 255
211 230 255
211 230 255
211 230 255
211 230 255
211 230 255
212 230 255
212 230 255
212 230 255
212 230 255
212 230 255
212 230 255
212 230 255
212 230 255
212 230 255
212 231 255
212 231 255
212 231 255
212 231 255
212 231 255
212 231 255
212 231 255
212 231 255
212 231 255
212 231 255
212 231 255
212 231 255
212 231 255
212 231 255
212 231 255
212 231 255
213 231 255
213 231 255
213 231 255
213 231 255
213 231 255
213 231 255
213 231 255
212 230 253
179 191 200
131 129 95
136 133 92
146 144 99
138 137 95
136 135 94
137 135 93
141 139 97
148 146 101
141 139 96
137 135 92
154 152 106
146 144 99
150 148 101
150 148 103
148 146 101
149 148 101
153 152 106
151 150 105
153 151 105
155 152 105
161 158 108
155 152 105
153 151 103
158 155 106
148 147 101
154 152 105
157 155 107
158 156 108
157 155 107
159 157 108
149 147 101
152 149 102
149 146 100
159 156 105
157 155 105
156 154 105
153 151 102
149 147 100
157 155 106
150 147 99
157 154 104
151 149 103
160 156 105
158 155 104
154 152 102
150 147 101
162 159 109
157 154 105
163 159 108
160 157 107
147 144 96
160 157 108
150 147 99
164 161 110
164 161 108
158 155 105
164 161 110
156 153 105
163 160 107
160 157 106
164 160 109
161 157 105
160 156 104
160 156 106
154 151 103
161 157 106
157 153 102
147 144 94
159 154 104
168 164 110
148 145 99
158 154 102
158 155 104
147 144 97
153 150 98
147 143 93
156 152 101
167 162 109
157 154 104
157 153 102
156 152 100
154 150 99
144 140 91
149 145 96
155 151 99
154 150 99
156 152 100
147 144 96
161 157 104
158 154 100
159 155 102
153 150 99
150 147 99
160 156 104
154 151 100
148 144 96
157 153 101
156 151 99
149 144 96
151 147 96
150 146 98
157 154 100
154 149 98
150 146 96
156 152 99
153 149 93
153 149 99
152 148 96
153 149 97
149 145 94
146 142 96
153 149 96
147 144 90
150 146 96
154 150 99
150 147 99
140 136 88
151 147 95
210 230 255
210 230 255
210 230 255
209 229 255
209 229 255
209 229 255
208 229 255
208 228 255
208 228 255
207 228 255
207 228 255
206 228 255
206 227 255
206 227 255
205 227 255
205 227 255
205 227 255
204 226 255
204 226 255
203 226 255
203 226 255
203 226 255
202 225 255
202 225 255
202 225 255
201 225 255
201 225 255
201 225 255
200 224 255
200 224 255
200 224 255
200 224 255
199 224 255
198 223 255
198 223 255
198 223 255
198 223 255
197 223 255
197 223 255
197 222 253
199 223 254
201 224 250
200 223 247
203 226 252
202 225 250
201 224 251
201 224 241
201 223 246
203 225 247
205 227 254
200 222 241
201 224 246
202 224 250
204 226 253
201 224 246
201 224 247
201 224 248
200 223 247
200 223 242
201 223 245
203 226 252
202 225 251
202 224 245
201 224 246
201 223 247
202 224 248
202 225 253
201 224 248
201 223 248
200 223 247
203 225 246
203 225 251
202 224 250
199 222 240
201 224 247
199 223 253
199 223 250
200 223 246
201 224 250
203 225 250
199 223 248
199 223 248
198 222 247
199 223 251
198 223 250
201 225 253
200 223 247
198 223 252
199 223 254
197 222 252
195 221 252
193 220 253
191 219 255
190 219 255
190 219 255
190 219 255
190 219 255
191 220 255
191 220 255
192 220 255
192 220 255
193 220 255
194 221 255
195 221 255
195 222 255
196 222 255
197 223 255
197 223 255
199 224 255
199 224 255
201 225 255
202 225 255
203 226 255
205 227 255
205 227 255
208 228 255
210 229 255
211 230 255
211 230 253
212 230 253
213 231 255
213 231 255
213 231 255
213 231 255
213 231 255
213 231 255
213 231 255
213 231 255
213 231 255
213 231 255
213 231 255
213 231 255
212 231 255
212 231 255
212 231 255
212 231 255
212 231 255
212 231 255
212 231 255
212 231 255
212 231 255
212 231 255
212 231 255
212 231 255
212 231 255
212 231 255
212 231 255
212 231 255
212 230 255
212 230 255
212 230 255
212 230 255
212 230 255
212 230 255
212 230 255
212 230 255
212 230 255
212 230 255
212 230 255
211 230 255
211 230 255
211 230 255
211 230 255
211 230 255
211 230 255
211 230 255
211 230 255
211 230 255
211 230 255
211 230 255
211 230 255
211 230 255
211 230 255
211 230 255
211 230 255
208 228 254
168 189 226
99 126 183
64 98 164
67 102 171
67 102 170
68 103 172
67 102 165
67 103 167
68 104 171
67 102 167
69 105 175
68 103 171
69 106 175
67 102 167
66 101 169
67 102 165
67 103 170
68 104 169
67 103 169
67 103 169
66 102 165
66 101 163
64 98 160
67 103 171
65 100 163
65 100 168
67 102 170
64 98 160
69 105 172
64 98 158
63 97 158
67 102 167
64 97 163
67 103 172
68 103 172
66 101 165
67 101 168
64 98 162
68 103 170
66 101 165
63 97 158
67 102 165
67 103 169
64 98 166
66 100 168
67 102 170
93 122 183
177 196 230
207 227 253
211 230 255
211 230 255
211 230 255
211 230 255
211 230 255
211 230 255
211 230 255
211 230 255
211 230 255
211 230 255
211 230 255
211 230 255
211 230 255
211 230 255
211 230 255
211 230 255
212 230 255
212 230 255
212 230 255
212 230 255
212 230 255
212 230 255
212 230 255
212 230 255
212 230 255
212 230 255
212 231 255
212 231 255
212 231 255
212 231 255
212 231 255
212 231 255
212 231 255
212 231 255
212 231 255
212 231 255
212 231 255
212 231 255
212 231 255
212 231 255
212 231 255
212 231 255
213 231 255
213 231 255
213 231 255
213 231 255
213 231 255
213 231 255
213 231 255
213 231 255
213 231 255
213 231 255
213 231 255
213 231 255
199 214 232
151 153 133
145 143 99
140 139 96
125 124 87
138 136 94
153 150 104
141 139 97
146 144 100
149 147 101
141 139 97
137 136 95
136 135 92
143 141 98
141 139 96
145 144 100
151 149 104
147 146 100
147 145 100
151 148 103
147 145 99
150 149 104
142 140 96
150 149 102
144 143 99
151 149 103
155 152 105
148 147 99
152 150 103
156 153 106
151 149 102
146 144 99
155 153 106
152 149 101
151 148 100
148 145 98
149 148 103
151 149 101
154 152 105
145 142 98
150 148 101
156 154 104
154 151 103
157 153 104
157 154 104
155 152 104
156 154 104
155 152 103
150 147 101
157 154 105
155 152 104
158 155 105
154 152 103
154 152 103
163 160 108
159 156 107
164 161 110
160 158 107
154 151 102
150 148 101
153 149 100
151 148 101
166 162 108
157 153 104
158 155 106
165 161 108
151 148 98
164 160 108
150 148 101
158 154 102
157 155 105
166 163 107
156 153 101
162 158 104
162 158 106
157 152 97
153 150 100
162 158 104
154 151 100
157 154 101
149 147 98
155 151 100
148 145 95
154 151 99
161 157 105
156 153 101
159 155 100
158 155 102
148 145 96
152 148 98
155 152 100
159 155 103
163 159 104
150 147 99
157 152 101
153 149 98
159 155 99
156 153 101
154 150 97
150 146 96
156 151 96
155 151 100
147 143 93
151 148 95
153 148 97
151 147 93
157 153 102
149 146 96
149 144 94
153 150 95
152 148 98
146 142 94
149 145 93
157 152 98
150 146 96
138 135 86
153 149 98
144 140 92
146 142 93
150 147 94
146 142 91
210 230 255
210 229 255
210 230 255
210 229 255
209 229 255
209 229 255
208 228 255
208 228 255
207 228 255
207 228 255
206 228 255
206 227 255
206 227 255
206 227 255
205 227 255
205 227 255
204 226 255
204 226 255
203 226 255
204 226 255
203 226 255
203 226 255
202 225 255
202 225 255
202 225 255
201 225 255
201 225 255
200 224 255
200 224 255
200 224 255
199 224 255
199 224 255
199 223 255
198 223 255
198 223 255
198 223 255
199 224 254
199 223 247
201 224 250
202 225 251
203 225 252
204 225 248
204 226 253
204 226 252
203 225 250
203 226 253
203 225 251
204 226 250
202 224 242
204 225 248
203 225 246
204 226 251
203 225 246
203 225 248
204 226 250
203 225 248
204 226 252
202 225 247
204 225 247
204 225 246
202 224 247
204 226 251
202 223 244
204 226 250
202 224 247
200 223 242
203 225 247
203 225 248
204 225 250
204 226 250
202 225 248
202 225 247
204 226 253
202 225 253
202 224 245
199 222 240
201 224 248
202 225 251
203 225 253
200 224 250
202 225 247
201 224 246
200 224 250
200 224 248
201 224 246
200 224 250
199 223 247
199 223 248
198 221 242
199 223 246
200 223 250
200 223 248
199 223 248
197 222 251
196 222 251
193 220 251
190 219 255
190 219 255
190 219 255
191 219 255
191 220 255
192 220 255
192 220 255
193 220 255
194 221 255
194 221 255
195 222 255
196 222 255
197 223 255
198 223 255
199 223 255
201 224 255
201 225 255
202 225 255
203 226 255
205 227 255
207 228 255
208 228 255
210 230 254
209 229 253
213 231 254
213 231 255
213 231 255
213 231 255
213 231 255
213 231 255
213 231 255
213 231 255
213 231 255
213 231 255
213 231 255
213 231 255
213 231 255
213 231 255
213 231 255
213 231 255
213 231 255
213 231 255
212 231 255
212 231 255
212 231 255
212 231 255
212 231 255
212 231 255
212 231 255
212 231 255
212 231 255
212 231 255
212 231 255
212 231 255
212 231 255
212 231 255
212 231 255
212 231 255
212 231 255
212 231 255
212 230 255
212 230 255
212 230 255
212 230 255
212 230 255
212 230 255
212 230 255
212 230 255
212 230 255
212 230 255
212 230 255
211 230 255
211 230 255
211 230 255
211 230 255
211 230 255
211 230 255
211 230 255
186 206 236
107 132 184
69 106 179
68 103 170
68 103 168
67 103 167
66 100 162
67 103 169
68 103 169
68 103 170
68 104 172
67 102 170
68 103 165
66 101 162
67 102 168
67 102 165
67 102 168
68 103 170
68 103 173
68 104 176
68 103 169
66 101 162
65 100 160
68 104 172
65 99 161
67 102 165
65 99 158
67 102 167
66 100 160
67 102 166
67 103 166
67 102 163
68 104 163
67 101 165
67 102 166
69 104 174
67 101 163
66 101 168
65 99 164
63 97 158
66 99 163
66 101 164
67 101 166
65 98 161
65 100 166
66 101 168
67 102 168
62 94 156
66 101 168
67 102 165
105 130 187
175 194 227
211 230 255
211 230 255
211 230 255
211 230 255
211 230 255
211 230 255
211 230 255
212 230 255
212 230 255
212 230 255
212 230 255
212 230 255
212 230 255
212 230 255
212 230 255
212 230 255
212 230 255
212 230 255
212 231 255
212 231 255
212 231 255
212 231 255
212 231 255
212 231 255
212 231 255
212 231 255
212 231 255
212 231 255
212 231 255
212 231 255
212 231 255
212 231 255
212 231 255
212 231 255
212 231 255
212 231 255
213 231 255
213 231 255
213 231 255
213 231 255
213 231 255
213 231 255
213 231 255
213 231 255
213 231 255
213 231 255
213 231 255
213 231 255
213 231 255
213 231 255
213 231 255
213 230 254
181 190 193
138 137 97
141 139 97
139 137 95
147 145 100
145 143 100
144 141 96
140 139 96
143 142 99
142 142 99
138 136 95
139 138 96
140 139 96
146 144 99
141 140 98
143 142 99
146 144 100
140 138 96
155 153 106
155 152 105
155 153 105
150 148 102
149 147 101
148 147 103
158 155 107
155 152 105
151 148 101
149 147 101
146 143 99
156 154 105
154 151 103
158 156 107
158 155 106
153 151 102
153 151 104
155 153 103
159 157 107
152 149 101
152 150 103
150 147 100
156 153 104
155 152 102
149 146 100
166 163 112
148 146 101
157 154 106
155 152 103
154 151 103
160 157 107
159 156 104
162 160 107
160 156 104
158 155 103
161 158 107
152 151 101
146 143 95
167 164 112
163 159 104
157 154 106
160 157 106
160 156 103
162 158 104
151 148 100
157 155 104
160 157 104
162 159 108
157 153 101
166 163 110
163 160 107
154 151 102
163 159 104
159 155 104
156 152 103
160 157 103
154 150 101
158 155 102
159 156 106
158 154 106
160 156 102
153 150 99
159 155 102
159 156 102
163 159 105
158 154 101
162 158 106
160 155 103
152 148 96
167 163 109
155 151 101
156 152 99
155 151 96
147 145 98
153 149 97
156 152 100
161 157 101
158 153 95
154 149 98
154 151 99
153 149 96
157 153 101
153 149 97
149 146 95
148 144 93
152 147 94
149 145 93
157 153 104
154 150 98
146 143 93
146 142 93
150 146 93
150 146 95
149 147 96
146 142 92
150 146 96
148 145 93
155 151 99
149 146 97
149 144 93
148 144 93
150 145 92
140 136 86
151 147 95
210 230 255
210 229 255
209 229 255
209 229 255
208 229 255
209 229 255
208 228 255
208 228 255
207 228 255
207 228 255
206 228 255
206 227 255
205 227 255
206 227 255
205 227 255
205 227 255
204 226 255
204 226 255
203 226 255
203 226 255
203 226 255
202 225 255
202 225 255
202 225 255
201 225 255
201 225 255
200 224 255
200 224 255
200 224 255
199 224 255
199 224 255
199 223 255
199 224 254
201 225 255
201 224 251
206 227 253
205 226 254
205 226 251
204 226 250
203 225 246
205 227 251
203 225 246
204 226 250
204 226 251
204 226 248
204 226 248
203 225 250
205 226 252
204 226 250
203 225 250
204 225 246
205 226 253
206 227 255
203 224 242
204 226 252
205 227 251
201 223 244
204 225 250
202 224 244
205 226 251
203 224 242
200 222 236
201 223 244
200 222 240
200 222 240
198 220 233
199 221 236
200 222 237
200 223 241
199 221 232
201 223 242
199 222 240
198 221 237
200 222 239
196 219 231
199 222 240
200 223 241
199 222 235
201 224 246
199 222 242
201 224 251
200 223 244
202 224 247
203 225 251
202 224 247
201 224 251
200 223 247
202 225 252
201 224 248
200 224 248
200 223 246
197 221 246
200 223 248
198 222 246
199 223 242
199 223 251
197 222 245
198 223 251
193 220 253
191 219 255
190 219 255
191 219 255
191 220 255
191 220 255
192 220 255
193 221 255
194 221 255
195 221 255
195 222 255
196 222 255
197 223 255
198 223 255
199 224 255
200 224 255
202 225 255
203 226 254
204 226 255
206 227 254
208 228 255
209 229 255
210 229 255
212 230 254
212 230 253
214 231 254
213 231 255
213 231 255
213 231 255
213 231 255
213 231 255
213 231 255
213 231 255
213 231 255
213 231 255
213 231 255
213 231 255
213 231 255
213 231 255
213 231 255
213 231 255
213 231 255
213 231 255
213 231 255
213 231 255
213 231 255
212 231 255
212 231 255
212 231 255
212 231 255
212 231 255
212 231 255
212 231 255
212 231 255
212 231 255
212 231 255
212 231 255
212 231 255
212 231 255
212 231 255
212 231 255
212 231 255
212 231 255
212 231 255
212 231 255
212 231 255
212 230 255
212 230 255
212 230 255
212 230 255
212 230 255
212 230 255
212 230 255
212 230 255
199 218 245
132 155 202
66 101 170
67 102 172
68 104 174
68 104 172
67 102 165
66 101 169
68 103 173
66 100 167
67 102 170
68 104 165
68 104 171
67 103 171
68 104 172
67 102 166
67 102 169
67 101 168
66 100 158
67 103 170
67 102 168
64 98 158
68 103 166
67 101 162
66 100 166
65 100 161
69 105 167
67 101 165
69 106 174
66 101 164
68 103 165
67 102 169
65 98 156
67 102 166
68 104 170
68 104 168
66 100 167
66 100 159
67 103 168
67 102 165
65 98 159
68 104 169
66 100 166
66 101 167
69 104 172
67 102 170
64 98 164
67 102 171
66 101 168
68 103 169
67 102 168
67 103 171
66 101 171
67 102 169
130 153 198
197 216 244
212 230 255
212 230 255
212 230 255
212 230 255
212 230 255
212 230 255
212 230 255
212 230 255
212 231 255
212 231 255
212 231 255
212 231 255
212 231 255
212 231 255
212 231 255
212 231 255
212 231 255
212 231 255
212 231 255
212 231 255
212 231 255
212 231 255
212 231 255
212 231 255
212 231 255
212 231 255
212 231 255
212 231 255
213 231 255
213 231 255
213 231 255
213 231 255
213 231 255
213 231 255
213 231 255
213 231 255
213 231 255
213 231 255
213 231 255
213 231 255
213 231 255
213 231 255
213 231 255
213 231 255
213 231 255
213 231 255
213 231 255
213 231 255
202 217 234
156 160 148
139 136 94
141 139 95
138 135 94
138 137 94
150 147 103
150 148 102
138 138 97
144 142 99
141 140 97
126 125 88
139 137 95
147 145 100
140 138 95
152 150 103
149 147 102
148 146 101
156 154 105
149 147 102
152 149 102
143 142 99
152 150 101
149 147 101
149 147 101
153 151 104
146 145 102
146 145 99
158 155 106
159 156 108
154 152 105
154 152 103
156 153 105
156 153 104
145 143 99
155 153 104
152 150 102
152 150 102
162 158 108
156 153 106
160 157 107
161 158 107
157 154 105
157 154 105
163 161 110
157 154 104
163 159 106
160 157 108
157 155 105
164 161 106
157 154 105
157 155 106
163 160 105
166 162 110
154 152 103
160 157 106
159 156 106
160 156 106
159 156 106
156 154 104
152 149 97
150 148 101
151 148 101
159 156 103
166 162 110
153 150 99
158 153 101
161 158 108
152 149 101
155 152 100
165 161 108
162 158 105
158 154 101
157 153 101
161 157 103
164 159 106
160 156 104
156 151 98
151 147 97
158 154 103
159 155 103
154 151 100
159 155 104
153 150 100
157 154 103
154 151 101
151 148 97
160 157 106
155 151 101
162 159 108
154 151 100
145 141 90
154 151 99
158 154 103
151 148 99
161 157 101
153 150 101
166 161 105
156 152 100
152 148 96
154 150 98
158 154 99
151 147 96
151 147 96
153 149 96
145 141 92
149 146 97
152 148 94
149 145 93
157 153 99
153 149 97
151 147 94
153 149 99
146 142 93
149 144 93
156 151 94
151 147 95
148 144 91
149 145 92
150 146 95
150 146 94
146 141 91
142 137 89
154 149 93
210 229 255
209 229 255
209 229 255
209 229 255
208 229 255
208 228 255
207 228 255
207 228 255
207 228 255
206 228 255
206 227 255
206 227 255
206 227 255
205 227 255
205 227 255
204 226 255
204 226 255
204 226 255
203 226 255
203 226 255
203 226 255
202 225 255
202 225 255
202 225 255
201 225 255
201 225 255
201 225 255
200 224 255
200 224 255
199 224 255
201 225 255
203 225 254
204 226 253
204 225 248
205 226 248
205 226 247
205 226 250
205 226 248
205 226 247
206 226 250
205 226 245
205 226 247
206 227 251
204 226 250
203 225 247
203 225 247
202 224 245
205 227 252
205 226 247
204 225 245
205 226 250
205 226 247
204 225 246
203 225 244
200 222 242
201 223 242
201 224 244
200 222 239
200 223 241
202 224 241
201 222 240
202 224 246
202 224 245
201 223 242
201 223 241
201 224 245
202 224 245
203 225 246
200 222 241
203 225 250
202 224 247
199 222 244
200 223 242
200 223 240
201 223 244
200 223 242
200 222 244
201 223 242
196 218 227
200 223 244
199 222 240
201 224 247
201 223 244
199 222 240
198 220 237
200 223 245
198 222 244
200 223 244
197 220 237
202 225 248
202 224 246
200 223 248
202 224 248
199 223 245
201 224 250
200 224 250
202 225 250
197 221 244
200 224 250
199 223 251
197 222 251
193 220 253
191 219 255
191 219 255
191 220 255
192 220 255
192 220 255
194 221 255
194 221 255
195 221 255
196 222 255
196 222 255
198 223 255
198 223 255
200 224 255
201 225 255
202 225 255
203 226 255
205 227 255
207 228 255
209 229 255
209 229 255
210 229 254
213 231 252
214 232 255
213 231 255
213 231 255
213 231 255
213 231 255
213 231 255
213 231 255
213 231 255
213 231 255
213 231 255
213 231 255
213 231 255
213 231 255
213 231 255
213 231 255
213 231 255
213 231 255
213 231 255
213 231 255
213 231 255
213 231 255
213 231 255
213 231 255
213 231 255
213 231 255
213 231 255
213 231 255
212 231 255
212 231 255
212 231 255
212 231 255
212 231 255
212 231 255
212 231 255
212 231 255
212 231 255
212 231 255
212 231 255
212 231 255
212 231 255
212 231 255
212 231 255
212 231 255
212 231 255
212 231 255
212 231 255
211 230 255
164 184 223
75 109 181
66 101 167
67 102 169
66 101 167
67 102 165
68 103 167
68 103 170
64 97 151
68 104 168
68 103 167
67 102 164
69 104 169
66 101 162
67 103 170
67 102 170
68 103 169
67 102 165
67 102 168
66 100 162
65 99 159
67 102 168
67 101 162
68 103 170
67 102 162
66 101 163
67 102 160
67 101 159
68 103 168
68 104 172
66 100 158
64 98 161
66 101 163
68 103 166
65 100 161
67 102 167
67 101 167
64 97 159
66 100 166
67 102 161
67 101 167
69 104 171
65 99 163
67 101 164
65 99 161
67 102 168
65 99 164
67 102 169
65 100 164
64 97 158
67 102 169
67 102 169
65 99 160
66 101 169
65 99 162
66 100 168
69 101 168
162 182 217
210 229 254
212 231 255
212 231 255
212 231 255
212 231 255
212 231 255
212 231 255
212 231 255
212 231 255
212 231 255
212 231 255
212 231 255
212 231 255
212 231 255
212 231 255
212 231 255
212 231 255
212 231 255
212 231 255
212 231 255
213 231 255
213 231 255
213 231 255
213 231 255
213 231 255
213 231 255
213 231 255
213 231 255
213 231 255
213 231 255
213 231 255
213 231 255
213 231 255
213 231 255
213 231 255
213 231 255
213 231 255
213 231 255
213 231 255
213 231 255
213 231 255
213 231 255
213 231 255
213 231 255
213 231 255
213 231 255
189 201 210
137 137 108
146 143 98
135 133 91
140 137 94
136 134 93
137 136 95
145 144 100
142 140 97
143 141 97
148 147 103
141 140 97
149 148 104
149 148 103
139 138 96
153 150 104
150 148 103
147 145 100
149 146 100
151 149 101
155 153 105
148 145 98
160 158 110
144 142 98
151 148 100
152 150 103
154 152 106
162 159 108
161 158 108
149 147 100
152 150 104
145 143 99
156 154 103
153 150 102
167 165 112
159 156 107
152 149 100
156 153 103
152 149 102
155 151 104
156 154 104
155 153 104
161 157 107
162 159 108
163 161 109
159 157 106
160 157 107
148 145 96
157 155 103
152 149 99
156 153 103
160 156 105
163 159 106
157 154 104
159 157 105
165 161 109
162 158 107
162 158 104
163 160 106
164 160 105
161 157 105
163 159 107
157 153 100
153 150 100
146 142 95
156 153 101
159 156 106
154 151 101
154 150 101
164 161 107
162 159 105
168 164 110
158 155 103
165 160 104
154 150 101
148 144 94
156 152 102
166 161 108
160 157 104
162 158 102
160 156 105
160 155 101
155 152 101
154 150 100
156 152 100
160 155 103
162 158 105
163 160 103
159 154 99
161 158 104
156 152 101
154 150 99
158 155 104
158 155 100
157 152 102
153 148 96
156 152 96
158 153 101
158 155 103
152 149 98
150 146 97
151 147 95
150 145 94
152 149 98
156 152 99
148 145 94
150 146 94
151 146 92
155 151 94
148 145 87
157 153 99
152 147 96
156 152 101
161 156 99
161 156 103
144 140 89
152 148 95
151 147 95
159 154 96
154 150 98
148 143 90
154 150 97
150 146 93
147 143 93
152 147 94
209 229 255
210 229 255
209 229 255
208 229 255
208 229 255
208 228 255
208 228 255
207 228 255
207 228 255
206 227 255
206 227 255
206 227 255
205 227 255
205 227 255
205 227 255
204 226 255
204 226 255
204 226 255
203 226 255
203 226 255
203 226 255
202 225 255
202 225 255
201 225 255
201 225 255
201 225 255
200 224 255
200 224 254
204 226 253
203 225 251
205 226 250
206 226 248
204 225 251
205 226 247
205 227 252
205 226 251
205 225 245
206 227 251
205 226 244
204 224 244
204 224 246
206 227 248
205 226 251
206 227 251
206 227 252
206 226 247
205 226 251
205 226 247
201 222 236
203 224 241
202 224 241
201 223 237
201 222 240
204 226 247
202 224 239
202 224 244
202 223 244
199 221 236
203 225 246
202 224 240
203 225 245
202 224 240
202 224 242
202 224 245
203 224 244
204 226 251
200 222 237
200 222 239
200 222 241
202 224 241
202 224 246
201 223 240
202 225 246
203 225 247
199 221 239
202 224 251
198 220 235
201 224 244
201 224 245
200 222 240
201 224 245
201 223 241
199 221 239
201 224 246
199 222 241
202 224 246
199 221 241
200 223 244
197 220 237
199 222 235
198 221 237
198 221 237
198 221 245
202 225 251
199 222 247
202 225 252
202 225 252
200 223 248
199 223 251
199 223 244
200 223 246
199 224 253
197 222 244
194 221 253
192 220 254
191 220 255
192 220 255
192 220 255
193 220 255
193 221 255
194 221 255
196 222 255
196 222 255
197 223 255
198 223 255
200 224 255
200 224 255
201 225 255
203 226 255
206 227 255
206 228 255
207 228 254
210 229 255
211 230 255
212 230 254
213 231 254
214 231 255
214 231 255
214 231 255
214 231 255
214 231 255
213 231 255
213 231 255
213 231 255
213 231 255
213 231 255
213 231 255
213 231 255
213 231 255
213 231 255
213 231 255
213 231 255
213 231 255
213 231 255
213 231 255
213 231 255
213 231 255
213 231 255
213 231 255
213 231 255
213 231 255
213 231 255
213 231 255
213 231 255
213 231 255
213 231 255
213 231 255
213 231 255
213 231 255
212 231 255
212 231 255
212 231 255
212 231 255
212 231 255
212 231 255
212 231 255
212 231 255
212 231 255
212 231 255
203 222 248
122 146 195
66 101 164
63 97 162
67 103 171
67 102 167
67 101 165
65 99 158
66 100 164
67 101 169
67 101 166
67 103 165
67 103 161
65 99 162
68 103 171
68 103 166
66 100 166
66 100 160
67 102 163
67 102 168
66 101 163
67 102 167
67 102 166
68 103 167
67 102 169
66 101 161
64 98 155
67 102 167
66 101 161
66 101 161
66 101 164
66 101 165
65 99 160
68 103 167
67 101 159
65 99 156
67 102 168
66 100 164
67 101 163
67 102 162
65 99 158
66 101 166
67 101 165
65 99 159
66 101 162
67 102 166
66 100 165
67 100 163
66 100 163
68 102 164
67 101 166
66 100 166
65 98 161
64 98 161
65 99 155
66 101 163
65 99 164
66 100 164
67 101 165
67 101 169
108 134 187
194 213 242
212 231 255
212 231 255
212 231 255
212 231 255
212 231 255
212 231 255
212 231 255
212 231 255
212 231 255
212 231 255
213 231 255
213 231 255
213 231 255
213 231 255
213 231 255
213 231 255
213 231 255
213 231 255
213 231 255
213 231 255
213 231 255
213 231 255
213 231 255
213 231 255
213 231 255
213 231 255
213 231 255
213 231 255
213 231 255
213 231 255
213 231 255
213 231 255
213 231 255
213 231 255
213 231 255
213 231 255
213 231 255
213 231 255
214 231 255
214 231 255
214 231 255
214 231 255
210 228 251
163 170 164
143 140 96
138 136 93
138 135 92
141 139 96
136 135 95
141 140 98
138 136 94
139 137 96
144 142 99
128 127 88
132 132 92
142 140 97
142 140 98
144 142 97
149 147 102
147 145 102
147 146 101
146 145 100
152 151 105
145 143 99
149 147 102
148 146 101
152 151 105
143 141 96
150 148 102
160 158 109
146 143 97
160 158 109
156 154 105
145 143 99
151 149 102
161 158 108
152 150 102
159 157 108
153 151 105
165 163 110
165 162 109
146 143 96
159 156 106
162 160 108
162 159 109
163 159 109
158 156 103
160 157 107
160 157 107
158 156 105
157 155 105
159 154 102
168 164 110
157 153 103
165 162 109
160 157 106
155 152 101
156 152 101
159 155 103
156 153 104
158 154 103
165 162 109
162 158 106
155 151 103
156 153 101
161 157 107
162 158 105
157 154 104
160 156 103
154 151 100
158 154 99
163 159 106
156 152 101
162 158 107
157 154 102
167 163 109
161 156 103
161 156 105
163 159 105
167 163 108
164 161 110
157 153 99
159 155 102
157 153 99
160 156 104
157 153 103
150 147 99
159 156 101
165 160 104
160 155 101
160 156 105
150 146 94
160 156 102
153 149 99
159 155 101
163 158 104
155 151 97
154 150 100
148 145 95
158 154 101
156 151 96
150 146 96
159 155 103
158 154 101
154 150 98
158 154 99
156 152 102
152 147 96
158 153 99
152 148 96
156 151 96
156 151 97
153 149 95
155 151 97
148 143 88
155 151 96
154 150 99
155 152 101
158 154 100
153 149 99
160 155 102
153 149 94
165 160 104
146 142 87
147 143 90
145 142 91
154 149 95
150 145 94
151 148 91
210 229 255
209 229 255
209 229 255
209 229 255
208 228 255
208 228 255
208 228 255
207 228 255
207 228 255
207 228 255
206 227 255
205 227 255
205 227 255
205 227 255
205 227 255
204 226 255
204 226 255
204 226 255
203 226 255
203 226 255
203 226 255
202 225 255
202 225 255
202 225 255
201 225 255
202 225 254
205 227 253
204 226 251
206 227 252
205 226 250
205 226 251
207 227 250
208 228 254
206 226 246
205 225 248
205 226 248
205 226 246
205 226 248
206 227 251
207 228 251
204 225 245
206 227 251
206 226 247
205 226 248
206 227 252
203 225 244
202 223 237
203 224 240
201 223 236
203 224 240
200 221 235
203 224 244
201 222 240
204 225 245
202 223 241
204 226 246
202 223 240
203 225 242
203 224 241
203 224 240
205 226 247
204 225 247
204 225 246
202 223 241
204 225 244
203 224 244
204 225 244
204 225 247
204 225 245
203 225 245
203 225 244
203 224 244
201 222 239
202 223 245
202 224 244
203 225 244
202 224 250
202 224 241
203 225 248
201 223 237
202 224 246
201 223 245
202 225 251
203 224 248
202 223 245
202 224 246
201 223 236
202 224 246
202 224 246
200 222 242
199 222 239
200 222 237
201 224 246
198 222 240
199 222 241
199 222 244
201 224 248
202 224 247
200 222 245
202 225 252
200 223 248
199 223 248
202 225 252
200 222 248
197 221 240
199 224 254
193 220 253
191 220 254
192 220 255
193 221 255
194 221 255
194 221 255
195 222 255
196 222 255
197 222 255
198 223 255
199 224 255
200 224 255
201 225 255
203 226 255
204 226 255
205 226 254
207 228 255
209 229 255
210 230 255
211 230 254
213 231 254
214 232 255
214 232 255
214 232 255
214 232 255
214 232 255
214 231 255
214 231 255
214 231 255
214 231 255
214 231 255
213 231 255
213 231 255
213 231 255
213 231 255
213 231 255
213 231 255
213 231 255
213 231 255
213 231 255
213 231 255
213 231 255
213 231 255
213 231 255
213 231 255
213 231 255
213 231 255
213 231 255
213 231 255
213 231 255
213 231 255
213 231 255
213 231 255
213 231 255
213 231 255
213 231 255
213 231 255
213 231 255
213 231 255
213 231 255
213 231 255
213 231 255
182 202 234
70 104 167
68 103 174
68 103 168
69 104 174
66 101 164
67 101 161
67 102 160
68 103 164
67 102 166
67 102 169
67 101 164
66 101 166
68 104 166
68 104 169
70 106 172
68 103 163
67 101 166
67 103 168
68 103 169
68 104 169
66 101 164
68 103 165
67 102 163
65 100 162
66 101 158
69 105 169
68 104 171
67 102 164
69 104 165
67 103 167
65 99 152
67 102 164
65 99 158
67 101 162
69 105 173
66 101 165
68 103 168
65 99 157
66 100 158
66 100 158
68 103 166
66 100 164
69 105 172
67 102 165
66 100 165
63 96 154
65 100 166
66 101 164
68 103 165
67 101 161
66 102 169
65 99 161
65 99 161
68 103 172
67 102 163
65 99 163
66 100 164
64 97 163
65 99 156
65 98 157
63 97 158
78 107 170
176 195 226
213 231 255
213 231 255
213 231 255
213 231 255
213 231 255
213 231 255
213 231 255
213 231 255
213 231 255
213 231 255
213 231 255
213 231 255
213 231 255
213 231 255
213 231 255
213 231 255
213 231 255
213 231 255
213 231 255
213 231 255
213 231 255
213 231 255
213 231 255
213 231 255
213 231 255
213 231 255
213 231 255
213 231 255
213 231 255
213 231 255
213 231 255
214 231 255
214 231 255
214 231 255
214 231 255
214 231 255
214 232 255
214 232 255
214 232 255
214 232 255
198 214 233
162 165 150
142 139 95
142 139 96
132 131 91
132 130 90
138 136 95
149 146 101
149 146 101
140 138 96
144 141 98
137 136 94
142 140 96
141 139 96
147 146 101
145 143 98
140 138 96
146 143 98
148 147 103
150 149 103
153 151 105
141 140 98
154 152 103
150 149 103
154 152 106
145 144 100
152 151 102
148 146 102
145 144 98
154 151 103
155 153 104
153 150 101
155 153 104
150 149 103
154 150 102
163 160 109
155 153 104
165 162 111
155 152 103
153 150 102
158 155 106
153 150 99
156 153 102
156 154 105
169 165 112
162 158 105
155 153 104
156 153 102
160 156 104
160 156 101
160 157 106
154 151 101
167 163 109
156 153 102
168 164 110
153 149 98
166 163 108
158 156 106
166 161 108
163 160 110
156 152 99
159 156 105
155 151 101
162 157 101
160 156 103
154 151 102
158 154 100
159 156 105
158 155 103
162 158 107
160 155 102
156 153 101
162 159 108
160 157 106
162 157 104
161 158 104
157 153 101
167 163 110
158 154 103
160 156 102
156 152 98
156 152 101
156 152 101
159 155 99
154 150 100
162 158 103
159 156 100
160 155 103
159 154 104
156 153 100
155 152 96
167 162 104
160 157 104
152 149 96
159 155 99
163 159 107
153 150 99
158 155 99
161 156 100
143 140 91
156 150 95
163 158 104
166 160 104
155 151 95
153 149 96
164 159 104
149 144 89
158 153 99
152 149 93
160 155 103
141 138 91
161 156 102
160 154 99
156 151 96
148 144 91
152 148 94
161 156 104
144 140 91
146 143 94
157 154 99
152 148 95
148 144 93
151 146 93
148 145 93
152 148 96
148 143 93
157 152 96
145 140 86
210 229 255
209 229 255
209 229 255
208 229 255
208 228 255
208 228 255
207 228 255
207 228 255
207 228 255
206 228 255
206 227 255
205 227 255
205 227 255
205 227 255
204 227 255
204 226 255
204 226 255
204 226 255
203 226 255
203 226 255
203 226 255
202 225 255
202 225 255
202 225 254
203 225 251
205 226 250
208 228 252
207 228 252
205 226 251
206 226 250
207 227 251
206 227 246
207 227 248
207 228 250
206 226 246
207 227 247
208 228 250
206 227 247
206 227 251
207 226 245
207 227 246
206 226 250
204 225 245
203 224 244
205 226 248
204 225 240
204 224 242
202 223 239
205 225 245
203 224 245
205 226 247
204 225 242
202 223 240
203 223 240
204 225 245
206 227 248
204 225 247
206 227 248
204 225 241
205 225 246
203 224 240
206 227 253
207 227 251
205 226 246
204 225 245
205 226 250
200 222 240
203 225 245
202 223 239
204 225 244
204 225 241
204 225 244
204 225 245
204 225 245
205 226 250
202 224 240
201 222 237
203 224 241
203 224 246
204 226 251
205 226 252
205 226 246
205 226 250
203 225 245
201 223 240
203 225 246
203 225 250
202 224 246
202 223 244
202 224 244
202 224 247
201 223 241
198 221 233
199 221 239
200 222 235
201 224 245
197 220 236
197 220 240
201 224 247
201 224 245
202 225 250
204 225 248
203 225 252
201 223 245
201 224 251
199 223 248
200 223 250
198 223 253
194 221 253
192 220 255
193 220 255
193 221 255
194 221 255
195 222 255
196 222 255
197 223 255
197 223 255
199 224 255
200 224 255
201 225 255
203 226 255
204 227 255
205 227 255
207 228 255
209 229 255
210 230 255
211 230 255
213 231 254
214 232 255
214 232 255
214 232 255
214 232 255
214 232 255
214 232 255
214 232 255
214 232 255
214 232 255
214 232 255
214 232 255
214 231 255
214 231 255
214 231 255
214 231 255
214 231 255
213 231 255
213 231 255
213 231 255
213 231 255
213 231 255
213 231 255
213 231 255
213 231 255
213 231 255
213 231 255
213 231 255
213 231 255
213 231 255
213 231 255
213 231 255
213 231 255
213 231 255
213 231 255
213 231 255
213 231 255
213 231 255
213 231 255
211 229 254
157 177 217
71 106 174
69 105 171
67 102 171
69 105 170
67 102 166
66 101 165
68 103 170
67 103 167
66 101 164
66 101 162
66 101 162
66 100 164
66 101 164
66 101 164
68 104 169
66 101 163
66 100 161
67 101 160
66 99 161
68 103 165
68 104 170
66 100 162
64 98 155
65 100 165
68 103 164
67 101 163
68 104 165
66 101 166
68 102 163
65 99 157
67 102 166
65 100 160
67 101 162
68 103 167
69 104 168
66 100 161
66 100 158
66 101 164
65 98 157
67 103 162
66 101 160
69 104 168
66 100 159
64 97 156
65 99 155
68 103 168
66 101 160
66 101 161
68 103 170
68 103 166
66 100 164
65 99 156
65 98 154
65 98 159
65 99 162
66 100 167
63 96 154
67 102 166
68 103 168
64 98 156
67 101 163
63 97 159
66 100 164
68 104 174
151 172 212
213 231 255
213 231 255
213 231 255
213 231 255
213 231 255
213 231 255
213 231 255
213 231 255
213 231 255
213 231 255
213 231 255
213 231 255
213 231 255
213 231 255
213 231 255
213 231 255
213 231 255
213 231 255
213 231 255
213 231 255
213 231 255
213 231 255
213 231 255
214 231 255
214 231 255
214 231 255
214 231 255
214 231 255
214 232 255
214 232 255
214 232 255
214 232 255
214 232 255
214 232 255
214 232 255
214 232 255
214 232 255
214 232 255
195 209 224
148 149 120
135 133 92
132 129 88
137 134 93
136 134 93
136 135 95
131 131 90
148 146 101
139 138 96
143 141 97
141 140 98
142 140 98
151 149 104
138 137 96
143 141 96
141 141 98
147 145 100
147 144 100
140 139 96
144 141 97
149 147 102
146 145 99
156 153 104
149 147 102
149 147 102
152 149 103
158 156 108
157 156 108
151 148 101
149 148 103
155 152 103
151 149 103
155 153 103
156 154 106
154 151 103
155 153 104
166 164 112
162 160 110
152 149 101
163 161 110
154 152 104
152 150 102
159 155 103
158 155 105
164 161 108
155 153 103
154 151 103
160 156 105
162 157 106
166 163 110
151 148 102
163 159 108
154 152 103
152 149 98
166 161 107
159 155 103
164 160 107
158 155 103
159 154 104
158 155 104
162 158 103
162 158 104
163 158 101
158 155 104
160 157 104
160 157 106
166 162 108
155 153 105
165 161 109
161 157 106
157 153 104
164 162 108
163 160 107
162 158 101
156 153 99
160 155 104
150 147 99
158 153 102
166 161 105
157 153 95
163 159 105
154 151 101
157 154 101
157 153 100
162 158 104
158 155 101
162 158 106
159 155 102
157 153 100
161 157 104
152 147 92
152 149 98
154 151 99
161 157 104
164 160 104
152 148 96
151 147 96
154 151 99
154 150 101
154 151 99
163 158 103
158 154 99
163 159 102
159 155 101
161 156 100
163 158 104
155 150 99
155 151 99
151 147 95
151 147 96
154 150 99
152 147 95
154 151 95
155 151 97
155 151 101
154 148 96
149 145 92
151 146 97
155 151 96
151 146 91
152 149 93
156 152 96
154 150 93
153 148 94
153 148 89
150 145 93
153 148 93
150 146 94
209 229 255
209 229 255
209 229 255
208 229 255
208 228 255
208 228 255
207 228 255
207 228 255
207 228 255
206 228 255
206 227 255
206 227 255
205 227 255
205 227 255
205 227 255
204 226 255
204 226 255
204 226 255
203 226 255
203 226 255
203 226 255
203 225 251
206 228 255
207 228 251
207 228 252
207 228 251
206 226 248
207 228 252
209 228 251
205 226 245
206 226 246
207 227 248
207 227 247
208 228 251
206 226 247
206 226 245
207 227 251
205 225 247
207 226 248
204 225 244
201 222 236
202 223 236
204 225 242
203 224 241
204 225 242
205 226 244
204 225 246
203 224 239
204 224 240
205 226 244
203 223 241
205 225 245
205 225 241
207 227 252
204 225 246
205 225 242
205 225 250
203 224 239
206 227 250
202 223 237
205 225 248
205 226 242
205 226 245
207 227 251
206 227 248
207 228 253
204 225 242
203 224 244
205 225 241
204 225 247
205 226 245
203 224 244
207 228 252
204 225 236
205 226 247
205 226 248
204 225 242
203 224 241
203 225 246
204 225 248
204 225 242
200 222 239
202 224 242
204 225 245
204 226 248
204 226 247
205 226 252
202 224 242
201 222 244
201 223 242
203 225 245
203 225 250
203 225 246
201 223 240
201 223 237
201 223 244
201 223 246
202 224 244
200 223 239
199 222 242
201 224 245
201 223 245
202 225 248
203 225 251
202 225 253
200 224 248
200 223 246
201 224 253
201 225 254
198 222 250
194 221 253
193 220 255
193 221 255
194 221 255
195 221 255
196 222 255
197 222 255
197 223 255
198 223 255
200 224 255
201 225 255
202 225 255
203 226 255
204 226 254
207 228 255
208 229 255
210 230 254
211 229 254
212 231 253
214 232 255
214 232 255
214 232 255
214 232 255
214 232 255
214 232 255
214 232 255
214 232 255
214 232 255
214 232 255
214 232 255
214 232 255
214 232 255
214 232 255
214 232 255
214 232 255
214 232 255
214 231 255
214 231 255
214 231 255
214 231 255
214 231 255
214 231 255
213 231 255
213 231 255
213 231 255
213 231 255
213 231 255
213 231 255
213 231 255
213 231 255
213 231 255
213 231 255
213 231 255
213 231 255
213 231 255
207 225 250
126 149 196
70 105 176
69 105 172
68 104 171
68 103 165
67 103 166
67 103 169
68 104 170
67 101 163
66 100 166
68 103 168
68 103 167
68 103 167
68 103 164
68 103 164
67 101 161
68 102 162
66 100 161
68 103 164
67 102 168
66 101 161
67 103 165
67 101 160
67 101 157
67 102 162
69 104 164
67 102 165
68 104 168
66 101 161
67 102 161
66 101 166
65 99 164
66 100 163
61 93 146
67 102 167
68 103 162
68 103 164
66 99 158
67 102 165
66 100 159
67 102 160
65 99 159
69 104 168
67 103 167
65 98 156
68 103 166
65 99 158
67 102 163
67 102 165
67 101 166
65 98 156
65 99 156
67 102 167
65 99 154
65 98 157
66 100 158
65 99 158
63 95 152
66 101 160
66 101 166
66 100 161
66 100 164
66 100 162
67 101 164
65 99 159
66 100 164
67 101 164
143 164 205
207 225 250
213 231 255
213 231 255
213 231 255
213 231 255
213 231 255
213 231 255
213 231 255
213 231 255
213 231 255
213 231 255
213 231 255
213 231 255
213 231 255
213 231 255
214 231 255
214 231 255
214 231 255
214 231 255
214 231 255
214 232 255
214 232 255
214 232 255
214 232 255
214 232 255
214 232 255
214 232 255
214 232 255
214 232 255
214 232 255
214 232 255
214 232 255
214 232 255
214 232 255
214 232 255
214 232 255
192 203 213
137 137 105
143 140 98
132 131 91
127 126 88
133 132 92
131 129 89
138 137 95
142 141 98
144 143 98
146 145 101
146 145 100
147 145 101
135 134 93
150 150 105
148 147 101
142 141 98
149 147 103
142 140 96
146 144 100
151 149 103
144 142 98
145 143 97
149 147 101
161 158 109
150 149 103
157 154 106
160 157 106
157 154 105
154 151 104
149 147 102
159 156 105
155 153 106
152 149 100
152 149 102
160 158 107
163 160 107
160 157 108
157 154 105
161 158 106
160 157 107
156 154 104
152 149 98
159 156 105
159 157 106
151 149 100
155 151 101
158 155 102
161 157 104
160 157 105
156 153 104
161 158 106
161 158 105
162 158 108
159 156 103
164 160 106
148 146 96
165 161 108
161 157 105
158 155 104
163 159 108
168 164 111
157 154 100
157 154 102
159 156 104
156 153 100
166 161 107
163 159 106
157 154 102
165 162 107
164 160 104
144 141 94
159 156 104
156 152 103
166 162 108
168 164 107
154 151 103
159 153 99
153 149 99
152 149 98
163 159 104
157 153 99
156 153 101
163 159 106
160 156 104
161 156 105
152 149 97
158 155 100
160 156 104
163 159 105
159 156 104
164 160 104
160 155 99
164 159 102
160 156 106
159 156 100
158 153 100
157 153 99
158 154 102
160 155 101
145 141 93
161 157 100
157 153 100
161 156 103
152 148 96
157 153 100
154 150 97
158 154 99
156 152 99
154 149 96
157 152 99
152 149 96
156 152 98
154 150 95
152 147 95
158 154 103
154 150 95
158 153 101
157 153 99
157 152 99
156 151 95
154 150 97
150 145 94
152 148 97
158 153 97
149 145 93
150 145 94
143 139 89
155 151 98
153 149 96
210 229 255
209 229 255
209 229 255
208 229 255
208 228 255
208 228 255
207 228 255
207 228 255
207 228 255
206 228 255
206 227 255
206 227 255
205 227 255
205 227 255
205 227 255
204 226 255
204 226 255
204 226 255
203 226 255
204 226 254
206 227 253
207 228 253
207 227 248
207 227 251
206 227 250
208 228 253
206 226 245
207 227 244
208 228 251
206 226 242
208 227 248
208 228 250
209 229 253
208 228 248
209 228 251
206 226 247
205 226 245
205 225 245
204 224 233
205 226 242
205 225 244
204 225 242
204 224 236
206 226 247
206 226 246
204 225 246
203 224 245
204 225 244
205 225 242
207 227 250
204 225 242
205 226 244
206 226 247
206 226 244
206 227 248
205 225 244
206 226 247
208 228 251
205 225 245
205 226 244
206 226 245
206 226 248
203 224 241
204 224 240
205 226 246
208 228 252
204 225 245
206 226 248
204 225 242
205 226 245
207 227 247
205 225 242
205 225 248
205 226 247
206 226 247
205 226 247
205 225 244
204 225 245
204 225 242
205 226 247
206 227 250
206 227 247
205 226 246
205 226 252
204 225 245
205 226 247
206 227 251
202 224 247
201 222 236
204 226 247
204 225 244
203 225 242
203 225 245
204 226 252
202 224 242
203 225 247
203 225 247
200 222 244
203 225 247
203 225 247
201 224 242
201 224 247
200 223 246
201 223 241
201 224 246
202 224 242
204 226 253
201 224 245
200 223 246
201 224 250
201 223 246
198 222 248
196 222 253
193 221 255
194 221 255
195 222 255
196 222 255
196 222 255
197 223 255
198 223 255
200 224 255
202 225 255
203 226 255
203 226 255
205 227 255
206 228 255
208 228 255
210 229 254
213 231 255
212 231 253
215 232 255
214 232 255
214 232 255
214 232 255
214 232 255
214 232 255
214 232 255
214 232 255
214 232 255
214 232 255
214 232 255
214 232 255
214 232 255
214 232 255
214 232 255
214 232 255
214 232 255
214 232 255
214 232 255
214 232 255
214 232 255
214 232 255
214 232 255
214 231 255
214 231 255
214 231 255
214 231 255
214 231 255
214 231 255
214 231 255
213 231 255
213 231 255
213 231 255
213 231 255
210 228 253
116 140 191
67 102 169
67 102 165
68 102 163
67 102 169
67 103 168
67 102 166
68 104 166
66 100 164
64 98 158
67 102 162
64 98 159
68 103 165
68 103 165
67 101 168
68 103 164
67 101 163
68 102 158
69 104 167
67 101 163
63 97 152
67 101 161
68 104 168
68 102 162
68 103 168
66 101 161
67 102 162
65 99 157
67 101 157
68 103 163
66 101 158
70 106 171
67 102 161
67 102 161
68 104 160
67 102 165
64 98 155
66 101 163
67 101 155
66 100 160
66 99 156
65 98 156
65 100 160
67 101 157
68 103 164
68 103 168
65 98 153
65 99 159
65 99 154
68 103 164
66 99 158
68 102 165
65 98 155
66 100 157
68 102 162
67 101 160
64 97 154
66 100 164
64 98 154
66 99 158
66 100 160
67 101 161
66 101 165
65 98 160
68 103 164
65 99 166
63 96 154
65 98 159
66 101 168
118 141 187
208 226 250
213 231 255
213 231 255
213 231 255
213 231 255
214 231 255
214 231 255
214 231 255
214 231 255
214 231 255
214 231 255
214 231 255
214 232 255
214 232 255
214 232 255
214 232 255
214 232 255
214 232 255
214 232 255
214 232 255
214 232 255
214 232 255
214 232 255
214 232 255
214 232 255
214 232 255
214 232 255
214 232 255
214 232 255
214 232 255
214 232 255
214 232 255
214 232 255
214 232 255
180 192 204
142 140 97
139 137 95
144 141 98
135 133 92
135 134 93
143 141 98
148 146 102
136 135 93
137 136 93
133 132 92
130 129 89
144 144 100
140 140 98
143 142 100
152 151 105
148 146 102
147 146 101
141 140 97
146 144 100
144 142 98
149 148 101
150 148 102
151 149 101
152 150 103
146 144 99
152 150 103
156 154 107
145 143 96
159 157 108
154 153 106
158 156 106
153 151 103
151 149 102
151 149 103
151 149 102
150 148 102
154 152 103
156 153 104
151 148 97
155 151 102
162 159 108
157 155 105
155 153 104
159 156 107
153 151 101
162 158 106
162 159 108
154 151 101
163 159 109
164 162 109
156 153 103
160 155 101
155 152 102
169 165 111
166 163 109
153 150 101
165 161 106
156 153 101
162 158 105
165 160 106
160 156 105
164 160 107
164 160 104
160 157 101
159 155 104
162 158 104
162 158 105
160 156 100
164 160 108
164 161 108
167 164 110
157 153 98
166 162 107
164 160 107
155 151 99
166 162 110
165 160 106
159 155 103
158 155 103
170 166 108
155 151 95
162 158 101
162 158 100
164 160 104
153 149 98
159 155 99
162 158 105
169 165 108
161 158 104
164 159 104
152 148 98
155 152 101
161 156 101
161 157 102
162 157 102
151 146 92
163 159 103
153 150 96
163 158 106
161 157 99
162 156 101
158 152 97
160 155 98
158 153 99
161 157 104
161 157 104
159 155 99
163 159 99
158 153 93
158 153 99
157 154 101
160 156 102
148 145 94
149 145 93
153 149 96
150 145 94
148 143 93
154 150 96
154 150 95
157 153 99
150 145 93
154 151 93
147 143 93
152 148 92
154 149 93
142 137 89
154 149 97
145 141 89
148 143 92
153 149 94
209 229 255
209 229 255
209 229 255
209 229 255
208 229 255
208 228 255
207 228 255
207 228 255
207 228 255
207 228 255
206 227 255
206 227 255
206 227 255
205 227 255
205 227 255
205 227 255
204 226 255
205 227 255
206 227 253
208 228 254
207 227 248
208 228 247
208 228 247
209 228 251
210 229 252
207 227 242
209 228 252
210 229 250
208 228 250
210 229 253
209 229 253
208 227 248
209 229 252
209 228 251
207 227 247
206 226 242
205 226 244
205 225 236
205 226 241
204 224 240
206 226 245
205 225 240
205 225 241
206 226 245
205 225 242
206 225 244
205 225 242
204 225 245
208 228 247
206 226 246
206 226 246
207 227 247
207 227 247
208 228 247
206 226 247
207 227 245
206 226 241
207 227 250
207 227 246
206 226 245
205 225 244
205 226 247
207 228 251
206 226 244
206 226 245
203 224 240
205 224 244
206 225 244
206 226 246
206 226 247
206 226 246
206 226 241
206 226 245
206 227 250
208 228 252
206 225 239
207 226 247
205 225 246
206 226 247
207 227 250
206 226 251
204 225 247
205 226 247
205 226 246
203 223 241
205 225 246
203 224 240
203 224 244
202 223 244
205 226 244
205 227 250
202 223 240
206 227 252
202 224 244
202 223 242
203 224 244
202 224 242
203 225 245
203 225 247
201 222 242
202 224 241
202 224 246
202 224 246
200 223 242
201 223 241
202 224 247
203 225 246
203 225 250
202 225 250
200 223 246
201 223 240
201 224 246
200 223 246
196 221 250
195 221 255
194 221 255
195 221 255
196 222 255
197 222 255
198 223 255
198 223 255
200 224 255
201 225 255
202 225 255
204 227 255
205 226 254
207 228 255
207 228 254
210 229 255
212 231 254
214 231 254
214 232 255
215 232 255
215 232 255
215 232 255
215 232 255
214 232 255
214 232 255
214 232 255
214 232 255
214 232 255
214 232 255
214 232 255
214 232 255
214 232 255
214 232 255
214 232 255
214 232 255
214 232 255
214 232 255
214 232 255
214 232 255
214 232 255
214 232 255
214 232 255
214 232 255
214 232 255
214 232 255
214 232 255
214 232 255
214 232 255
214 232 255
214 232 255
206 225 251
111 136 186
68 104 173
65 99 159
67 102 163
68 103 167
67 102 165
67 102 166
66 101 162
67 102 158
66 101 169
66 100 160
67 102 163
69 104 169
65 99 159
66 101 157
68 104 167
68 104 167
67 103 161
66 100 159
67 102 167
66 101 156
67 102 161
65 99 161
70 106 172
69 104 167
64 98 146
64 98 150
66 101 156
66 100 162
67 102 165
66 100 158
66 101 162
67 102 165
66 100 161
65 99 157
66 100 158
65 100 162
67 102 161
68 103 169
67 101 161
68 102 164
66 101 160
65 98 153
66 101 164
66 100 160
67 101 159
66 99 158
68 104 170
67 101 161
65 98 149
65 98 157
66 100 159
67 101 158
64 97 153
66 101 158
66 101 159
67 101 162
67 101 157
66 100 159
67 101 160
62 94 152
65 97 155
66 100 162
63 95 155
67 101 165
67 102 165
64 98 155
63 97 154
64 98 163
64 97 154
64 97 154
126 147 192
206 224 250
214 232 255
214 232 255
214 232 255
214 232 255
214 232 255
214 232 255
214 232 255
214 232 255
214 232 255
214 232 255
214 232 255
214 232 255
214 232 255
214 232 255
214 232 255
214 232 255
214 232 255
214 232 255
214 232 255
214 232 255
214 232 255
214 232 255
214 232 255
214 232 255
214 232 255
214 232 255
215 232 255
215 232 255
215 232 255
215 232 255
215 232 255
175 184 185
127 125 86
137 135 93
146 144 100
125 125 88
141 139 96
131 129 90
140 139 99
135 134 94
142 140 97
143 141 98
144 142 98
140 139 97
142 140 98
134 134 93
142 140 96
133 131 91
145 144 101
145 143 98
151 149 104
155 152 105
148 146 101
157 153 103
149 147 102
158 155 106
153 151 104
151 149 104
156 153 103
158 155 104
155 152 105
150 148 101
156 154 104
148 146 99
159 156 106
158 156 107
149 147 96
151 148 101
160 158 105
156 153 104
161 159 108
153 150 102
161 159 108
156 152 102
164 161 109
160 158 108
166 163 109
161 158 108
160 155 104
161 158 105
167 163 109
164 161 109
164 161 108
166 162 107
165 162 107
166 163 108
157 154 104
157 153 102
164 161 108
158 154 102
160 156 105
166 162 108
157 154 104
159 155 103
154 151 100
168 164 109
162 158 105
165 161 107
152 149 99
162 159 105
168 164 108
161 158 106
166 161 102
159 156 105
165 162 108
161 157 102
164 159 106
166 162 106
156 152 99
160 157 104
158 153 103
165 161 106
164 159 105
162 158 104
167 162 107
149 145 96
162 158 102
172 166 110
162 158 103
164 160 106
162 159 105
160 156 104
160 156 101
161 156 102
154 150 95
157 153 100
159 154 102
153 149 96
164 159 102
162 158 101
164 160 101
158 153 99
149 144 93
162 158 99
158 153 98
153 147 97
155 151 96
155 150 95
162 157 98
157 153 100
157 153 96
153 149 96
162 157 99
153 148 98
163 159 98
144 141 89
158 154 96
159 155 99
150 145 92
167 161 104
155 150 94
156 151 94
141 137 89
159 155 97
151 147 93
144 141 93
161 156 101
140 136 87
146 142 91
156 151 98
151 148 91
158 152 96
146 142 89
209 229 255
209 229 255
209 229 255
209 229 255
208 229 255
208 228 255
207 228 255
207 228 255
207 228 255
207 228 255
206 227 255
206 227 255
206 227 255
205 227 255
205 227 255
205 227 255
206 227 254
209 228 252
209 229 253
208 227 248
208 227 246
209 229 252
209 228 251
208 228 248
208 227 248
207 227 244
207 227 246
208 227 246
206 225 241
209 228 248
210 229 252
209 229 250
206 226 244
205 225 241
205 225 241
206 226 246
204 223 237
206 226 244
205 224 237
208 228 250
206 226 240
208 227 247
208 227 246
207 226 247
208 228 251
206 226 245
208 228 248
207 227 247
207 227 244
205 225 244
207 226 242
208 228 250
208 228 250
207 227 250
206 226 242
206 226 242
207 226 246
208 228 250
206 225 244
207 227 246
208 227 245
208 227 250
206 226 245
208 227 248
206 226 246
207 227 250
205 225 246
206 226 245
206 226 246
207 227 248
207 226 248
207 226 248
208 228 250
206 226 245
205 226 247
208 228 253
203 223 241
206 226 246
205 224 241
206 226 248
208 228 250
208 228 252
206 227 247
207 227 248
205 226 245
206 226 246
206 226 247
204 225 248
205 226 247
205 226 245
206 226 250
204 225 242
205 226 246
204 225 244
207 227 251
205 226 246
205 226 248
203 224 239
204 226 246
203 224 242
204 225 244
205 227 253
201 223 242
203 225 245
201 223 242
202 224 241
202 224 244
199 222 240
202 224 244
203 225 250
204 225 248
201 223 248
200 223 245
201 223 244
202 225 252
197 222 252
193 220 254
195 222 255
196 222 255
197 222 255
198 223 255
199 224 255
200 224 255
201 225 255
202 225 255
204 226 255
205 227 255
207 228 255
208 229 255
211 230 255
212 231 255
213 231 251
215 232 255
215 232 255
215 232 255
215 232 255
215 232 255
215 232 255
215 232 255
215 232 255
215 232 255
215 232 255
215 232 255
215 232 255
214 232 255
214 232 255
214 232 255
214 232 255
214 232 255
214 232 255
214 232 255
214 232 255
214 232 255
214 232 255
214 232 255
214 232 255
214 232 255
214 232 255
214 232 255
214 232 255
214 232 255
214 232 255
204 222 248
107 134 191
67 102 167
70 105 173
68 103 169
67 101 163
62 96 158
66 100 155
66 101 163
67 102 170
68 104 168
65 99 159
69 105 170
67 103 169
68 103 166
67 102 160
69 104 165
65 99 158
67 102 163
68 103 160
70 106 171
67 102 163
67 103 166
67 102 165
66 100 154
66 100 159
67 102 163
67 101 162
64 97 156
65 99 155
67 102 161
68 104 169
67 102 163
65 99 157
67 102 162
65 99 156
66 101 159
68 103 161
66 100 160
66 100 160
66 101 160
68 102 162
67 102 155
66 100 157
67 102 163
65 99 155
66 100 163
68 102 162
67 102 160
68 102 166
67 101 153
65 99 156
67 102 161
66 100 157
66 100 155
62 95 149
65 98 157
62 94 144
64 97 155
66 100 154
66 100 158
66 99 155
66 99 159
67 102 169
66 100 158
66 100 168
66 99 157
65 98 156
66 100 161
63 95 147
64 97 156
65 99 159
64 96 155
66 99 162
111 134 177
208 226 250
214 232 255
214 232 255
214 232 255
214 232 255
214 232 255
214 232 255
214 232 255
214 232 255
214 232 255
214 232 255
214 232 255
214 232 255
214 232 255
214 232 255
214 232 255
214 232 255
214 232 255
214 232 255
215 232 255
215 232 255
215 232 255
215 232 255
215 232 255
215 232 255
215 232 255
215 232 255
215 232 255
215 232 255
215 232 255
169 176 175
132 130 90
134 133 93
126 125 86
139 136 93
146 143 99
137 136 95
141 139 96
140 139 96
150 148 103
132 130 92
142 141 99
144 143 99
137 136 92
147 145 100
150 148 102
149 147 101
143 142 98
135 133 90
145 144 100
143 141 96
149 147 101
155 153 107
149 147 100
151 149 103
149 147 100
144 143 97
150 148 100
157 154 105
153 151 103
151 148 100
161 158 106
152 150 102
152 148 100
153 151 102
156 153 101
160 156 106
158 155 104
155 151 102
160 157 107
157 155 103
160 157 103
160 157 105
162 160 109
163 159 108
158 155 103
159 156 105
160 157 106
161 158 108
164 161 110
169 164 110
161 158 105
156 153 101
166 162 110
158 154 102
164 160 106
162 158 106
159 156 101
166 163 108
158 155 104
166 163 108
162 159 106
163 158 105
163 159 105
160 157 104
156 152 101
162 159 104
159 154 103
170 163 106
153 150 100
161 157 104
163 158 100
160 156 103
159 155 100
163 159 104
162 157 102
156 152 98
159 155 99
157 154 99
164 160 105
164 159 104
164 160 104
168 163 104
160 156 102
157 153 99
159 155 103
169 164 107
157 153 100
152 147 93
161 156 101
155 152 99
152 148 95
150 146 95
164 160 102
164 160 103
167 163 107
165 161 102
158 155 98
159 155 101
162 157 102
158 154 99
153 148 95
168 163 108
165 159 104
155 151 99
164 159 101
161 156 100
160 156 99
160 156 99
155 150 96
160 155 98
155 151 95
161 156 102
164 159 102
161 155 101
159 153 97
157 152 98
156 152 96
149 144 95
156 152 99
156 152 99
152 147 93
160 155 97
147 143 89
148 143 89
155 151 94
153 148 96
146 142 89
151 146 91
155 150 96
151 148 93
144 139 86
159 153 98
210 229 255
209 229 255
209 229 255
208 229 255
208 229 255
208 228 255
208 228 255
208 228 255
207 228 255
207 228 255
207 228 255
206 228 255
206 227 255
206 227 255
205 226 254
207 227 250
210 229 253
212 230 253
209 228 250
209 229 251
210 229 251
209 228 247
208 227 245
211 230 254
209 229 251
208 228 250
209 229 252
208 227 250
209 228 247
209 228 246
208 227 247
207 227 244
206 225 242
205 225 241
207 227 245
208 227 246
207 227 245
206 226 242
206 226 242
206 225 237
206 226 240
208 228 247
207 227 246
207 226 245
207 226 245
209 228 248
207 227 245
207 226 245
206 226 239
209 229 252
207 227 248
208 227 246
208 227 247
208 228 250
208 227 248
207 227 242
207 226 247
209 228 250
207 226 245
209 228 248
208 228 247
207 226 247
208 228 246
209 228 250
206 226 245
207 227 247
203 223 235
206 225 245
205 224 242
207 227 245
208 227 245
206 226 245
206 226 246
206 226 245
206 226 245
205 225 244
209 228 252
206 226 247
206 226 244
207 227 250
206 226 246
208 227 248
206 226 245
207 227 248
206 226 245
206 226 247
207 227 251
204 224 241
204 225 245
205 225 246
206 226 246
206 226 242
207 228 251
208 228 253
207 227 250
206 226 247
205 226 248
203 223 242
203 225 244
203 224 246
204 224 245
205 226 247
205 226 246
202 224 244
204 225 244
203 225 247
202 223 240
200 222 236
203 224 244
200 222 240
202 224 241
202 224 247
203 225 250
203 225 248
203 225 251
202 225 250
200 224 252
196 222 255
195 222 255
196 222 255
197 223 255
198 223 255
199 224 255
200 224 255
201 225 255
203 226 255
204 227 255
206 227 255
207 228 255
209 229 255
211 230 254
213 231 255
214 231 254
216 233 255
215 232 255
215 232 255
215 232 255
215 232 255
215 232 255
215 232 255
215 232 255
215 232 255
215 232 255
215 232 255
215 232 255
215 232 255
215 232 255
215 232 255
215 232 255
215 232 255
215 232 255
215 232 255
214 232 255
214 232 255
214 232 255
214 232 255
214 232 255
214 232 255
214 232 255
214 232 255
214 232 255
212 229 253
115 139 191
68 103 165
69 105 174
68 103 169
67 102 167
66 100 167
66 100 161
68 104 166
68 104 161
66 101 162
64 97 160
67 101 164
66 101 159
65 100 155
66 101 162
67 103 167
68 103 165
67 102 164
68 103 161
66 100 154
65 99 154
65 100 162
66 100 164
67 102 163
66 100 165
67 103 164
66 100 165
68 103 167
66 101 160
66 100 160
66 100 158
69 105 167
67 101 155
65 98 151
67 102 161
65 98 154
65 99 154
67 102 164
67 101 155
65 99 155
67 102 163
65 98 155
66 101 162
66 100 155
65 99 155
65 99 158
65 98 151
67 101 160
66 100 153
66 100 157
64 97 153
63 96 153
67 101 163
66 101 164
65 99 158
64 98 162
66 100 157
67 101 160
67 101 161
63 96 151
67 101 165
66 100 157
64 97 149
68 103 166
65 98 157
67 102 162
68 103 164
66 100 158
63 96 150
66 100 162
64 97 157
66 100 162
66 99 160
64 96 155
64 97 154
113 137 186
211 228 252
214 232 255
214 232 255
214 232 255
214 232 255
214 232 255
214 232 255
214 232 255
214 232 255
214 232 255
215 232 255
215 232 255
215 232 255
215 232 255
215 232 255
215 232 255
215 232 255
215 232 255
215 232 255
215 232 255
215 232 255
215 232 255
215 232 255
215 232 255
215 232 255
215 232 255
215 232 255
215 232 255
171 179 180
137 133 91
134 132 90
131 130 91
136 134 92
131 130 91
142 141 98
129 129 90
134 133 94
141 140 99
146 144 100
133 132 94
132 132 93
140 138 95
145 144 99
136 135 94
143 141 97
141 140 97
137 137 96
142 141 98
154 152 105
150 149 103
150 148 100
148 146 98
151 149 101
157 155 107
150 147 100
150 148 102
148 146 96
153 149 100
151 149 102
158 155 106
154 151 101
157 155 104
155 151 101
149 148 102
151 149 103
163 160 108
159 157 107
159 156 105
163 160 108
153 151 101
159 155 105
162 159 106
159 155 103
158 155 103
158 155 104
159 155 104
161 159 108
157 154 103
157 153 101
162 158 107
162 159 107
156 152 98
165 160 105
160 156 101
162 157 101
162 158 102
161 157 103
160 157 102
157 153 102
158 155 101
167 162 108
163 159 104
148 145 93
161 157 102
163 158 104
157 153 99
163 159 105
160 156 103
164 160 104
161 157 101
160 156 103
161 157 104
165 160 104
167 163 106
164 160 104
164 159 103
162 159 105
161 158 103
167 162 106
161 157 102
158 153 99
169 164 108
162 157 99
165 159 104
158 154 97
158 155 100
163 159 106
162 158 101
164 159 98
161 156 101
159 155 96
158 153 95
161 157 101
159 154 98
161 157 101
162 157 103
168 162 104
158 154 99
157 152 100
159 155 101
160 155 101
159 155 101
157 153 99
163 159 101
150 145 93
168 163 104
155 151 98
164 159 102
153 149 99
165 160 100
168 163 104
152 148 93
158 154 97
156 153 99
157 154 98
159 154 100
156 152 95
164 160 104
146 143 93
153 148 98
152 147 91
149 145 93
158 153 98
163 158 101
155 150 96
155 150 93
158 153 95
139 136 88
151 146 93
152 147 94
154 150 94
152 146 85
210 229 255
209 229 255
209 229 255
209 229 255
208 229 255
208 228 255
208 228 255
208 228 255
207 228 255
207 228 255
207 228 255
206 228 255
206 227 255
207 227 253
208 227 251
209 228 251
211 229 252
208 228 250
209 228 253
210 229 248
208 227 245
211 230 252
208 227 246
210 229 250
210 229 251
211 229 250
209 228 247
209 228 250
209 228 247
206 225 240
207 227 242
205 224 236
207 226 241
207 227 240
207 226 242
207 226 241
207 226 241
210 229 251
205 224 233
207 226 242
209 228 248
209 228 252
209 228 247
209 228 248
208 227 247
208 228 246
209 228 251
208 227 248
208 227 247
209 228 245
207 226 245
209 229 250
208 226 244
204 224 242
209 228 248
208 227 244
207 227 248
208 227 250
208 227 248
209 228 246
208 228 250
206 226 241
207 226 244
210 229 252
206 226 245
209 229 250
207 226 241
209 229 250
208 227 247
210 229 252
207 227 248
208 228 248
210 229 250
207 227 246
207 227 247
208 228 251
207 226 244
208 227 248
207 226 242
207 227 245
207 227 248
207 226 242
206 225 242
208 228 246
208 228 248
208 228 251
209 228 251
207 227 248
204 224 240
207 227 246
207 227 246
207 227 248
206 225 244
206 226 246
207 228 250
205 225 245
204 225 246
206 227 247
206 227 250
206 226 245
205 226 247
206 226 248
205 225 247
204 225 244
203 224 239
204 226 250
204 225 244
203 224 247
204 226 250
203 224 245
202 224 246
203 225 248
204 225 247
201 223 244
204 225 247
203 225 252
203 225 248
201 225 252
198 223 255
196 222 255
197 222 255
197 223 255
198 223 255
200 224 255
200 224 255
202 225 255
203 226 255
204 227 255
206 227 255
207 228 255
210 229 255
211 230 255
212 230 253
214 231 251
215 232 254
215 232 255
215 232 255
215 232 255
215 232 255
215 232 255
215 232 255
215 232 255
215 232 255
215 232 255
215 232 255
215 232 255
215 232 255
215 232 255
215 232 255
215 232 255
215 232 255
215 232 255
215 232 255
215 232 255
215 232 255
215 232 255
215 232 255
215 232 255
215 232 255
215 232 255
213 230 254
127 150 199
67 102 165
65 99 156
68 104 165
67 102 163
71 107 175
67 101 162
67 101 163
67 101 165
69 104 167
67 101 162
66 101 161
67 101 159
66 100 156
68 103 164
66 101 157
67 101 156
68 103 165
66 100 156
66 101 164
67 101 163
67 102 162
67 102 160
67 102 159
67 101 159
69 104 171
69 105 168
67 101 164
66 100 156
66 100 159
64 97 152
67 101 159
70 105 164
65 98 156
66 100 158
66 100 160
64 97 158
64 96 146
68 103 158
67 102 164
66 99 154
65 99 160
66 100 156
66 100 163
65 98 152
65 100 163
66 100 154
66 100 160
65 98 159
65 99 151
67 101 154
64 96 152
65 99 152
65 100 158
67 101 161
66 100 158
69 104 167
69 104 167
66 101 162
66 101 162
66 100 160
66 99 153
65 98 160
66 99 157
64 97 152
66 100 156
65 100 163
66 100 162
65 99 164
65 99 158
64 98 155
63 95 154
63 96 152
66 99 158
66 100 159
63 96 156
63 95 155
127 147 185
211 228 253
215 232 255
215 232 255
215 232 255
215 232 255
215 232 255
215 232 255
215 232 255
215 232 255
215 232 255
215 232 255
215 232 255
215 232 255
215 232 255
215 232 255
215 232 255
215 232 255
215 232 255
215 232 255
215 232 255
215 232 255
215 232 255
215 232 255
215 232 255
215 232 255
215 232 255
180 189 190
129 128 87
136 134 93
132 130 91
132 131 91
130 129 90
148 146 101
139 137 96
131 131 92
138 137 96
143 141 97
144 143 100
145 143 99
138 137 96
145 144 99
141 140 97
143 143 99
145 144 101
151 149 101
139 138 95
148 147 102
155 154 105
137 136 93
145 143 98
145 143 96
151 149 103
151 149 103
147 144 99
155 153 105
152 150 103
153 151 103
152 149 103
160 156 106
153 151 103
148 146 100
155 152 103
152 149 99
153 150 100
159 156 105
162 159 107
157 154 105
158 154 102
161 157 106
159 156 104
160 156 105
159 156 106
165 162 108
170 166 110
165 162 105
162 159 105
158 156 104
161 159 108
164 161 107
153 149 99
157 155 105
156 152 103
167 163 110
168 164 107
159 156 105
159 155 101
159 155 99
164 160 103
155 151 98
161 156 104
162 159 104
166 162 107
164 160 105
166 162 105
170 165 108
157 154 103
165 160 107
168 164 109
160 155 100
161 157 105
170 165 110
161 157 104
174 169 113
161 157 101
164 159 104
163 159 104
163 159 102
168 164 109
159 155 100
162 157 102
163 159 103
167 163 107
158 153 98
159 155 101
164 160 100
155 152 96
164 159 101
161 155 101
164 159 101
157 153 97
162 158 102
164 159 102
159 153 96
159 155 103
165 160 102
154 150 93
158 154 101
152 148 94
160 156 104
155 151 96
167 162 104
157 152 97
158 154 101
159 154 99
149 145 93
158 154 97
161 156 97
160 156 98
158 154 99
162 157 101
150 146 95
156 151 98
157 153 99
158 153 96
150 145 93
162 157 100
165 159 101
164 158 98
159 155 101
160 156 98
152 147 91
157 152 99
149 145 91
164 160 101
160 154 93
150 145 91
150 146 91
149 145 89
149 144 91
150 146 91
161 156 102
210 229 255
210 229 255
209 229 255
209 229 255
209 229 255
208 229 255
208 228 255
208 228 255
208 228 255
207 228 255
207 228 255
207 228 255
209 229 255
209 229 248
211 230 252
210 228 251
209 228 251
211 230 251
210 229 252
208 227 246
209 228 251
210 229 251
210 229 250
211 229 252
212 230 252
211 230 253
209 228 247
207 226 244
207 226 244
208 227 241
207 226 239
206 225 242
208 227 245
209 228 247
208 227 242
208 227 242
208 227 240
207 227 244
208 227 245
210 229 253
210 229 248
207 226 241
208 227 244
209 228 242
210 229 251
207 226 241
204 223 233
210 228 245
211 229 250
209 227 245
211 230 252
209 228 244
210 229 251
208 227 245
210 229 250
209 228 248
209 228 248
208 226 244
208 227 250
209 228 247
209 228 247
208 227 248
208 227 247
208 227 246
209 228 248
209 228 251
209 228 250
207 226 248
209 227 245
208 227 245
210 229 253
206 225 244
209 228 247
210 228 248
205 224 242
209 228 250
209 228 248
208 227 247
208 228 246
208 227 248
206 226 244
207 227 245
208 227 246
209 228 248
207 227 242
209 229 252
208 228 250
206 226 241
205 224 247
209 229 252
206 226 246
205 225 242
207 228 250
207 226 246
207 227 247
205 225 245
207 226 245
206 226 246
206 227 248
207 227 246
207 227 252
205 225 242
204 225 241
206 226 245
206 227 247
205 226 248
204 225 245
203 225 242
203 224 246
203 224 242
203 224 242
204 225 245
202 224 242
202 223 240
204 225 248
205 227 251
203 225 248
204 225 248
203 225 247
200 224 252
197 223 255
197 222 255
198 223 255
199 224 255
200 224 255
201 225 255
202 225 255
203 226 255
205 227 255
206 227 255
207 228 255
209 229 255
211 230 255
212 230 254
215 232 254
215 232 254
216 232 255
215 232 255
215 232 255
215 232 255
215 232 255
215 232 255
215 232 255
215 232 255
215 232 255
215 232 255
215 232 255
215 232 255
215 232 255
215 232 255
215 232 255
215 232 255
215 232 255
215 232 255
215 232 255
215 232 255
215 232 255
215 232 255
215 232 255
215 232 255
147 166 204
67 102 168
68 103 168
68 102 163
68 103 165
66 100 154
65 98 154
65 99 155
66 101 163
68 103 161
65 99 161
64 98 149
66 100 156
67 102 164
68 104 166
65 98 158
68 103 161
66 100 159
67 101 160
68 103 163
66 100 150
67 101 156
64 97 151
63 96 149
66 99 158
68 103 166
65 99 156
67 101 162
67 101 159
67 101 161
67 102 164
66 101 159
66 101 163
66 100 154
67 101 161
68 103 164
69 104 165
67 101 159
67 102 160
68 103 162
67 102 159
67 101 156
66 99 154
67 101 158
67 100 159
66 100 159
67 101 161
68 102 161
66 100 151
68 102 157
68 103 161
68 103 166
67 102 155
65 99 160
63 97 154
64 97 151
64 97 152
67 101 161
65 98 153
63 95 150
63 97 150
68 103 162
64 97 152
64 97 147
64 97 150
66 100 156
66 99 155
66 99 158
65 98 155
69 104 169
64 97 145
65 99 157
64 96 152
64 96 157
68 102 160
64 97 149
65 96 149
64 97 160
66 99 163
134 154 192
215 232 255
215 232 255
215 232 255
215 232 255
215 232 255
215 232 255
215 232 255
215 232 255
215 232 255
215 232 255
215 232 255
215 232 255
215 232 255
215 232 255
215 232 255
215 232 255
215 232 255
215 232 255
215 232 255
215 232 255
215 232 255
215 232 255
215 232 255
215 232 255
185 196 204
129 126 86
138 135 94
126 124 86
128 126 88
139 137 95
137 136 95
138 137 94
140 139 98
131 130 90
154 153 106
140 138 96
140 139 97
142 141 99
136 136 93
142 142 98
148 147 103
144 143 100
142 141 97
153 151 103
151 149 103
146 144 101
152 149 102
152 151 104
152 149 102
151 150 104
143 142 99
151 149 104
148 147 100
157 155 105
153 150 100
159 156 106
152 150 102
154 152 104
155 152 103
157 155 103
150 148 98
150 148 100
158 155 106
155 153 103
161 157 106
146 143 98
158 154 100
166 163 109
165 161 108
148 146 96
161 158 106
156 152 102
164 160 105
157 154 103
153 149 99
153 151 101
160 156 102
163 159 102
164 160 107
166 161 106
163 159 105
164 160 106
158 153 100
165 160 107
165 161 102
169 165 108
159 155 105
162 158 103
160 157 104
166 163 108
161 156 104
161 158 104
160 156 102
158 154 101
164 160 105
161 157 102
166 161 106
166 163 110
165 161 104
157 153 99
166 162 107
164 160 105
161 157 101
167 162 109
161 157 101
164 160 103
159 157 101
171 166 110
161 156 101
161 158 103
162 157 102
162 158 104
159 155 101
159 156 99
150 147 92
164 160 105
148 144 88
159 154 99
164 159 102
162 158 100
164 160 102
158 155 98
159 154 97
164 159 101
162 157 100
159 154 96
161 156 99
166 160 105
162 157 99
157 153 97
161 156 101
160 155 99
155 152 98
154 149 93
162 157 101
161 157 102
155 150 96
157 152 96
154 149 92
154 150 95
163 158 100
156 151 98
156 151 93
151 147 91
152 148 94
156 151 96
160 155 99
156 150 96
168 163 106
155 151 95
152 148 91
160 155 95
160 154 96
157 153 98
158 153 99
159 154 98
158 154 99
148 143 92
148 144 93
149 145 90
210 230 255
210 229 255
209 229 255
209 229 255
209 229 255
209 229 255
208 229 255
208 228 255
208 228 255
207 228 255
207 228 253
211 230 255
208 227 246
210 228 248
211 229 251
209 228 246
212 231 253
210 229 247
211 229 250
211 229 250
212 230 252
207 226 242
209 228 241
211 229 248
211 229 248
209 227 242
208 227 247
206 225 242
207 227 241
208 227 244
207 226 241
210 229 247
208 227 240
208 227 241
207 226 246
210 228 246
209 228 245
210 229 250
209 228 244
209 228 244
211 230 251
211 229 250
211 229 252
209 228 247
209 228 248
209 227 245
209 228 245
209 228 244
209 228 245
208 227 241
209 228 245
211 230 251
210 229 246
211 229 252
208 227 247
209 228 246
208 227 246
209 228 242
209 228 244
210 228 247
209 228 246
208 227 245
211 229 250
209 227 242
209 228 244
210 228 250
207 226 242
207 226 240
210 228 248
208 227 245
209 228 247
209 228 246
209 228 246
211 230 253
210 229 252
210 229 248
209 228 246
209 228 248
208 228 250
210 229 251
206 226 244
209 229 252
209 229 251
210 229 248
209 228 248
209 229 250
209 228 248
208 227 245
209 228 247
208 228 250
208 227 246
208 228 252
206 225 242
207 226 245
207 226 245
205 225 246
207 227 248
207 227 247
208 228 248
207 227 246
207 227 251
205 225 240
205 225 244
206 226 246
206 226 245
206 226 245
204 225 240
207 228 251
204 225 240
206 226 247
205 226 246
204 225 245
203 224 240
202 223 242
202 224 241
204 226 250
207 227 250
205 227 252
204 226 248
203 225 252
203 225 248
197 222 252
197 223 255
199 223 255
199 224 255
200 224 255
201 225 255
202 225 255
204 226 255
205 227 255
207 228 255
208 228 255
209 229 255
212 230 255
213 231 251
213 230 251
215 232 254
216 233 255
216 233 255
216 233 255
216 233 255
216 233 255
216 233 255
216 233 255
216 232 255
215 232 255
215 232 255
215 232 255
215 232 255
215 232 255
215 232 255
215 232 255
215 232 255
215 232 255
215 232 255
215 232 255
215 232 255
215 232 255
215 232 255
157 177 214
67 102 164
66 101 163
67 103 161
66 100 159
68 103 166
66 101 161
65 99 160
66 101 162
66 101 161
65 100 157
67 101 160
67 102 160
66 101 157
66 100 158
67 101 157
68 102 162
66 100 158
65 100 157
69 104 166
67 102 162
65 100 149
67 101 160
66 101 160
67 102 155
67 102 159
66 101 158
65 99 156
68 103 165
67 102 161
68 103 163
68 103 163
66 100 156
64 97 147
66 101 167
67 102 164
65 99 151
65 99 153
66 100 154
66 100 151
68 104 169
68 103 164
66 100 152
64 98 157
66 100 159
66 100 150
67 101 160
68 103 166
66 100 159
67 103 158
68 102 160
66 100 162
67 101 161
65 99 152
67 102 157
64 97 149
65 99 158
64 97 146
66 100 153
65 99 162
67 101 162
66 100 155
64 97 150
63 95 149
67 101 160
64 96 145
66 99 156
68 102 163
66 99 157
64 96 152
64 97 159
64 97 147
64 96 154
66 99 159
65 98 152
65 99 160
64 96 150
63 96 153
66 98 154
64 97 153
64 96 155
162 180 208
215 232 255
215 232 255
215 232 255
215 232 255
215 232 255
215 232 255
215 232 255
215 232 255
215 232 255
215 232 255
215 232 255
215 232 255
215 232 255
215 232 255
216 232 255
216 233 255
216 233 255
216 233 255
216 233 255
216 233 255
216 233 255
216 233 255
189 201 213
134 132 91
118 117 80
124 123 85
126 125 85
127 126 88
143 141 98
129 127 88
129 128 90
139 137 96
139 139 100
137 136 95
132 132 93
153 150 103
140 139 95
130 129 91
144 141 98
139 138 95
145 144 101
147 145 100
134 135 94
151 149 103
156 153 104
148 147 101
149 146 99
141 138 92
154 153 104
154 152 102
153 151 106
162 159 108
144 142 97
153 152 104
155 152 103
155 152 103
155 153 104
156 152 103
158 155 104
156 152 102
161 158 108
151 148 99
159 156 102
159 157 108
159 155 103
154 151 101
160 157 105
162 157 103
154 152 103
163 159 106
163 160 110
165 161 104
165 161 106
161 157 104
161 157 103
155 152 99
160 157 102
161 157 105
167 162 108
158 154 101
160 156 100
160 157 104
163 159 103
165 159 105
161 157 101
159 155 100
155 151 100
165 160 106
163 158 100
159 156 101
164 161 109
163 159 105
164 161 108
161 156 101
165 161 101
166 161 107
163 158 104
163 158 101
168 164 107
168 164 105
166 162 106
164 159 102
158 153 100
169 164 108
164 160 99
165 162 106
163 159 102
163 158 102
165 161 105
154 149 96
169 164 109
153 150 100
160 156 99
164 158 103
167 162 105
165 160 103
161 156 99
160 155 98
158 154 97
162 158 102
164 160 101
155 151 95
165 160 104
166 162 102
161 157 102
158 154 100
157 152 96
159 154 98
159 154 97
160 156 96
158 153 96
160 154 97
166 160 102
156 152 96
158 153 99
156 152 99
160 155 93
158 154 101
153 148 93
160 155 99
157 153 98
157 152 96
161 155 99
161 156 99
163 158 104
151 146 90
151 147 93
153 150 93
153 149 96
159 154 97
152 147 94
160 154 99
157 151 91
147 143 91
147 142 88
164 158 98
151 146 89
151 147 93
163 157 98
210 230 255
210 230 255
210 229 255
209 229 255
209 229 255
209 229 255
209 229 255
208 229 255
208 228 255
208 228 253
211 229 253
212 230 253
210 228 246
212 230 254
211 229 248
211 229 250
211 230 253
211 229 248
213 231 252
213 231 253
212 230 250
214 232 255
211 229 248
211 229 251
210 229 245
208 227 242
208 227 240
208 227 244
210 228 244
209 228 245
209 228 244
209 227 244
206 224 235
210 229 246
208 227 242
207 225 240
209 228 245
209 227 245
209 228 245
210 229 247
211 229 250
209 227 244
209 227 242
209 228 248
209 228 245
208 227 241
210 228 248
209 228 242
210 229 248
210 229 246
212 230 252
210 229 245
211 229 247
210 229 247
209 228 244
209 228 245
211 229 252
209 227 245
206 224 239
211 229 251
210 228 244
211 230 251
210 229 248
210 229 246
210 229 251
206 225 242
208 228 251
209 227 247
208 227 244
209 228 250
210 229 246
210 228 250
210 229 250
208 227 244
210 229 246
210 229 248
210 229 250
211 230 250
209 228 247
210 228 251
211 230 251
208 227 247
211 230 252
211 229 251
208 227 245
210 229 247
208 227 248
210 229 252
210 229 248
209 228 248
209 228 247
210 228 247
207 227 247
208 228 248
209 228 251
207 227 246
208 227 246
209 229 251
208 228 248
208 227 247
206 226 247
207 227 247
203 224 240
208 227 251
207 227 250
206 226 242
206 226 246
208 228 251
202 222 236
207 227 248
202 223 239
204 225 241
203 224 241
205 226 245
201 222 240
204 225 247
203 224 239
207 227 250
205 226 246
203 225 244
203 225 247
204 225 245
200 224 254
198 223 255
199 224 255
200 224 255
201 224 255
202 225 255
203 226 255
204 227 255
206 227 255
207 228 255
209 229 255
210 230 255
213 231 254
214 231 254
215 232 252
216 233 255
216 233 255
216 233 255
216 233 255
216 233 255
216 233 255
216 233 255
216 233 255
216 233 255
216 233 255
216 233 255
216 233 255
216 233 255
216 233 255
216 233 255
216 233 255
216 233 255
215 232 255
215 232 255
215 232 255
215 232 255
191 210 240
70 104 161
67 102 164
67 103 172
67 102 162
67 102 162
66 100 156
68 103 166
68 103 167
67 101 160
67 101 160
66 101 159
69 104 162
68 104 165
66 100 157
68 103 164
66 101 158
68 103 163
66 101 157
66 100 158
68 103 162
67 102 159
67 102 161
66 100 155
66 100 160
66 101 162
67 102 158
67 102 160
66 100 158
67 102 157
67 102 158
66 100 153
65 99 154
66 101 154
66 101 158
65 98 148
67 102 153
66 100 156
67 102 154
66 101 158
66 100 160
68 103 162
67 101 160
67 102 159
66 100 159
66 101 155
66 100 160
67 102 161
68 103 159
68 101 158
65 99 151
68 102 159
67 101 160
66 100 161
66 99 152
67 101 154
67 102 165
67 101 160
67 101 164
63 96 147
66 100 155
64 98 160
66 100 154
66 100 155
65 99 158
66 100 154
67 100 158
64 98 157
61 93 144
66 99 152
67 100 153
65 97 150
64 97 148
65 98 157
65 98 155
65 99 155
66 100 156
64 98 162
64 96 151
65 98 155
63 96 145
62 94 153
74 103 160
192 209 236
215 232 255
215 232 255
215 232 255
215 232 255
216 233 255
216 233 255
216 233 255
216 233 255
216 233 255
216 233 255
216 233 255
216 233 255
216 233 255
216 233 255
216 233 255
216 233 255
216 233 255
216 233 255
216 233 255
216 233 255
202 216 230
141 141 108
125 125 89
139 137 95
130 129 89
127 126 89
136 136 95
139 137 95
143 141 99
133 133 93
138 137 97
123 123 88
141 140 99
135 135 94
137 136 95
138 137 94
141 140 97
144 142 99
145 143 98
141 140 97
143 142 98
140 140 96
148 145 98
152 149 101
142 140 97
159 157 107
154 151 101
151 149 103
146 143 98
146 144 96
153 149 99
155 152 103
159 157 106
156 153 104
149 147 98
149 145 97
160 157 105
161 158 106
166 163 107
157 153 102
155 153 104
158 155 100
153 151 104
164 161 109
163 159 107
158 156 100
157 152 99
164 161 108
158 155 102
161 157 104
165 160 105
158 155 104
161 158 105
160 156 103
159 156 103
169 164 107
160 156 104
158 155 103
159 156 104
163 160 104
157 152 102
162 160 107
166 161 106
155 152 99
157 153 97
167 162 103
157 154 101
157 154 104
159 156 99
165 161 106
164 160 104
159 155 100
163 159 99
159 155 98
162 157 100
161 157 101
164 159 104
161 156 101
167 163 107
161 158 104
163 159 104
167 161 105
159 155 99
162 157 102
160 156 100
165 161 101
170 166 111
160 156 101
155 152 92
163 159 103
163 157 104
158 153 97
161 158 101
164 159 101
159 155 99
163 158 104
157 153 96
164 160 104
160 156 100
168 163 102
159 154 96
161 156 99
158 153 93
157 152 99
159 155 96
155 150 93
160 155 96
154 150 97
160 156 96
156 152 96
170 165 104
158 153 100
158 154 98
165 160 101
160 155 99
161 157 101
160 154 97
160 155 93
151 146 93
160 154 97
160 155 97
154 150 94
160 156 99
158 154 96
157 153 94
147 142 87
158 154 96
157 152 96
145 141 85
162 157 98
160 154 92
153 149 92
160 155 99
155 150 97
151 147 92
152 147 90
153 150 90
163 156 99
210 230 255
210 230 255
210 229 255
210 229 255
209 229 255
209 229 255
209 229 255
209 229 255
209 229 254
211 230 251
211 229 251
211 229 250
210 228 251
212 231 253
210 229 245
210 228 246
212 230 251
214 231 254
212 230 251
213 231 251
210 228 246
211 230 248
211 229 251
208 227 244
209 228 245
209 228 245
208 227 242
208 226 236
208 227 236
210 228 247
210 228 245
209 227 242
210 228 246
209 227 245
210 228 248
208 227 245
211 229 248
209 227 244
211 229 246
212 230 251
212 230 251
210 229 248
210 229 247
211 229 247
213 230 252
211 229 251
208 227 246
210 228 244
211 229 245
209 227 244
211 230 250
211 229 248
210 229 247
208 227 241
206 225 237
208 227 244
212 230 252
210 229 250
212 230 251
211 229 250
212 230 252
210 229 250
210 228 245
212 230 252
209 228 246
210 228 246
210 228 246
211 229 251
210 229 248
210 229 246
211 229 252
212 230 252
212 230 251
210 229 244
208 227 241
210 228 244
210 228 247
209 227 245
210 228 246
210 229 248
210 228 246
209 228 247
209 228 250
208 227 244
210 229 247
210 228 250
209 228 248
208 227 244
208 226 241
210 229 248
210 229 248
209 228 247
210 229 250
209 228 248
209 228 250
210 229 251
207 226 246
207 227 246
209 229 252
208 227 247
209 228 250
207 227 250
206 225 245
209 229 252
207 227 245
208 228 247
208 227 246
205 226 246
207 228 250
207 227 245
204 225 241
208 228 252
206 226 246
206 227 250
204 224 242
205 226 251
202 223 237
203 223 241
206 227 247
206 227 250
204 226 251
205 225 246
206 227 253
201 224 250
199 224 255
200 224 255
200 224 255
201 225 255
203 226 255
204 226 255
205 227 255
206 227 255
208 228 255
210 229 255
210 230 255
213 231 255
214 231 252
215 232 252
216 233 255
216 233 255
216 233 255
216 233 255
216 233 255
216 233 255
216 233 255
216 233 255
216 233 255
216 233 255
216 233 255
216 233 255
216 233 255
216 233 255
216 233 255
216 233 255
216 233 255
216 233 255
216 233 255
207 224 249
89 118 177
67 101 164
67 102 162
69 104 165
67 102 162
67 101 165
67 102 161
67 101 162
65 99 153
66 101 160
66 99 158
66 101 159
68 103 158
67 102 161
67 101 159
65 99 159
66 101 162
67 102 159
64 98 150
69 104 161
67 101 159
67 102 156
67 102 158
67 102 158
68 104 161
67 101 157
65 99 149
64 98 147
67 101 156
64 98 157
64 98 151
66 100 152
66 100 157
66 100 153
66 100 155
68 103 165
66 100 158
66 100 155
65 98 148
67 101 159
65 99 158
66 100 160
66 100 158
67 102 162
67 102 159
66 100 153
67 101 155
66 100 155
67 101 158
67 102 159
65 98 153
66 100 152
66 100 157
65 99 154
65 99 149
63 96 156
66 100 156
67 101 162
66 100 153
64 98 149
66 100 156
65 98 151
66 100 157
65 98 151
65 99 153
66 100 158
64 97 151
66 100 159
63 95 148
64 98 152
64 97 149
66 100 150
66 99 158
65 98 154
63 96 150
67 101 163
66 100 151
64 97 151
64 97 156
65 98 159
63 95 150
63 96 158
59 89 141
103 125 173
213 230 253
216 233 255
216 233 255
216 233 255
216 233 255
216 233 255
216 233 255
216 233 255
216 233 255
216 233 255
216 233 255
216 233 255
216 233 255
216 233 255
216 233 255
216 233 255
216 233 255
216 233 255
216 233 255
208 224 245
141 144 130
127 125 86
130 129 91
115 115 80
137 136 94
135 133 92
144 141 97
130 128 88
142 141 100
145 144 101
137 136 94
126 126 86
142 141 97
134 133 93
150 148 103
137 136 95
134 133 93
137 137 95
135 135 95
145 144 99
143 142 99
138 136 94
148 148 103
151 149 100
155 153 103
144 142 98
153 151 103
147 143 98
146 144 98
151 149 99
162 159 106
150 147 100
149 146 98
162 159 105
149 147 99
159 155 103
157 154 104
157 155 105
152 150 101
159 155 104
158 155 101
159 156 101
154 151 99
165 160 107
166 161 108
157 153 101
160 156 100
158 155 103
164 160 107
161 157 102
162 158 103
161 158 103
162 160 106
164 160 106
158 155 104
156 153 102
165 160 105
167 162 106
164 159 104
163 159 103
164 161 108
166 161 105
159 155 104
164 161 106
166 162 106
159 156 101
162 157 106
164 160 105
159 156 101
158 154 100
161 157 104
167 161 107
165 160 100
164 160 102
168 162 104
168 163 108
153 150 95
158 153 99
155 151 99
166 162 107
170 165 108
154 150 93
165 160 105
162 157 103
165 161 102
169 164 106
154 150 95
165 159 103
164 159 103
166 161 104
165 160 103
160 157 100
163 157 102
152 148 98
165 160 101
167 163 106
162 156 96
163 160 105
160 156 102
160 156 102
160 154 94
155 152 95
170 164 107
161 156 102
166 162 101
169 164 105
157 153 92
157 152 93
157 153 96
163 158 102
157 152 99
163 158 99
157 152 99
160 155 95
153 149 89
161 156 98
157 152 97
161 156 99
145 141 86
158 154 98
158 153 96
152 148 89
161 156 97
159 154 94
153 149 95
154 150 96
155 150 94
154 149 93
161 157 99
151 146 88
163 159 98
150 145 93
159 153 93
152 147 89
145 141 86
149 144 86
152 147 91
147 142 89
211 230 255
210 230 255
210 230 255
210 229 255
210 229 255
209 229 255
209 229 255
210 229 253
210 229 248
211 229 247
213 231 254
212 230 253
213 231 254
210 229 245
213 231 255
211 229 244
211 229 247
212 230 248
211 229 246
211 229 247
212 230 250
213 230 250
209 227 242
210 228 244
210 228 245
209 228 245
211 229 247
210 229 245
209 227 240
208 226 242
211 229 251
207 225 240
208 227 244
209 227 244
210 228 246
212 230 248
211 229 246
211 229 251
211 229 247
209 227 242
210 228 248
210 229 245
211 229 250
210 228 244
212 230 248
210 228 245
212 230 250
211 229 247
212 230 247
213 231 254
212 230 248
212 230 251
211 229 248
210 228 247
211 229 246
213 231 252
211 230 251
209 227 244
211 229 250
209 227 242
208 226 242
210 229 246
212 230 250
210 228 242
212 230 248
208 226 245
210 228 240
211 229 250
210 228 244
212 230 248
212 230 250
211 229 247
210 229 247
209 227 247
211 230 250
207 225 240
210 228 245
212 230 253
209 227 248
210 228 248
207 226 244
208 226 244
212 231 253
208 227 245
210 229 250
211 229 248
210 228 245
209 228 247
209 228 245
210 229 250
211 229 250
210 229 250
211 229 251
210 229 247
210 228 250
210 229 247
210 229 251
209 228 246
207 227 247
209 228 250
209 228 246
209 228 248
209 228 248
209 228 248
209 229 253
208 228 248
207 227 248
208 227 246
207 227 244
209 229 252
207 227 246
208 228 247
206 226 242
207 227 246
206 226 244
206 226 242
204 224 235
203 224 239
205 226 244
206 227 250
207 227 245
206 227 248
207 227 251
205 226 250
201 224 248
199 223 254
200 224 255
201 225 255
202 225 255
203 226 255
205 227 255
206 227 255
207 228 255
209 229 255
209 229 255
212 231 255
213 231 254
215 232 255
216 233 255
216 233 255
216 233 255
216 233 255
216 233 255
216 233 255
216 233 255
216 233 255
216 233 255
216 233 255
216 233 255
216 233 255
216 233 255
216 233 255
216 233 255
216 233 255
216 233 255
216 233 255
216 233 255
130 153 197
67 102 162
65 100 157
66 102 162
68 104 168
67 102 167
67 102 160
68 102 156
70 105 170
65 98 155
67 103 168
66 101 161
67 102 164
64 97 156
67 101 152
68 103 167
69 104 161
67 102 155
67 102 163
65 99 156
67 102 158
66 101 153
67 102 161
68 103 157
69 105 165
66 100 156
68 102 160
66 100 155
68 103 155
68 103 161
67 101 161
67 101 158
67 101 158
67 102 158
66 100 159
66 100 157
65 100 154
67 101 158
64 97 151
67 101 160
66 101 158
65 99 146
67 102 162
68 103 164
65 99 146
66 100 153
66 101 160
66 101 160
68 102 162
66 101 155
67 102 165
66 99 154
67 102 159
63 96 148
69 103 163
65 98 153
63 95 143
64 96 149
67 102 158
65 99 157
66 99 157
63 97 149
65 98 151
68 103 163
66 100 157
63 95 147
66 100 154
65 98 146
67 101 158
65 98 160
66 100 145
66 99 152
65 97 149
61 91 138
65 98 155
64 97 149
65 98 158
66 99 154
65 99 160
65 98 151
63 96 154
63 95 156
64 97 156
63 96 155
66 99 156
145 163 194
216 233 255
216 233 255
216 233 255
216 233 255
216 233 255
216 233 255
216 233 255
216 233 255
216 233 255
216 233 255
216 233 255
216 233 255
216 233 255
216 233 255
216 233 255
216 233 255
216 233 255
214 231 253
158 163 149
115 114 77
137 135 95
126 124 87
134 133 93
127 126 87
129 128 90
126 126 87
133 133 94
126 125 88
125 125 89
143 141 98
129 129 89
140 139 97
127 126 89
140 138 96
135 134 96
141 140 97
146 145 99
141 140 95
139 138 94
150 148 99
151 149 103
150 148 103
153 150 103
143 141 96
152 150 100
145 142 97
149 147 100
158 155 104
150 148 101
145 143 98
162 159 104
156 153 100
153 149 100
155 151 103
160 157 108
165 161 106
158 155 103
156 153 103
151 149 102
154 151 97
154 150 100
152 149 98
165 161 104
159 156 103
160 157 103
160 157 102
163 159 103
162 157 105
163 159 105
160 156 101
160 157 105
158 155 101
159 156 102
159 155 100
158 154 99
163 158 101
169 165 109
167 163 105
164 160 101
167 163 105
165 161 105
162 157 101
161 157 104
163 159 100
165 162 105
158 154 100
157 153 100
169 165 106
168 163 106
161 157 102
167 162 105
160 156 102
167 162 105
163 159 102
167 162 103
167 162 100
170 164 105
160 155 101
155 151 96
162 158 103
162 157 101
165 160 104
168 163 103
161 157 103
163 158 101
165 160 102
167 162 104
170 165 106
167 162 102
160 156 100
164 160 104
156 152 94
154 149 92
161 155 99
163 157 93
152 148 93
161 157 102
160 154 97
158 153 95
159 154 96
163 159 101
157 152 99
161 158 100
158 153 96
158 154 97
156 151 96
154 150 92
166 161 99
166 160 102
162 157 96
154 150 93
163 160 104
151 147 89
150 145 90
160 154 96
164 159 99
168 162 106
155 150 96
152 147 91
154 150 95
159 155 94
158 153 97
156 151 97
155 150 95
159 154 93
159 156 99
158 153 93
153 148 91
161 157 100
153 149 91
163 158 101
157 151 94
152 147 93
161 156 99
157 152 100
155 151 93
151 146 91
211 230 255
211 230 255
211 230 255
210 230 255
210 229 255
210 229 255
208 227 251
211 229 251
214 231 254
212 230 250
214 231 253
212 230 251
213 231 254
212 230 246
212 230 250
213 231 251
212 230 248
213 231 253
212 230 250
212 230 250
214 231 253
209 227 239
210 229 245
209 227 240
209 227 240
210 228 244
209 228 245
210 228 242
211 229 245
210 228 244
210 229 244
213 230 251
208 226 240
212 229 248
211 229 244
210 228 246
211 229 247
212 230 247
212 230 248
212 230 247
214 231 253
210 228 245
210 228 245
211 228 251
210 228 245
210 228 246
212 230 250
209 227 242
211 229 248
212 230 248
212 230 247
212 230 248
211 228 244
212 230 248
210 227 242
211 228 246
211 229 247
210 228 245
210 228 250
212 230 247
211 229 247
209 227 244
211 229 251
211 229 248
208 226 244
212 230 252
209 227 241
211 229 248
210 228 247
211 230 250
211 229 250
208 227 244
210 228 242
210 228 247
212 230 250
210 228 246
210 229 248
208 227 245
210 228 250
210 228 242
211 229 253
211 230 253
212 231 253
211 230 251
209 227 244
208 226 239
210 228 247
211 230 252
212 230 250
209 227 247
209 227 244
211 228 250
210 229 251
209 228 250
211 230 251
209 228 250
210 228 247
211 230 250
211 230 252
210 229 250
209 228 245
209 228 248
209 228 246
209 227 246
209 229 252
208 227 246
210 229 252
207 226 245
207 226 242
206 226 241
206 225 246
207 227 246
209 228 250
208 228 247
208 228 252
206 227 247
207 227 250
202 222 236
204 225 241
205 225 245
205 225 239
207 227 252
205 226 245
205 226 246
207 228 251
203 225 250
200 224 255
201 225 255
202 225 255
203 226 255
204 226 255
205 227 255
206 227 255
208 228 255
209 229 255
210 230 255
212 231 255
213 231 255
214 232 254
216 233 255
217 233 255
217 233 255
217 233 255
217 233 255
217 233 255
217 233 255
216 233 255
216 233 255
216 233 255
216 233 255
216 233 255
216 233 255
216 233 255
216 233 255
216 233 255
216 233 255
192 210 239
67 101 163
67 102 158
66 100 162
67 102 168
65 99 154
66 101 159
65 98 151
67 101 163
67 102 161
65 99 151
68 102 157
66 101 157
65 100 154
67 102 160
66 101 154
68 103 162
68 103 159
67 101 153
68 102 161
67 102 165
67 101 156
65 99 153
63 97 155
68 102 162
67 102 160
66 101 152
68 103 158
67 100 152
68 102 157
67 102 160
68 103 163
68 104 162
66 100 155
66 101 157
64 97 148
65 98 154
66 100 149
67 102 167
66 100 159
65 99 149
66 100 154
67 102 158
68 103 161
66 100 159
66 101 158
65 99 151
65 98 154
66 100 154
66 100 159
67 101 158
65 98 154
67 101 158
66 99 160
66 99 149
65 98 152
64 97 153
68 102 161
65 98 154
66 100 155
63 96 149
65 98 151
68 102 156
67 101 156
65 98 150
68 102 157
65 99 163
66 100 153
66 100 153
65 98 149
61 93 145
65 98 152
66 100 160
66 99 147
67 101 157
64 96 147
65 98 155
64 98 152
65 99 156
65 98 153
61 92 143
63 94 147
67 102 165
64 97 153
62 94 139
62 94 152
63 93 146
189 206 231
216 233 255
216 233 255
216 233 255
216 233 255
216 233 255
216 233 255
216 233 255
216 233 255
216 233 255
217 233 255
217 233 255
217 233 255
217 233 255
217 233 255
217 233 255
217 233 255
174 185 194
127 124 82
136 135 93
124 124 88
130 128 90
134 133 93
122 122 86
140 138 97
133 132 92
128 128 91
135 132 92
143 141 99
132 131 91
134 133 94
132 131 93
141 141 98
143 142 99
139 139 97
148 146 101
147 145 101
143 142 99
144 143 101
146 144 99
132 130 89
149 146 98
152 150 102
156 154 103
147 146 102
155 152 102
153 149 99
153 150 101
158 154 103
151 148 101
156 153 104
153 150 100
153 151 102
147 146 100
151 148 99
157 154 102
155 152 98
157 154 102
159 155 101
167 164 106
164 160 104
154 151 101
159 156 104
154 152 99
160 156 102
163 160 104
157 152 100
160 157 101
160 157 106
161 157 103
159 155 101
164 161 105
154 150 96
167 163 104
169 165 110
162 159 103
166 162 106
161 157 102
165 161 105
168 163 109
165 160 104
169 165 109
164 160 101
166 162 106
159 154 99
158 155 103
170 165 107
168 164 106
166 162 106
165 160 103
164 159 101
162 158 99
164 159 100
167 162 104
158 153 97
163 160 104
168 163 105
160 154 99
166 161 101
165 161 100
164 160 105
166 161 100
169 163 102
164 159 104
165 161 104
162 158 104
163 159 104
167 162 103
162 158 100
160 155 98
166 161 99
157 153 101
158 152 95
158 153 97
162 156 99
159 154 98
163 159 99
166 160 101
162 158 99
169 163 104
164 159 103
163 158 101
158 153 97
158 154 97
157 152 94
160 156 99
160 155 102
162 158 99
157 152 99
160 156 98
156 152 94
149 145 90
161 157 99
162 156 99
168 162 104
165 158 97
167 161 100
157 153 94
147 143 86
156 150 93
161 156 101
156 152 96
162 157 98
168 162 104
159 154 97
159 154 95
155 151 94
148 145 88
154 150 99
155 150 90
154 149 94
152 148 86
163 157 93
154 149 89
161 156 94
148 145 87
153 148 95
211 230 255
211 230 255
211 230 255
210 230 255
209 229 254
212 230 253
213 230 252
214 231 254
213 231 252
214 231 254
211 229 247
212 230 247
214 231 250
213 231 252
211 229 246
213 231 251
213 230 251
213 231 251
213 230 248
213 230 247
206 224 236
208 226 235
210 228 241
210 228 246
209 228 241
209 227 237
210 228 241
211 229 246
210 228 246
209 227 237
211 229 245
211 228 246
210 228 244
211 229 245
212 230 246
208 226 245
213 230 253
210 228 242
211 228 242
211 229 247
212 230 247
212 230 250
210 228 245
212 230 246
211 229 247
210 228 245
213 230 248
212 230 248
213 230 252
211 228 244
210 228 246
212 230 252
210 227 242
211 229 245
211 229 247
211 229 246
211 229 248
212 230 247
212 230 247
213 231 252
210 227 244
212 230 248
213 231 250
210 228 244
212 230 251
212 229 246
208 225 240
208 226 242
212 230 247
210 228 244
211 229 250
209 227 246
211 228 246
212 230 251
210 228 245
212 230 250
211 229 246
211 229 248
210 228 247
212 229 248
212 230 251
210 228 247
211 230 250
210 228 247
212 230 252
212 230 251
210 229 247
209 227 244
209 227 242
211 229 250
211 229 244
209 227 242
210 229 248
210 229 247
209 228 245
209 227 246
207 225 242
212 230 251
211 229 250
209 227 247
210 229 246
210 229 251
211 229 252
208 226 237
209 228 247
209 228 245
210 229 253
209 227 244
211 230 254
209 228 247
209 229 251
207 226 240
207 227 244
207 227 246
205 225 242
208 228 251
207 227 247
206 226 244
206 226 242
202 222 237
207 227 248
205 225 247
207 227 247
208 228 253
207 227 247
206 227 247
205 226 252
201 225 255
202 225 255
203 226 255
204 226 255
205 227 255
206 227 255
207 228 255
209 229 255
210 229 255
212 231 255
214 231 255
214 232 253
216 233 254
217 233 255
217 233 255
217 233 255
217 233 255
217 233 255
217 233 255
217 233 255
217 233 255
217 233 255
217 233 255
217 233 255
217 233 255
217 233 255
217 233 255
217 233 255
214 230 254
100 127 179
67 102 163
67 102 162
65 99 161
66 100 154
67 102 162
66 100 155
67 101 157
67 102 157
66 100 159
66 100 157
66 101 158
67 103 162
65 100 158
66 100 153
66 100 155
67 103 157
66 101 158
68 103 162
65 98 152
66 101 149
65 98 154
69 104 162
67 101 163
68 102 159
67 101 159
68 103 154
67 101 153
68 103 156
68 103 157
67 102 154
65 100 158
65 99 150
66 100 142
66 101 159
67 102 156
65 99 151
66 100 151
68 102 151
66 100 153
68 103 159
66 100 153
65 99 151
67 101 151
65 99 155
66 100 155
65 99 138
64 97 146
64 98 145
67 101 158
66 99 155
66 99 156
68 102 157
67 101 158
65 99 155
65 98 142
63 95 149
66 100 159
66 100 153
65 99 154
65 98 150
65 99 143
64 97 146
63 95 146
67 101 154
65 99 153
65 98 160
66 100 157
66 100 156
64 96 147
66 99 156
66 100 160
64 96 145
64 97 149
64 97 148
66 100 163
64 97 155
67 100 162
65 99 157
62 94 147
66 99 153
62 94 144
64 96 148
64 96 148
64 97 151
63 96 151
64 95 154
109 131 172
211 227 250
217 233 255
217 233 255
217 233 255
217 233 255
217 233 255
217 233 255
217 233 255
217 233 255
217 233 255
217 233 255
217 233 255
217 233 255
217 233 255
217 233 255
197 210 223
139 135 92
133 130 88
124 123 87
127 126 90
124 123 86
127 127 89
123 124 87
116 117 84
119 119 85
134 134 96
126 127 90
129 128 90
138 136 93
141 140 97
130 129 91
142 141 98
146 144 99
148 147 100
142 141 96
143 142 97
149 148 102
149 148 99
150 148 102
143 140 96
153 150 102
146 146 99
145 143 97
151 149 101
159 157 107
150 147 100
156 151 100
151 148 101
150 147 99
149 146 96
153 151 101
149 146 98
148 145 99
159 155 103
156 153 102
158 155 102
155 153 99
161 157 102
160 157 106
166 163 109
156 154 103
157 154 104
160 157 104
163 160 108
161 156 105
166 161 102
163 159 105
162 159 105
164 159 102
165 161 108
160 156 103
159 156 103
159 156 103
161 157 103
166 162 107
163 159 100
161 156 104
168 164 110
163 159 105
162 157 100
165 160 103
166 161 104
167 161 105
161 157 101
168 163 105
163 158 101
158 153 96
171 167 107
162 158 99
167 163 104
162 157 99
168 162 104
157 152 96
165 160 106
163 158 100
167 162 104
167 162 105
162 157 98
165 160 104
162 158 99
173 168 109
167 163 108
161 157 99
166 161 104
163 158 101
160 155 98
164 159 102
161 156 101
161 155 96
158 153 99
161 157 98
162 157 96
162 158 102
162 157 100
160 155 96
165 161 97
162 157 95
159 154 98
165 161 102
158 154 100
165 160 103
158 154 95
161 157 99
161 157 98
166 161 102
158 153 93
161 156 103
162 157 94
164 159 100
159 153 96
163 159 101
160 155 99
147 142 87
161 156 99
164 159 101
157 152 96
155 150 94
161 156 98
164 158 99
161 157 96
157 152 94
157 152 100
164 158 100
159 154 96
153 148 92
159 154 96
151 147 93
164 158 101
147 144 89
158 154 96
154 148 93
156 151 93
150 145 89
152 148 91
154 150 92
157 152 94
211 230 255
211 230 255
211 230 255
211 230 255
211 229 253
212 230 251
213 231 252
215 232 253
213 231 252
214 232 252
213 231 251
213 230 251
212 229 248
214 231 250
214 231 252
215 232 255
214 231 251
213 230 247
210 227 245
211 229 244
208 226 239
210 228 237
211 229 245
208 226 237
209 227 245
211 229 245
210 228 244
210 227 242
213 230 248
211 228 246
210 227 244
212 229 250
212 230 246
211 229 244
213 230 247
209 226 237
211 229 241
214 231 252
212 229 248
212 229 244
213 231 252
209 227 241
210 228 241
211 228 241
211 229 245
209 226 245
212 229 250
214 231 252
214 231 252
211 228 245
209 227 241
214 231 251
211 228 244
211 229 246
212 230 247
212 229 250
213 231 250
210 228 245
214 231 253
212 229 248
211 229 247
211 229 246
212 230 252
211 228 246
213 230 248
214 231 251
212 229 247
213 230 250
212 230 252
211 229 244
213 231 252
212 230 247
212 229 247
211 229 250
212 229 245
212 230 248
209 227 245
212 230 250
210 228 246
210 228 244
212 230 250
211 229 247
212 229 246
212 229 250
211 230 248
211 229 246
212 230 251
211 229 244
211 229 248
211 229 246
211 229 252
210 228 246
212 229 247
210 228 248
211 229 248
210 228 246
211 229 250
210 229 246
212 230 252
211 229 247
210 228 245
210 229 247
211 229 251
209 228 250
211 229 250
212 230 252
210 229 246
207 227 244
209 228 241
210 228 248
208 227 245
210 229 248
208 228 245
210 229 252
208 227 244
208 228 246
208 227 245
207 226 247
208 227 247
205 225 237
206 226 246
206 225 241
203 224 241
207 227 248
208 228 248
208 228 253
208 228 253
204 226 252
202 225 255
202 225 255
204 226 255
205 227 255
205 227 255
207 228 255
208 228 255
209 229 255
210 230 255
213 231 255
214 232 255
216 233 254
217 233 254
217 233 255
217 233 255
217 233 255
217 233 255
217 233 255
217 233 255
217 233 255
217 233 255
217 233 255
217 233 255
217 233 255
217 233 255
217 233 255
217 233 255
151 170 205
68 103 170
67 102 161
66 101 159
67 102 159
67 101 158
68 102 160
67 102 161
66 101 157
68 103 160
67 101 157
66 100 153
68 103 158
66 99 155
65 99 148
65 99 154
67 102 158
67 102 160
68 103 163
68 103 157
65 99 147
66 100 160
67 101 152
67 102 155
66 100 159
67 102 152
67 102 157
67 102 159
66 101 158
66 101 157
66 100 152
65 99 151
69 104 158
65 99 158
66 100 155
66 101 155
63 97 146
65 99 155
66 101 151
66 100 155
65 99 150
65 99 151
66 100 156
68 103 163
66 100 152
65 99 155
67 101 151
65 98 155
67 102 156
67 102 156
65 98 150
66 101 159
66 100 157
68 102 154
65 99 159
67 102 153
66 101 156
66 99 152
65 98 149
64 97 151
63 95 150
63 96 149
65 99 152
63 96 149
65 100 158
64 98 148
64 97 153
64 97 149
66 99 149
62 94 137
65 99 157
65 97 149
65 98 152
65 98 151
68 102 161
66 100 155
66 99 150
64 96 152
62 94 141
63 96 149
63 95 148
65 98 150
64 96 151
63 95 146
61 92 143
64 97 151
63 96 151
61 91 146
63 95 152
159 177 209
217 233 255
217 233 255
217 233 255
217 233 255
217 233 255
217 233 255
217 233 255
217 233 255
217 233 255
217 233 255
217 233 255
217 233 255
217 233 255
215 231 251
132 134 116
128 127 87
123 122 86
130 129 91
130 129 90
120 120 84
126 126 90
120 120 86
129 129 90
127 126 89
130 131 93
119 119 82
135 135 96
136 135 94
130 130 93
135 134 92
140 140 97
144 143 98
142 141 99
135 134 94
136 134 91
141 141 95
145 142 96
143 141 97
135 134 91
148 146 97
148 146 100
153 151 101
142 141 96
148 146 98
147 145 96
157 154 101
157 154 103
150 148 96
156 154 103
152 149 94
153 151 101
149 147 95
155 152 104
159 155 103
154 151 99
153 150 100
157 154 105
155 151 100
163 160 105
155 152 100
164 160 104
163 160 106
159 155 98
160 156 103
158 155 101
155 152 99
172 166 111
156 152 99
167 161 105
168 164 107
170 167 110
157 153 98
158 154 99
157 153 99
161 157 105
160 156 103
161 157 100
168 164 106
166 161 103
162 158 104
165 160 103
161 156 102
164 159 101
159 154 98
162 158 101
170 165 106
157 152 95
167 162 103
164 159 103
168 163 105
165 161 104
163 158 99
169 164 105
165 160 104
165 160 101
163 158 100
165 162 105
158 153 98
169 165 103
167 163 104
163 158 98
162 158 100
172 167 108
166 161 99
166 162 103
157 152 99
163 158 101
165 161 102
158 153 96
161 156 100
165 162 104
162 157 97
157 153 96
161 156 101
165 159 102
162 157 99
170 166 104
161 156 100
166 161 101
165 160 99
167 161 104
164 159 101
155 150 91
158 154 99
160 156 98
160 155 96
163 159 99
160 155 98
162 157 99
155 150 96
159 153 96
163 157 101
151 146 94
157 152 93
160 156 101
158 153 94
157 151 97
155 150 89
161 155 95
153 148 94
157 153 94
158 153 93
146 143 90
156 152 95
160 154 94
166 161 103
160 156 99
158 153 91
163 159 99
157 152 91
165 160 100
157 152 92
154 149 94
153 149 91
153 149 83
212 231 255
212 230 255
211 230 255
213 231 254
214 231 252
214 232 253
214 232 253
215 232 254
213 230 248
214 231 248
213 231 248
214 231 250
215 232 254
211 229 245
212 229 242
213 230 247
214 231 251
214 231 251
211 228 242
209 227 239
212 230 247
213 231 248
213 230 246
210 228 240
211 229 244
211 229 244
213 230 248
214 231 252
208 226 240
212 229 246
211 229 246
212 230 246
210 228 242
213 230 246
210 228 242
212 230 244
210 227 241
212 229 247
212 230 248
211 229 246
212 230 247
213 231 250
214 231 253
214 231 251
212 229 247
212 229 241
212 230 247
212 229 247
214 232 253
213 230 247
212 230 250
214 231 252
211 229 244
211 229 247
210 227 245
214 231 250
212 229 250
209 226 242
212 229 247
211 228 245
213 230 250
210 228 241
211 228 250
211 229 248
212 230 250
212 230 247
213 231 250
212 230 247
212 229 248
211 228 244
212 229 242
212 229 248
213 231 248
213 230 247
213 230 248
212 230 250
211 229 248
213 230 253
213 230 247
212 230 248
211 229 250
213 231 252
211 229 247
211 228 248
211 228 245
211 228 245
211 229 247
211 229 246
211 229 247
211 229 245
211 229 247
210 228 244
210 228 245
212 230 250
210 228 241
212 230 250
212 230 251
212 230 252
213 230 250
211 229 250
211 229 247
212 230 253
210 228 244
209 227 241
209 228 245
208 227 244
212 230 252
211 229 248
210 228 247
209 228 245
209 227 245
208 227 245
211 229 250
211 230 253
209 228 247
210 230 254
208 227 241
209 227 244
207 227 244
205 224 236
206 226 241
207 227 247
206 226 245
207 227 247
210 229 252
208 228 252
208 228 250
208 227 246
204 226 251
203 226 255
204 226 255
204 226 255
205 227 255
206 228 255
207 228 255
209 229 255
210 230 255
211 230 255
213 231 255
215 232 255
216 233 253
217 233 253
217 234 255
217 234 255
217 234 255
217 233 255
217 233 255
217 233 255
217 233 255
217 233 255
217 233 255
217 233 255
217 233 255
217 233 255
210 226 250
80 110 168
66 100 164
68 102 164
66 100 160
65 100 163
68 103 159
67 102 166
68 103 163
68 103 162
69 104 170
65 99 161
65 99 150
67 101 160
65 98 154
66 101 151
67 102 158
67 102 158
67 101 159
66 100 154
67 102 156
67 101 160
67 101 155
64 98 149
68 103 152
67 102 159
68 103 154
67 101 155
66 99 146
66 100 158
66 100 148
66 100 160
65 99 147
67 101 157
67 101 156
68 102 159
64 96 144
65 99 151
68 103 163
68 102 160
67 102 154
66 99 149
66 100 147
65 98 145
66 100 150
66 100 158
65 99 148
68 103 155
67 102 160
66 100 157
66 100 157
67 101 149
66 100 153
65 98 148
65 99 146
65 98 150
66 99 148
66 100 152
64 96 139
65 99 151
67 101 158
67 101 153
66 99 148
64 97 149
66 100 149
65 98 154
64 97 146
66 100 147
64 96 144
66 100 154
66 99 156
64 97 149
65 99 155
63 96 146
63 96 156
65 98 156
64 97 152
64 97 151
65 99 155
64 96 143
63 96 151
64 97 148
63 94 143
63 95 147
63 95 148
63 95 150
64 96 150
62 94 146
61 92 144
62 93 149
74 102 158
207 223 247
217 233 255
217 233 255
217 233 255
217 233 255
217 233 255
217 233 255
217 233 255
217 233 255
217 234 255
217 234 255
217 234 255
217 234 255
175 183 184
126 124 86
112 111 78
138 137 95
128 127 90
115 114 77
118 119 84
123 123 90
131 130 92
118 119 82
127 127 91
132 132 91
138 137 96
120 121 87
132 132 94
142 142 100
133 133 92
136 135 94
137 137 96
133 132 90
146 144 100
134 134 93
140 139 97
148 146 100
143 142 98
147 146 99
144 142 96
140 139 94
144 141 96
146 144 97
148 147 99
149 147 98
157 154 104
152 149 100
152 148 99
158 155 101
157 154 101
152 149 98
150 148 100
156 152 102
153 149 99
162 158 104
156 153 100
161 157 102
162 158 102
161 158 101
163 159 103
162 159 101
164 160 104
161 158 102
164 160 104
152 149 96
157 154 102
165 160 105
167 162 109
163 158 99
167 162 104
160 157 103
167 162 103
161 156 100
151 147 92
158 155 98
156 152 96
163 158 102
169 165 108
160 155 100
162 157 102
163 158 101
162 158 102
156 152 95
166 161 101
165 160 107
161 157 95
170 164 106
166 161 101
162 158 100
158 154 99
164 159 102
166 160 99
159 154 95
160 156 98
168 163 103
163 158 101
160 155 93
159 153 98
166 162 103
171 166 108
164 159 99
166 160 101
166 160 100
165 161 105
170 165 103
168 162 102
163 157 93
163 158 101
161 156 95
164 158 100
164 159 98
169 163 102
167 163 101
158 153 96
165 160 99
162 157 98
164 159 98
163 159 98
161 157 95
162 157 103
161 156 97
155 151 93
163 158 103
158 154 93
159 154 95
160 156 97
163 158 97
165 160 99
167 162 100
156 151 95
164 158 97
152 147 92
163 159 98
157 153 96
159 153 96
157 152 96
163 157 97
157 152 98
150 147 92
160 155 97
165 160 101
166 160 98
149 145 88
164 159 96
152 146 91
164 159 100
159 153 96
159 154 97
155 149 92
154 149 93
161 155 93
154 150 89
162 157 100
159 153 95
149 146 91
212 231 255
212 231 255
212 230 251
211 229 246
215 232 254
214 231 252
212 229 246
215 232 252
214 231 252
214 231 248
214 231 252
212 229 248
213 230 248
213 230 250
214 231 248
215 232 254
215 232 253
213 231 248
209 227 242
212 229 246
212 230 244
213 230 246
210 227 245
213 230 247
214 231 251
214 231 251
211 228 244
211 228 241
213 230 248
214 231 251
211 228 247
211 228 245
208 226 242
213 231 248
210 228 245
214 232 252
210 228 241
212 230 248
214 231 251
211 228 242
212 229 248
212 229 241
213 231 247
214 231 250
213 231 248
213 230 250
212 229 247
215 232 251
213 230 247
214 231 250
213 230 246
211 228 246
214 231 251
212 229 246
214 231 251
214 231 250
212 229 245
212 230 248
213 230 247
214 231 252
211 228 247
213 230 247
212 229 247
210 227 244
213 230 250
213 230 250
213 231 252
213 231 251
214 231 251
212 229 247
213 231 252
213 231 251
213 230 248
210 227 246
211 228 248
212 229 245
210 228 246
213 231 251
213 231 251
212 229 247
213 230 244
210 228 240
212 230 248
212 229 248
209 227 241
212 229 250
211 229 246
212 230 250
212 230 251
212 229 246
212 229 246
211 228 246
213 230 250
212 229 248
211 229 247
212 229 246
211 229 250
211 228 244
212 229 247
212 230 248
211 229 247
211 229 248
211 229 246
213 231 252
212 230 248
210 228 247
210 228 244
213 230 250
211 229 247
207 225 237
209 227 240
208 227 242
210 228 248
209 228 244
211 230 251
209 228 247
210 229 247
208 228 245
209 228 247
210 229 251
207 226 240
209 228 247
206 225 241
207 227 247
207 227 247
210 229 254
210 229 252
208 228 247
206 227 247
204 226 253
203 226 255
204 226 255
205 227 255
206 227 255
207 228 255
209 229 255
210 229 255
211 230 255
212 231 255
214 232 254
215 232 254
216 233 253
218 234 255
218 234 255
218 234 255
218 234 255
218 234 255
218 234 255
218 234 255
217 234 255
217 234 255
217 234 255
217 234 255
217 234 255
137 157 196
66 101 161
67 101 165
67 102 160
69 104 162
68 103 163
67 101 157
65 99 156
67 102 158
66 100 152
67 102 162
67 101 157
68 103 162
68 102 165
68 103 165
67 101 152
67 101 160
67 101 156
67 102 153
68 103 163
65 100 153
68 103 162
64 98 152
66 101 155
66 101 159
65 99 152
67 101 154
68 103 154
66 99 149
67 101 156
66 100 153
65 98 152
66 99 148
66 100 152
66 100 154
67 102 159
66 100 154
65 99 155
68 102 165
66 100 154
67 101 158
65 97 147
67 101 152
68 103 160
66 100 154
64 97 137
67 101 157
65 99 147
64 97 152
66 99 149
68 103 148
65 98 145
64 98 149
67 100 150
66 101 156
69 103 163
65 99 150
67 101 152
66 100 153
67 101 154
67 101 157
68 103 161
64 98 151
64 97 143
65 99 151
62 94 142
64 97 147
66 100 153
65 99 155
65 98 150
67 101 156
65 99 153
65 98 144
66 99 161
64 97 149
66 100 154
65 98 148
63 95 150
66 100 157
62 93 138
64 97 154
65 98 151
66 99 154
64 95 145
63 94 136
65 97 148
63 95 148
61 92 143
66 99 153
63 95 148
62 94 150
153 170 200
217 234 255
217 234 255
217 234 255
217 234 255
218 234 255
218 234 255
218 234 255
218 234 255
218 234 255
218 234 255
218 234 255
202 215 230
126 125 84
117 118 84
123 121 84
120 120 85
131 131 91
117 117 83
115 117 85
126 125 87
107 109 79
125 125 86
126 126 88
124 123 85
125 126 88
116 117 85
125 123 84
141 140 97
138 136 93
142 140 95
137 136 95
129 129 90
141 139 93
137 136 92
137 135 93
144 144 99
139 137 94
149 147 98
146 144 96
159 156 105
156 154 103
154 151 100
152 149 100
152 149 99
151 149 103
153 150 101
144 141 95
156 153 103
146 144 92
151 149 99
158 154 99
157 153 103
155 151 96
144 142 96
162 159 107
162 158 102
156 153 98
161 157 106
160 155 98
159 156 101
167 162 103
164 160 103
158 153 100
155 151 100
165 161 102
159 156 103
165 160 101
166 161 106
165 160 105
157 154 101
161 157 100
158 155 100
169 165 109
163 158 102
161 156 101
153 150 95
161 156 101
165 162 107
167 162 107
170 165 107
162 157 100
166 161 101
161 156 102
164 160 98
165 160 103
165 160 99
166 161 104
167 161 103
168 164 107
164 160 105
161 156 99
165 161 101
166 162 104
170 165 103
166 161 99
161 157 96
164 159 103
163 159 99
164 160 97
158 153 97
159 154 99
167 163 102
164 158 101
159 154 97
168 163 107
158 154 92
164 159 103
163 158 97
168 163 103
163 158 99
163 158 97
164 160 101
163 159 99
169 163 104
167 162 102
159 153 96
161 156 96
158 153 94
158 154 98
169 164 104
156 151 91
159 155 96
159 154 100
151 147 86
162 156 99
160 155 96
156 151 90
160 156 96
165 159 99
162 156 97
154 148 92
156 150 91
164 159 98
158 154 96
160 154 97
158 154 98
161 155 94
163 158 99
154 149 91
166 161 99
155 150 93
167 161 101
156 150 94
150 144 89
158 153 96
151 148 87
154 151 92
153 149 91
162 158 101
152 148 89
164 159 99
151 146 89
149 144 92
154 149 89
213 231 255
213 231 255
213 230 248
215 232 251
216 233 254
214 231 250
216 232 253
215 232 252
215 232 254
215 232 252
215 232 252
214 231 250
215 232 250
216 232 252
215 232 250
214 231 250
210 227 236
212 229 242
212 230 246
210 228 244
211 228 244
214 231 251
211 228 242
212 229 247
212 230 246
212 230 245
213 230 247
211 228 245
212 229 244
214 231 250
213 230 247
214 231 247
215 232 253
213 230 247
211 228 242
213 230 245
214 231 248
212 229 244
214 231 250
214 231 251
211 228 245
214 230 248
214 231 247
212 229 244
214 231 251
214 231 250
213 230 247
212 229 244
215 231 252
213 230 245
214 231 247
215 232 253
212 229 247
214 230 248
213 230 248
211 228 244
213 230 247
210 227 244
214 231 252
210 227 242
210 227 242
214 231 250
213 230 248
213 230 250
214 231 252
212 229 248
210 227 244
213 230 247
213 231 251
213 230 251
213 230 248
213 230 248
213 230 252
211 229 247
213 230 247
215 232 253
214 231 251
212 229 247
212 229 248
213 231 250
213 230 248
212 229 250
213 230 248
211 228 247
214 231 252
212 230 250
212 230 246
211 229 247
212 230 248
214 231 253
212 230 247
214 231 250
214 231 251
214 231 251
212 230 247
210 228 244
210 227 247
211 229 246
213 231 251
213 230 248
211 229 246
211 229 246
212 229 248
211 229 246
211 229 245
211 229 247
213 230 248
210 228 245
210 228 242
212 230 250
211 229 245
211 229 247
208 226 240
211 230 248
211 230 248
209 227 245
210 229 246
210 229 246
209 228 247
211 229 247
209 228 251
207 227 244
209 228 247
206 225 235
206 226 241
207 226 242
210 229 252
208 228 246
210 229 252
210 229 253
204 226 251
204 227 255
205 227 255
206 227 255
207 228 255
208 229 255
210 229 255
211 230 255
212 231 255
214 232 255
215 232 255
217 234 255
217 232 252
218 234 255
218 234 255
218 234 255
218 234 255
218 234 255
218 234 255
218 234 255
218 234 255
218 234 255
218 234 255
197 214 239
68 104 171
65 99 156
69 104 164
63 96 150
67 101 159
67 102 158
66 100 151
67 102 156
69 104 165
66 101 160
67 103 156
68 102 160
67 102 160
65 99 157
66 100 154
67 101 159
66 99 156
66 100 150
70 105 164
66 100 150
66 100 153
65 99 146
68 103 157
66 100 149
65 99 150
65 99 152
64 98 150
64 98 147
67 101 156
66 100 149
64 96 147
69 104 163
66 99 154
66 100 147
65 99 147
67 102 159
65 98 144
67 101 156
64 98 147
66 100 153
67 102 158
65 99 146
68 103 161
69 104 162
66 100 152
66 100 157
67 102 155
68 103 161
65 98 151
64 96 142
66 99 154
68 102 163
63 96 147
65 98 146
65 98 146
65 98 150
67 102 156
68 102 162
68 102 157
66 99 148
68 102 158
65 99 152
65 98 146
66 101 154
66 100 151
66 100 155
65 98 146
67 101 152
67 101 153
66 100 149
64 97 145
66 100 151
65 98 148
65 99 148
66 99 150
64 96 146
63 95 148
65 98 142
64 97 153
65 98 145
64 96 151
65 98 157
64 97 147
63 96 150
65 98 156
64 95 146
66 98 154
64 97 153
61 92 144
62 94 150
61 91 135
76 102 147
197 213 236
218 234 255
218 234 255
218 234 255
218 234 255
218 234 255
218 234 255
218 234 255
218 234 255
218 234 255
217 233 254
148 152 140
119 117 79
122 120 86
122 122 85
120 119 84
126 125 89
119 120 86
128 127 89
117 119 86
119 119 84
113 113 81
126 125 88
127 128 91
125 125 89
133 132 90
135 134 94
128 127 89
135 134 95
141 140 98
133 133 93
143 141 98
135 134 94
138 138 94
142 140 94
140 139 94
144 142 97
145 143 99
136 134 89
147 145 98
142 140 93
147 145 95
144 143 94
155 152 100
137 135 91
152 149 100
146 144 99
151 149 98
155 152 99
157 154 103
155 152 100
159 155 103
157 154 103
160 157 104
159 157 100
162 157 101
160 156 101
167 162 103
159 156 99
155 152 98
169 164 109
157 154 100
156 152 101
170 166 107
164 160 102
162 158 102
166 161 105
168 163 105
160 156 102
168 163 103
161 158 100
163 159 101
165 160 101
163 158 104
165 160 104
159 155 100
158 154 96
165 160 100
159 155 96
172 166 101
169 164 108
165 160 100
156 153 99
167 162 105
172 166 106
170 165 103
164 159 100
162 157 100
170 166 105
162 157 100
168 163 103
167 162 104
167 162 102
162 158 98
158 153 96
163 158 100
171 165 104
169 164 102
164 159 98
167 162 101
161 156 97
165 160 97
167 161 101
161 158 99
162 156 98
169 163 101
173 168 106
167 163 102
160 155 99
148 144 89
165 160 96
169 163 103
162 156 93
166 160 97
159 153 93
170 164 101
162 158 101
162 157 97
161 156 96
163 158 97
161 156 94
164 158 101
160 155 96
156 151 94
160 156 95
165 159 98
164 159 99
159 154 93
155 150 96
161 156 92
162 158 96
153 148 90
170 165 106
154 148 90
158 152 89
163 158 98
163 158 96
160 155 93
155 151 92
148 143 86
147 143 89
157 152 96
146 141 81
159 155 93
167 162 97
158 153 91
164 160 98
149 145 88
151 146 93
155 150 94
150 146 88
154 148 88
157 153 91
150 146 93
213 231 255
214 231 253
216 233 254
215 232 252
214 231 250
213 231 247
215 232 251
214 230 251
215 232 248
216 233 253
216 233 254
214 231 248
215 232 252
216 233 253
216 232 251
216 232 254
210 227 242
212 229 242
212 229 244
211 228 235
211 228 237
215 231 248
213 230 245
212 229 242
213 230 245
212 229 241
212 229 244
214 231 248
215 232 252
214 231 247
213 230 244
211 228 241
214 231 247
212 229 244
212 228 242
213 230 248
215 232 252
212 229 244
212 228 247
213 230 247
215 231 248
212 229 242
214 231 250
214 231 248
213 229 244
212 229 246
214 230 250
214 230 246
214 231 251
213 230 248
214 230 250
210 227 244
213 229 246
213 230 250
212 229 246
210 227 242
214 231 246
212 229 245
214 231 250
215 231 253
215 232 251
209 226 244
215 231 250
214 231 248
215 232 251
211 228 247
211 228 241
210 227 245
213 230 247
214 230 248
214 231 250
215 232 253
213 230 250
216 233 253
214 231 252
212 228 246
211 228 245
213 230 248
214 231 252
214 231 251
211 228 244
210 227 244
214 231 246
213 230 248
210 227 244
211 228 240
213 230 251
211 229 244
211 228 245
212 230 248
212 229 244
214 231 251
213 230 250
214 231 251
212 229 247
214 231 250
211 228 245
212 229 247
213 230 248
212 229 248
213 231 251
214 231 252
212 230 245
212 230 246
210 228 241
212 229 247
212 230 246
211 229 251
212 230 248
210 228 244
212 230 248
212 230 250
212 230 251
211 229 247
210 228 245
212 230 248
210 229 248
211 229 246
209 228 242
208 227 240
211 229 248
210 229 247
206 225 236
207 226 242
208 227 246
208 227 244
207 226 244
209 227 248
209 228 247
211 230 254
207 227 248
205 227 254
206 227 255
206 228 255
207 228 255
208 229 255
209 229 255
211 230 255
212 230 255
213 231 254
214 232 255
216 233 255
217 233 254
218 234 255
218 234 255
218 234 255
218 234 255
218 234 255
218 234 255
218 234 255
218 234 255
218 234 255
218 234 255
143 162 203
65 99 162
67 102 159
66 101 160
66 101 161
69 104 167
67 101 163
68 103 158
66 100 152
66 100 160
66 100 152
66 100 154
68 104 161
65 99 153
67 102 155
65 98 150
67 101 156
65 99 151
65 99 152
65 98 145
66 99 150
67 101 156
64 98 146
66 100 154
65 100 153
65 98 145
66 101 159
64 97 149
66 100 149
68 103 159
66 101 150
66 100 153
66 99 157
67 102 150
66 101 156
65 99 154
67 101 155
67 102 155
65 99 149
65 99 142
68 103 165
66 100 155
67 102 159
66 99 147
66 100 157
64 97 143
65 99 153
65 98 150
68 103 154
67 102 152
64 97 143
67 101 154
67 101 156
69 104 162
66 101 159
67 101 157
66 101 155
66 99 145
65 99 157
67 101 145
66 100 153
66 101 155
64 97 150
67 101 151
65 98 150
66 100 150
66 100 161
66 100 151
63 96 145
64 97 146
64 97 145
65 98 142
65 98 148
65 98 149
64 97 152
65 98 153
65 98 145
63 96 149
64 96 150
65 97 148
66 99 159
64 97 142
64 96 141
66 99 157
64 97 146
65 97 139
66 100 162
61 92 140
65 97 159
61 92 144
65 98 148
62 94 146
63 95 145
154 170 199
218 234 255
218 234 255
218 234 255
218 234 255
218 234 255
218 234 255
218 234 255
218 234 255
218 234 255
186 197 206
118 118 81
123 122 85
110 110 76
126 125 89
111 112 82
118 119 86
122 122 85
124 124 89
124 123 87
122 123 88
116 118 83
128 128 89
124 125 87
127 127 91
128 128 92
127 127 89
131 129 89
123 124 88
131 130 89
140 139 94
141 140 97
135 135 96
128 127 89
135 134 91
147 145 95
131 130 91
149 148 103
146 144 96
145 143 98
155 152 102
143 142 96
149 147 97
145 143 93
148 146 99
145 144 95
159 155 103
160 156 101
153 150 100
159 155 101
154 151 98
151 149 99
154 151 101
153 150 97
147 143 93
164 159 103
158 153 99
160 156 102
151 147 94
162 159 104
161 158 102
162 158 103
170 165 107
156 151 100
165 161 105
164 160 104
167 162 103
154 151 96
161 157 99
161 157 101
162 158 101
162 158 105
158 153 95
157 153 98
165 160 103
161 156 100
166 161 100
160 156 100
167 162 106
162 157 100
164 160 95
165 161 99
165 161 102
167 162 101
166 161 100
164 160 101
166 161 99
164 159 101
162 157 98
162 157 100
165 160 94
167 161 100
166 161 101
164 159 98
159 155 98
167 161 101
160 156 95
163 158 99
161 156 97
170 164 104
158 154 96
170 164 101
160 155 98
166 160 100
169 163 104
163 158 99
167 162 107
163 157 101
160 155 98
157 152 96
162 156 94
156 152 90
164 159 97
165 161 99
156 152 94
168 163 101
163 158 96
166 161 96
157 153 93
159 154 96
166 162 99
152 147 90
167 162 98
167 162 99
162 157 97
151 146 88
162 157 99
166 161 103
167 162 105
165 159 98
163 158 94
153 149 91
154 150 92
164 158 96
151 146 89
163 158 96
155 150 93
164 159 97
165 159 103
160 155 99
160 155 92
159 154 93
161 156 98
151 146 90
161 155 95
151 145 85
160 154 95
159 154 91
162 155 94
149 144 86
148 143 89
152 147 89
158 152 94
154 148 90
214 232 252
216 233 254
217 233 255
216 233 254
217 233 253
215 232 251
217 233 253
216 232 250
215 232 251
217 233 255
214 231 250
214 231 248
216 232 250
215 232 252
214 230 250
211 228 242
209 226 240
212 229 242
212 229 237
216 232 253
212 229 242
215 231 250
212 228 244
214 230 246
214 231 247
213 230 247
213 229 246
212 229 244
212 229 244
214 231 248
212 229 241
214 231 247
211 228 242
213 229 244
214 230 245
215 232 250
215 231 247
214 231 247
214 230 248
215 231 251
215 232 253
213 230 242
213 229 242
213 230 247
215 232 250
215 231 251
215 232 250
212 228 245
213 230 248
216 232 251
213 230 246
211 228 244
214 230 247
216 233 253
216 232 252
214 231 251
211 228 242
213 230 246
214 230 246
214 231 251
216 232 252
215 231 250
213 229 247
214 231 250
213 230 242
215 232 252
214 231 250
212 228 242
212 229 242
215 232 253
210 227 240
213 230 247
212 229 246
210 227 244
213 230 248
214 231 251
209 226 245
214 231 253
213 230 247
212 229 245
213 230 247
212 229 244
212 229 245
212 228 245
212 229 246
214 231 252
214 231 251
213 230 252
215 232 254
211 228 247
213 230 248
209 227 246
212 230 246
214 231 252
212 229 245
212 229 244
211 228 245
214 231 252
213 230 250
213 231 250
213 231 252
214 231 250
210 227 241
214 231 250
213 230 247
212 229 244
214 231 251
212 230 247
213 231 252
212 229 248
210 228 244
211 229 244
210 228 245
212 230 250
211 229 246
212 230 250
212 230 251
211 229 251
212 230 250
211 228 244
209 227 240
210 229 246
208 226 236
209 227 241
209 227 242
207 226 240
208 227 247
209 228 242
210 228 250
209 228 249
209 228 251
207 227 254
203 225 254
205 226 254
207 228 255
208 229 255
209 229 255
210 230 255
211 230 255
213 231 255
214 232 255
216 233 255
216 233 254
218 234 254
218 234 255
218 234 255
218 234 255
218 234 255
218 234 255
218 234 255
218 234 255
218 234 255
210 226 249
70 103 155
66 100 155
69 104 163
66 100 159
67 102 156
67 101 149
65 99 152
67 101 153
67 101 157
65 99 147
67 102 158
67 101 154
67 102 159
68 103 165
67 101 158
66 100 157
66 101 152
68 104 160
67 102 149
65 99 145
66 100 153
65 98 144
68 103 154
64 98 144
67 101 149
68 103 158
63 97 139
66 100 146
66 100 148
67 101 156
66 100 152
64 97 151
66 100 150
67 101 150
66 100 153
65 98 150
65 98 149
66 99 155
67 101 152
66 101 152
68 103 159
66 100 157
66 99 146
66 100 155
66 100 153
65 99 150
66 100 153
66 100 145
67 101 147
65 99 148
65 98 143
66 100 156
68 102 149
66 99 150
68 102 151
65 98 149
63 96 141
64 97 150
66 99 147
65 98 149
67 100 145
65 98 142
66 100 153
65 99 146
69 103 160
65 98 151
65 98 147
66 100 156
65 97 144
64 97 152
64 97 146
65 99 153
65 99 150
65 99 151
65 99 147
65 98 151
64 97 148
63 95 138
66 100 150
61 91 137
62 94 143
67 100 155
63 96 144
66 99 154
61 92 143
63 96 140
64 96 141
64 96 145
62 94 140
63 94 138
61 91 136
62 93 139
60 90 135
66 95 148
208 223 247
218 234 255
218 234 255
218 234 255
218 234 255
218 234 255
218 234 255
218 234 255
218 234 255
145 148 133
114 113 78
111 111 76
113 114 82
124 123 88
111 112 82
108 110 81
123 123 86
122 122 85
116 118 86
127 127 92
122 122 86
120 121 84
123 122 86
128 128 89
121 121 85
130 129 92
129 129 90
120 121 84
134 134 93
129 129 89
130 129 87
124 125 86
143 141 96
140 139 92
144 142 97
152 150 101
149 147 100
141 139 91
144 142 93
148 147 99
152 150 99
156 153 101
157 154 99
155 153 102
146 144 94
151 150 100
151 149 101
158 155 101
155 152 100
160 156 101
155 152 93
161 157 101
154 150 100
159 156 99
153 151 93
155 151 100
156 154 97
157 154 95
162 158 99
157 152 99
156 152 98
160 156 100
157 154 100
165 160 101
156 151 96
165 161 101
168 164 107
165 161 102
164 159 99
164 160 100
161 156 98
163 158 100
171 165 103
164 158 99
166 162 103
166 161 102
170 165 106
168 163 104
169 164 106
165 160 103
168 163 103
164 159 101
165 160 102
165 159 99
170 165 104
160 155 96
165 159 98
167 163 97
164 159 101
165 159 103
163 159 94
167 162 100
165 159 100
168 163 101
165 160 101
166 161 99
169 164 103
171 165 103
162 157 99
161 156 97
171 165 102
160 155 95
167 162 95
163 157 97
165 160 100
164 159 96
156 152 91
161 156 94
161 156 93
165 159 100
163 158 100
158 153 93
164 158 101
163 158 93
173 167 106
168 162 101
159 154 94
158 154 92
161 156 95
162 156 95
167 162 101
163 158 101
160 155 97
161 156 99
158 153 94
156 152 94
158 153 95
160 154 92
164 158 98
157 151 89
165 160 96
154 148 83
158 154 93
154 150 86
159 154 93
164 159 93
161 155 97
152 147 89
157 152 93
162 157 95
162 156 93
155 150 95
163 157 93
160 154 92
158 153 96
154 148 89
151 147 87
155 149 89
154 149 90
154 149 93
162 157 91
151 146 90
156 151 89
215 231 251
215 231 251
215 232 251
214 230 248
216 232 251
216 232 250
215 232 252
216 232 251
217 233 252
217 233 254
217 233 252
217 233 252
214 231 248
216 232 250
217 233 253
212 229 237
214 231 246
215 231 246
212 229 241
213 230 242
211 228 240
213 230 245
214 231 246
214 231 247
215 232 250
213 230 248
215 232 248
215 231 248
213 230 242
214 231 247
212 229 247
215 231 247
213 229 244
212 228 244
215 232 251
212 229 245
213 229 246
216 232 250
212 229 244
216 232 251
214 230 247
213 229 244
214 231 246
216 232 248
213 230 246
216 232 250
215 231 250
214 230 247
213 229 246
214 231 248
217 233 254
215 231 250
212 228 242
216 232 251
215 232 252
214 231 247
210 226 241
213 229 246
214 230 246
215 231 251
214 230 246
215 232 252
213 230 246
212 229 245
215 232 251
215 232 251
215 231 250
214 230 250
214 230 250
216 232 251
217 233 254
212 229 245
213 230 245
211 228 244
215 232 251
214 231 251
214 231 248
210 227 246
216 232 251
213 230 246
213 230 246
215 231 248
213 230 247
214 230 247
215 231 250
214 231 248
212 229 246
212 228 246
212 228 244
214 231 247
213 230 247
213 230 250
213 229 244
213 230 247
214 231 248
215 232 250
212 229 245
214 231 247
212 228 242
215 232 253
213 230 246
213 230 251
215 232 252
213 230 248
213 230 248
215 232 252
214 231 252
214 231 251
213 230 251
214 231 250
213 230 248
212 229 246
212 230 246
212 230 248
213 231 252
213 231 250
211 229 246
211 229 246
213 230 251
210 228 242
210 228 246
212 230 248
211 229 247
211 229 247
207 226 240
211 229 248
208 226 242
206 225 242
210 228 248
206 224 248
207 225 248
209 227 248
205 225 252
201 222 251
206 227 254
205 225 253
209 229 255
210 229 255
211 230 255
213 231 255
214 232 255
215 232 255
216 233 254
217 233 254
217 233 253
219 234 255
219 234 255
219 234 255
219 234 255
219 234 255
219 234 255
219 234 255
153 171 203
68 103 163
67 102 158
67 101 157
68 104 168
66 100 151
68 102 156
66 100 152
66 100 152
67 101 155
67 101 156
65 99 158
64 97 145
64 97 147
67 101 149
64 98 150
69 105 162
66 100 150
67 101 158
66 100 153
67 102 160
66 100 151
65 99 148
65 98 150
64 97 147
66 99 149
66 100 156
67 101 159
66 99 150
63 96 142
67 101 150
68 102 152
67 101 153
68 103 153
67 101 157
67 101 152
67 102 156
66 99 144
65 99 147
67 102 150
64 97 143
66 99 149
67 101 148
66 100 146
65 98 143
67 102 157
66 100 146
65 98 144
64 97 145
66 100 146
66 99 147
68 103 155
64 98 151
69 105 165
65 99 149
67 102 158
64 97 152
65 99 151
65 99 147
63 96 142
67 101 154
64 97 137
64 98 146
65 99 144
66 99 149
64 98 146
66 99 152
66 99 156
65 98 150
64 96 142
64 97 142
64 97 148
66 99 149
64 97 149
64 97 141
63 96 141
64 97 150
63 95 142
63 94 133
65 98 143
63 95 140
65 97 146
61 92 137
62 93 132
61 92 144
61 93 136
64 97 148
63 94 144
63 95 145
65 98 144
62 93 140
62 93 142
61 90 134
62 93 143
62 94 144
165 181 207
219 234 255
219 234 255
219 234 255
219 234 255
219 234 255
219 234 255
219 234 255
195 206 216
123 122 85
123 123 85
116 116 84
112 113 81
106 107 77
102 104 75
106 107 76
112 113 81
114 115 80
119 119 83
117 117 83
129 129 89
123 123 84
119 118 83
121 122 84
124 124 86
126 126 87
125 125 87
142 141 95
129 128 88
141 141 96
131 129 87
135 134 91
132 132 89
145 143 98
149 147 97
141 139 96
143 140 95
142 139 93
154 151 100
135 134 87
157 154 104
144 142 93
159 156 103
153 151 99
158 155 102
152 150 98
152 149 97
148 145 96
150 148 96
159 156 100
159 156 102
159 155 99
155 151 98
160 156 103
158 154 100
156 153 97
155 151 100
156 152 99
160 156 102
153 148 95
169 164 108
155 152 97
156 152 99
159 156 101
156 153 98
163 160 103
161 157 99
163 159 101
163 158 99
160 156 99
157 153 97
164 160 95
161 157 103
161 156 98
164 160 96
162 158 98
165 161 102
167 162 106
166 160 100
167 162 103
164 159 100
174 167 101
168 163 98
166 161 102
164 159 99
160 156 98
166 161 99
156 152 94
167 163 104
158 153 96
172 166 104
168 164 104
155 151 86
163 157 99
158 152 92
160 155 95
164 159 99
164 158 98
170 164 104
169 164 105
162 157 97
157 152 93
164 158 99
167 162 99
173 167 101
170 165 102
163 158 98
156 151 93
169 163 101
166 160 93
161 157 101
160 154 93
165 159 101
162 157 94
163 159 99
165 160 99
163 157 93
160 155 97
166 160 99
163 157 98
162 158 96
164 159 99
165 159 98
163 157 97
162 157 96
162 157 93
160 155 100
159 155 93
163 158 96
156 150 93
170 164 102
159 153 99
163 157 99
160 154 92
160 154 91
158 154 92
157 153 94
163 159 98
157 153 90
165 159 103
169 164 99
155 150 90
162 157 92
165 159 96
160 155 93
157 152 91
160 155 94
153 148 86
159 155 93
153 149 91
149 145 87
161 156 93
155 150 95
216 232 252
217 233 253
217 233 254
216 232 251
217 233 254
215 232 251
217 233 252
216 232 248
216 232 251
217 233 252
215 231 246
217 233 252
216 232 250
216 232 247
212 229 245
213 229 240
215 232 248
213 230 239
213 230 244
213 230 245
214 231 247
215 231 246
216 232 251
212 228 240
216 232 250
211 228 241
215 231 246
214 231 246
213 229 245
212 228 245
215 232 247
214 230 250
213 230 246
212 228 245
211 228 244
213 230 246
216 232 247
214 230 244
214 231 246
215 231 248
214 231 247
216 232 251
216 232 251
215 231 245
215 231 245
215 232 251
215 231 247
214 230 247
212 228 241
216 232 251
216 232 251
215 232 251
215 231 248
215 231 251
216 233 252
214 231 250
213 229 245
214 230 245
213 229 246
215 231 248
212 229 244
215 232 248
215 231 252
214 230 247
215 231 248
214 230 247
215 231 251
215 231 251
216 232 251
213 230 247
214 230 248
215 231 250
212 229 244
212 228 247
214 231 250
213 229 246
213 229 246
213 230 248
213 229 247
215 231 252
215 231 250
215 231 247
214 231 246
213 230 245
211 228 245
215 232 250
215 231 251
214 231 246
214 231 250
212 229 246
214 231 251
214 231 250
211 228 242
213 230 245
216 232 252
213 230 246
213 230 247
214 230 245
214 231 248
214 231 248
213 230 245
214 231 250
213 230 248
215 231 247
211 229 246
213 230 245
211 229 246
213 230 246
212 229 246
213 230 248
214 231 248
213 230 248
213 230 247
213 230 247
213 231 251
214 231 252
212 230 247
213 230 251
212 229 247
211 229 244
211 228 244
209 227 241
211 229 250
212 230 248
210 228 242
207 225 240
205 223 239
208 227 242
206 224 244
207 225 245
209 227 247
210 228 253
208 227 251
200 221 250
207 228 255
205 225 252
204 224 251
203 222 249
212 230 255
213 231 255
214 232 255
215 232 255
216 233 255
218 234 255
218 234 253
219 234 255
219 234 255
219 234 255
219 234 255
219 234 255
219 234 255
216 232 253
92 120 177
68 103 157
68 102 167
65 98 154
68 103 164
67 101 157
67 101 155
68 103 157
67 102 154
67 101 157
67 101 151
66 100 151
68 102 162
67 102 158
68 103 157
66 100 153
68 103 160
67 101 151
69 104 162
68 103 166
68 102 161
65 98 151
66 100 153
67 102 157
66 99 155
67 101 157
65 99 145
67 102 158
67 102 157
65 99 151
66 100 152
66 100 156
63 96 134
66 100 151
65 98 155
68 103 159
67 101 152
66 100 150
63 96 141
65 97 147
66 100 149
66 100 150
66 100 160
66 100 152
63 95 148
64 97 148
65 99 157
65 99 147
68 102 151
67 100 156
67 102 151
66 100 152
64 98 143
67 101 150
66 99 153
64 97 149
66 99 148
65 98 154
64 98 147
65 98 150
66 100 149
64 98 145
62 94 129
64 98 148
66 100 154
64 96 146
66 99 144
66 99 148
64 96 145
65 98 144
65 98 151
63 96 149
65 98 149
63 96 146
65 98 149
67 101 154
63 95 138
65 98 143
65 97 147
65 98 151
64 95 140
64 96 141
65 99 153
63 95 138
63 95 146
64 97 151
64 96 148
62 93 139
62 93 143
64 97 147
61 92 141
63 94 138
60 90 138
61 92 140
60 90 139
91 111 144
217 232 254
219 234 255
219 234 255
219 234 255
219 234 255
219 234 255
217 232 253
138 141 126
110 109 75
108 108 74
124 123 86
122 121 87
114 114 80
120 121 87
101 102 74
115 116 84
119 120 81
118 120 85
112 113 80
117 118 85
123 123 85
125 126 88
115 117 85
129 128 89
127 127 87
133 133 90
122 123 83
131 131 92
134 133 91
134 133 87
137 136 94
133 133 89
139 138 93
137 136 92
142 140 94
144 142 90
149 147 100
148 146 97
146 144 95
141 138 90
147 146 95
143 140 89
149 147 100
151 148 101
158 155 104
156 153 103
153 151 101
153 150 98
159 156 103
159 155 104
156 153 98
160 155 100
166 162 110
159 155 100
160 155 95
161 158 102
168 164 104
164 160 105
164 160 106
166 162 105
156 152 100
162 157 99
164 159 104
157 153 98
161 157 101
163 159 105
159 155 95
168 163 107
168 163 107
166 161 100
173 168 106
168 163 102
169 164 108
168 163 99
165 161 97
160 155 96
163 157 100
167 162 102
165 160 95
163 158 98
170 165 106
169 163 105
156 152 95
166 161 99
162 157 96
168 162 102
166 161 100
163 158 98
161 156 95
166 160 98
158 154 96
167 162 102
170 164 106
164 159 96
167 161 100
166 160 95
165 160 99
168 162 104
165 160 101
163 157 95
163 157 93
166 161 100
160 155 95
170 164 103
160 155 98
166 162 100
167 161 99
163 157 99
157 152 91
160 155 95
165 158 101
169 163 100
165 160 97
160 155 92
167 161 99
165 160 99
163 159 96
160 155 92
161 156 94
169 163 99
157 152 91
162 156 96
170 165 103
158 153 93
155 150 93
160 155 96
165 159 94
158 153 89
151 146 89
155 151 86
160 155 97
149 144 86
156 152 91
161 155 92
155 149 86
160 154 98
160 154 94
160 154 95
163 158 96
161 155 93
157 152 87
161 156 92
154 148 89
160 154 94
154 149 92
161 155 95
155 151 92
159 154 94
161 155 95
164 157 97
154 149 90
151 145 88
217 233 254
217 233 253
216 232 251
216 231 248
216 233 251
217 233 253
216 233 251
216 232 251
216 232 252
216 232 250
217 233 253
214 230 247
216 233 251
217 232 252
215 231 247
213 229 244
215 231 246
216 232 250
216 232 248
214 230 246
216 232 248
214 230 244
215 230 247
216 232 247
215 231 244
216 232 248
212 229 240
215 231 248
214 230 244
217 233 252
215 232 248
215 232 250
216 232 248
216 232 247
214 231 248
216 232 248
216 232 251
216 232 250
217 233 251
216 232 248
215 232 248
216 233 251
215 231 246
216 232 248
214 230 247
215 232 247
215 231 248
216 232 248
214 230 244
214 231 247
214 230 246
214 230 246
214 230 246
212 228 241
215 231 247
214 231 247
214 230 245
216 232 251
216 232 252
215 231 248
214 231 247
213 229 244
211 227 245
213 229 242
213 229 246
214 230 246
209 225 239
215 231 252
212 228 246
215 231 248
214 230 245
216 232 251
215 231 250
214 231 247
213 229 247
215 231 250
216 233 253
215 231 248
213 229 246
215 231 250
214 230 247
214 231 247
213 229 246
215 231 248
215 231 251
213 230 247
212 229 246
215 232 251
213 230 245
216 232 252
215 231 251
213 229 245
215 232 248
212 228 241
211 227 242
212 229 244
215 232 251
214 231 248
215 232 252
215 232 251
214 231 248
214 230 246
213 230 246
214 230 246
215 231 247
213 230 246
213 230 247
215 231 247
215 232 253
213 231 246
214 231 247
212 229 245
213 230 248
215 232 250
214 232 251
214 231 247
215 232 251
212 230 245
214 231 250
212 230 246
211 228 245
213 230 247
210 227 244
211 229 246
206 223 245
208 226 242
209 227 241
209 227 238
204 223 238
212 229 247
207 225 245
212 229 253
207 225 244
205 224 248
204 224 251
205 225 252
205 224 251
203 222 250
204 222 250
209 227 253
213 231 255
215 232 255
216 233 255
217 233 255
219 234 255
219 235 255
219 235 255
219 235 255
219 235 255
219 235 255
219 234 255
187 204 234
67 101 159
69 104 168
66 99 156
65 100 150
67 101 164
65 99 149
66 100 151
67 101 159
66 100 153
67 101 152
69 104 159
67 102 154
68 103 157
68 103 163
66 100 155
66 101 155
67 101 152
67 101 155
66 100 148
66 100 152
66 100 158
66 99 157
64 98 152
65 98 147
67 102 159
67 101 154
65 98 141
67 101 154
66 101 152
68 103 153
66 100 151
67 101 151
66 101 147
67 101 155
66 100 153
65 98 142
65 98 151
67 100 148
67 102 142
64 97 143
66 101 155
67 102 154
64 97 136
65 99 147
66 99 149
64 97 138
66 99 149
64 98 143
66 100 145
66 100 143
66 100 152
65 99 155
63 95 142
64 98 147
65 98 147
67 102 151
66 99 148
65 98 143
66 99 157
64 98 152
65 99 149
63 96 144
66 100 148
66 99 147
63 95 140
65 98 150
66 99 148
67 100 153
64 96 138
64 98 149
62 94 140
63 96 137
63 96 141
64 97 138
65 98 150
64 96 137
64 97 150
63 95 148
66 100 147
65 97 144
66 99 156
65 98 142
63 95 148
65 97 146
65 97 142
62 93 132
62 92 133
58 88 131
62 92 138
61 91 134
64 96 148
59 88 129
64 96 148
58 87 130
55 84 127
59 87 125
189 204 226
219 234 255
219 234 255
219 234 255
219 235 255
219 235 255
187 198 208
97 96 65
104 103 70
116 115 80
120 119 80
106 107 77
100 102 75
104 105 76
105 107 78
114 114 81
118 119 86
122 123 88
111 111 77
128 127 87
119 118 82
118 119 82
121 121 83
129 129 88
132 132 91
138 137 92
129 129 88
129 129 88
138 137 94
119 119 81
138 137 92
142 140 95
139 138 94
144 142 96
153 149 98
146 143 95
143 142 95
131 131 88
140 138 94
136 135 90
150 147 98
147 145 98
154 152 102
153 150 96
164 159 107
151 147 96
151 148 97
146 143 92
159 155 101
157 153 100
159 155 100
148 145 94
158 154 99
158 155 99
163 159 103
163 158 101
164 159 97
159 154 98
165 161 103
156 152 95
164 159 100
164 160 100
165 161 103
165 160 98
169 164 106
166 162 105
159 156 89
157 152 97
166 162 104
165 160 98
170 166 106
160 158 98
160 156 98
162 156 95
164 160 100
168 163 99
171 166 102
148 143 84
163 159 99
163 159 102
161 156 95
166 161 101
160 156 96
163 158 98
167 161 100
166 162 98
166 161 98
166 162 103
172 167 104
162 158 97
160 155 96
168 162 103
167 161 94
162 157 97
166 160 93
168 163 100
158 154 94
162 157 94
159 154 96
170 164 103
157 152 87
166 161 99
164 159 99
169 164 102
163 158 93
164 158 93
163 158 99
167 161 102
160 155 95
160 155 93
165 159 98
166 161 96
165 159 93
157 152 92
164 159 96
165 159 97
165 160 96
167 161 93
164 159 103
158 154 95
164 158 93
157 151 95
163 158 93
162 156 96
162 156 94
171 165 102
158 154 94
162 156 93
162 156 95
170 164 106
165 160 101
155 149 90
160 155 94
157 151 90
164 158 94
161 155 98
160 155 88
153 147 92
155 149 89
150 145 87
155 151 93
156 150 92
158 153 94
155 151 89
162 157 91
156 151 95
153 148 89
150 146 89
145 140 83
160 154 93
157 152 91
156 151 90
217 233 251
217 233 252
217 233 252
217 233 252
216 232 248
216 231 248
217 233 252
218 234 255
216 232 250
214 230 242
217 233 252
216 232 248
215 231 246
218 234 253
214 230 241
213 229 246
215 231 248
213 230 244
214 231 244
215 231 246
216 232 247
213 229 244
217 233 252
217 233 251
215 231 247
213 229 246
213 230 241
216 232 249
213 230 241
216 232 247
215 231 247
218 234 253
213 229 244
215 231 248
216 232 247
215 231 247
215 231 246
216 232 248
216 232 248
215 231 247
215 231 246
216 232 248
215 231 245
215 231 247
213 229 244
214 230 247
217 233 251
216 232 248
216 232 246
215 231 248
214 230 245
216 232 250
213 229 242
215 231 247
216 232 252
215 231 251
216 232 250
216 231 247
215 231 248
215 231 250
214 231 248
217 233 250
214 230 248
215 231 248
215 231 250
214 230 247
212 228 242
217 233 252
212 229 245
216 232 252
214 230 248
217 233 252
213 229 246
213 229 244
212 229 241
213 229 248
215 231 250
213 229 246
213 229 245
216 232 250
216 232 250
215 232 250
214 230 246
215 231 246
212 228 241
214 230 245
216 232 250
215 231 251
213 229 245
214 230 246
213 230 245
213 229 244
213 229 247
214 230 245
214 230 247
217 233 253
214 231 246
214 231 250
216 232 251
215 231 248
213 230 247
215 232 251
214 231 251
215 231 252
214 231 247
214 231 247
214 231 251
214 230 251
215 232 251
214 231 250
214 230 245
213 229 242
213 230 248
213 230 245
215 232 252
215 231 248
210 227 239
215 232 251
211 228 245
212 229 246
213 230 248
212 229 242
205 222 242
206 223 243
207 225 239
202 220 241
206 224 240
205 222 243
205 223 229
205 223 242
205 223 245
209 227 247
208 226 244
208 226 248
207 226 250
204 223 250
205 224 251
204 223 250
209 227 253
201 219 246
211 228 253
215 232 255
216 233 255
217 233 255
219 234 255
219 234 254
219 235 255
219 235 255
219 235 255
219 235 255
219 235 255
141 162 201
65 99 154
67 102 157
64 98 153
64 97 152
68 103 162
65 99 150
66 99 153
67 102 159
64 97 149
68 102 155
68 102 161
66 100 152
67 101 156
66 100 153
66 99 147
67 101 157
67 101 150
66 100 150
66 99 152
66 100 151
66 101 149
65 99 145
65 99 146
66 99 146
65 98 143
63 96 140
67 101 151
62 95 145
67 102 155
65 99 145
64 97 148
67 101 152
67 101 150
69 103 152
66 99 147
67 101 152
68 103 161
64 97 149
64 98 142
66 100 148
65 98 152
66 101 143
67 101 145
66 101 154
66 100 152
65 99 152
66 100 149
66 99 151
67 101 149
66 100 157
67 101 148
64 97 144
66 99 141
67 101 149
66 99 153
64 97 142
67 101 155
63 96 139
65 98 142
64 96 138
65 99 158
66 99 145
64 97 147
66 100 142
63 96 147
64 97 139
64 96 138
66 99 155
66 99 145
65 99 150
63 95 136
65 99 151
64 96 145
65 98 149
64 97 150
64 96 143
65 99 156
65 97 148
67 100 153
65 99 153
63 95 142
64 96 142
63 94 144
63 94 137
62 94 134
64 97 138
64 96 143
63 94 145
64 95 142
62 92 140
60 91 138
64 96 144
59 90 137
61 92 131
58 86 123
55 82 116
136 152 178
219 235 255
219 235 255
219 235 255
219 235 255
219 235 255
146 149 134
111 109 75
114 113 80
109 109 76
115 115 81
110 110 78
111 112 81
102 104 76
116 117 84
108 110 80
90 93 68
109 111 80
112 113 81
113 115 83
118 119 83
125 124 84
120 119 83
117 118 83
131 131 89
123 124 85
128 128 87
125 124 84
119 120 83
129 128 87
135 134 93
126 125 84
141 140 94
146 144 96
132 130 90
147 144 93
140 139 94
156 153 101
148 145 94
138 135 89
151 149 99
153 150 97
149 147 97
150 147 94
143 141 92
154 151 98
155 153 97
160 157 102
157 154 96
147 145 92
163 159 100
157 153 97
155 151 93
153 149 94
159 154 99
149 146 91
156 151 93
159 155 101
160 156 100
169 163 104
153 149 89
163 158 99
160 155 99
159 156 97
163 158 93
169 164 102
170 164 106
162 157 95
160 155 95
164 160 102
160 155 94
168 162 97
166 161 100
165 160 98
171 165 104
167 162 101
164 157 93
157 152 93
161 155 95
169 163 102
160 155 100
162 157 96
167 162 101
155 152 91
159 154 94
162 156 97
165 160 98
167 162 100
160 154 97
171 167 105
167 162 98
165 160 95
164 159 99
166 160 100
159 154 94
170 164 100
164 159 99
163 158 100
162 156 93
172 166 102
153 148 90
167 162 101
166 161 96
169 164 101
166 161 96
168 162 95
166 161 99
163 157 96
161 156 96
164 159 93
162 157 93
165 159 95
164 159 93
165 160 100
165 160 100
162 156 93
169 163 101
162 157 92
167 161 98
162 157 93
156 152 93
160 155 91
162 156 95
163 157 98
161 156 94
165 159 97
158 152 93
161 155 96
155 150 89
157 152 93
165 159 97
163 157 93
152 148 90
161 156 93
151 146 83
155 149 88
155 151 93
158 152 94
163 158 96
158 154 87
156 151 93
164 159 89
162 157 100
161 155 94
157 152 92
156 151 91
158 153 91
155 150 89
154 149 84
148 144 84
154 149 87
155 150 90
217 233 252
217 233 253
217 232 251
218 234 254
217 233 252
217 232 247
218 233 252
218 233 253
218 233 252
218 233 252
217 233 250
218 234 254
217 233 250
215 231 244
216 232 245
215 231 247
215 231 246
214 230 241
212 228 236
216 231 246
213 230 240
215 231 247
216 232 247
214 230 240
215 231 247
216 231 251
213 229 242
216 232 248
217 232 252
215 231 245
215 231 249
216 232 248
216 232 248
215 231 246
216 232 247
217 232 250
216 232 248
216 232 248
216 232 247
217 232 247
216 231 250
215 231 246
216 232 251
216 231 250
217 233 252
217 232 252
216 232 250
214 230 244
217 233 250
216 232 248
217 233 252
215 231 248
216 232 248
215 231 245
217 233 251
216 232 251
210 226 241
213 229 245
216 231 250
216 231 251
215 231 250
215 231 250
214 230 245
215 230 248
210 226 244
214 230 242
213 228 244
215 231 250
212 228 245
212 228 242
216 231 250
213 228 245
215 231 247
213 229 244
214 230 250
212 227 245
217 232 253
213 229 246
214 230 247
216 232 250
215 231 246
215 231 248
215 232 248
215 231 248
212 229 241
216 232 248
214 230 247
215 232 251
214 230 245
215 231 248
216 232 248
215 231 251
214 230 246
215 232 250
215 231 250
213 229 244
216 232 251
215 231 245
214 231 247
216 232 250
215 231 248
216 233 252
215 231 248
216 232 251
216 232 252
213 230 246
215 231 246
216 232 251
214 231 250
214 231 246
212 229 244
213 230 242
216 232 251
213 230 244
214 231 247
214 231 246
213 230 248
213 230 244
211 228 242
212 229 245
210 227 243
206 223 243
206 223 243
206 223 239
207 224 241
204 222 239
205 222 235
206 224 242
204 221 236
204 222 240
208 225 245
208 225 248
206 224 246
210 228 252
208 227 249
205 225 252
205 224 250
212 230 255
203 222 248
206 224 251
205 223 248
211 228 252
216 233 255
217 233 255
219 234 255
219 234 254
220 235 255
220 235 255
220 235 255
220 235 255
212 228 250
78 109 164
67 101 166
66 100 154
66 100 156
68 102 155
67 101 153
63 97 143
65 98 147
67 101 151
64 97 149
66 100 145
65 98 152
67 101 155
66 99 151
68 103 157
66 100 152
65 98 150
64 97 141
66 101 150
67 102 157
66 99 155
66 100 150
64 97 139
66 100 143
66 100 154
69 103 160
67 101 151
65 99 148
69 103 161
66 99 152
66 100 152
66 100 138
66 100 145
67 101 150
65 99 147
66 100 146
64 97 143
64 97 141
64 97 144
68 102 151
67 101 160
68 102 155
67 101 151
65 99 148
65 99 150
67 102 152
67 101 153
65 98 145
63 96 143
66 99 142
65 98 146
66 100 151
67 100 151
66 99 149
65 99 140
68 103 153
65 100 147
65 98 152
65 98 144
66 100 152
62 94 142
64 98 143
66 100 153
66 99 153
65 98 143
66 99 149
64 96 149
66 100 141
65 98 150
61 92 137
63 96 142
64 97 140
65 98 142
67 102 155
65 98 144
62 94 138
67 101 153
65 99 148
65 98 141
66 99 143
62 94 132
63 94 145
64 97 145
66 100 150
65 97 146
63 96 149
63 94 145
63 95 146
61 92 136
60 90 136
60 89 127
63 95 143
61 91 132
60 89 128
60 89 129
59 88 129
59 88 125
66 91 127
216 231 252
220 235 255
220 235 255
220 235 255
212 225 242
103 102 68
91 92 69
101 101 70
107 108 79
106 107 77
104 105 78
106 107 77
87 90 66
94 97 66
107 108 76
109 110 79
112 114 79
106 107 75
115 116 81
122 123 88
109 111 76
120 121 84
104 107 78
114 116 82
129 129 85
123 123 84
127 127 89
127 127 86
119 119 81
144 141 93
126 126 87
140 138 89
145 143 92
143 141 95
143 140 91
140 139 91
143 142 93
150 148 98
141 139 92
151 148 96
153 150 97
155 152 99
149 146 91
151 148 89
151 148 97
144 142 93
155 151 98
155 151 95
154 150 96
157 153 100
152 149 97
153 150 96
156 153 95
151 148 95
168 163 101
154 150 91
165 160 99
155 151 93
163 159 98
156 152 94
155 152 96
159 154 92
155 150 91
158 153 92
169 163 106
165 160 99
164 159 98
168 162 100
160 156 96
161 156 98
157 153 97
163 159 95
163 159 102
164 159 98
170 165 104
170 165 104
166 161 99
160 154 94
168 162 99
163 159 93
162 157 95
164 160 101
169 164 100
166 161 101
168 162 99
161 156 95
162 157 91
162 158 97
167 161 96
162 157 96
164 159 98
170 164 103
163 158 93
163 158 96
157 153 91
158 154 93
165 159 95
166 161 98
161 156 88
159 155 96
161 156 90
171 166 100
149 145 83
168 162 101
165 160 96
167 162 98
162 157 96
166 161 94
168 162 97
164 158 95
161 156 94
162 157 101
170 164 101
156 152 93
161 156 95
156 151 93
162 157 92
148 144 86
162 156 97
166 160 96
158 153 93
154 150 84
161 156 95
161 155 93
167 163 98
161 156 97
155 150 89
153 149 91
155 149 86
161 155 92
157 151 88
160 154 93
156 151 93
153 148 89
160 155 90
163 158 88
162 156 94
157 151 92
154 148 86
160 154 93
166 160 96
166 160 99
160 154 94
152 147 89
153 148 90
149 144 85
156 152 92
155 150 85
157 152 87
152 147 83
146 143 85
219 234 254
217 232 251
219 234 255
218 233 252
218 233 251
218 234 253
218 233 253
218 233 252
217 232 248
216 232 246
217 233 252
218 233 251
215 231 247
217 233 248
214 230 244
216 232 245
216 231 244
216 232 248
216 232 247
215 231 246
217 233 251
217 232 250
215 231 241
216 232 250
217 233 248
213 229 239
216 232 245
215 231 245
216 232 248
217 232 247
215 231 246
216 231 247
216 232 248
216 232 246
217 233 247
215 231 244
217 233 248
216 232 247
216 231 247
217 232 250
217 233 251
216 232 248
216 232 245
216 232 251
216 232 248
218 233 253
217 232 252
217 232 248
214 230 246
214 230 244
216 232 250
215 231 244
213 229 245
215 230 248
217 232 251
214 230 245
217 232 250
215 230 248
215 230 250
216 231 247
216 231 248
212 228 242
215 231 248
214 230 250
216 231 247
216 232 252
214 230 248
216 231 250
215 231 248
216 231 248
213 229 248
210 225 241
214 230 247
215 231 247
216 231 250
216 232 250
218 234 253
214 230 246
213 229 245
215 231 247
214 229 246
217 233 252
215 231 248
216 232 250
217 233 252
217 232 247
216 232 250
217 233 250
215 231 247
214 230 245
218 233 252
217 233 251
216 232 250
217 233 252
217 232 250
217 233 248
216 232 250
217 233 252
216 232 248
215 231 246
215 231 247
216 232 250
215 232 252
214 231 245
216 232 248
216 232 251
216 232 250
215 231 247
214 231 245
216 232 252
212 228 242
215 231 248
216 233 252
216 232 251
215 232 251
215 232 247
213 229 245
212 229 250
210 226 241
213 229 247
209 225 245
210 226 243
209 226 240
205 222 235
210 227 241
209 226 242
200 217 232
207 224 239
207 224 239
210 227 239
209 226 246
203 220 237
206 223 244
205 223 239
211 229 253
208 227 252
206 225 251
205 223 248
205 224 249
205 223 247
206 223 248
207 224 249
211 227 252
217 233 255
219 234 255
219 234 254
219 235 254
220 235 255
220 235 255
220 235 255
192 208 236
67 101 157
68 103 155
65 99 153
69 104 162
66 100 149
66 101 151
67 102 155
69 104 158
65 99 151
64 96 145
65 98 143
67 101 150
67 102 148
67 102 149
65 98 143
69 104 156
67 101 155
66 100 155
66 99 143
67 100 155
67 102 158
64 97 136
65 99 148
65 99 144
68 103 154
64 97 145
65 98 146
65 99 147
66 101 155
65 98 145
66 101 150
67 101 146
65 98 141
68 102 153
66 100 142
67 101 152
67 101 154
67 100 148
65 98 140
64 97 143
66 100 147
65 98 147
67 101 146
65 98 140
65 98 150
65 99 148
67 102 156
68 102 154
66 100 146
66 100 147
64 97 143
66 100 146
66 100 148
66 99 146
64 97 143
67 101 157
63 96 142
65 99 151
65 99 150
66 99 149
65 97 143
66 99 144
62 93 132
65 98 145
66 100 145
68 102 158
65 98 140
64 96 142
67 101 154
63 95 144
64 97 140
64 97 143
65 98 144
64 97 145
64 96 135
66 99 152
63 96 146
64 96 130
63 96 136
61 92 142
65 98 146
62 93 131
62 93 143
65 99 149
64 96 145
62 94 133
62 94 142
63 94 136
63 95 141
61 92 129
64 97 151
62 93 133
62 94 139
60 89 129
59 87 123
61 91 136
59 87 132
56 83 121
180 195 218
220 235 255
220 235 255
220 235 255
171 178 179
106 105 72
109 109 79
101 102 71
104 103 73
95 96 70
93 97 71
99 101 74
106 107 75
96 99 71
104 107 79
102 104 77
112 114 84
119 120 84
105 106 74
98 99 70
117 117 79
111 111 80
116 118 85
109 110 70
127 126 86
135 134 91
137 136 91
129 128 88
127 127 83
138 137 89
134 133 86
135 133 90
136 135 89
153 150 97
136 135 86
143 142 92
144 141 95
140 139 90
151 148 95
144 142 91
152 148 99
156 152 99
152 150 96
158 154 98
153 150 94
146 143 92
146 143 91
150 147 91
160 157 100
157 153 95
156 152 95
155 150 93
170 166 106
156 152 94
155 149 97
158 154 91
156 152 94
162 157 101
168 162 100
156 152 93
156 153 96
161 157 102
169 163 102
165 159 99
161 155 95
162 157 92
164 158 94
169 164 101
165 160 99
163 159 100
159 153 93
165 160 98
166 161 101
166 161 95
168 163 101
165 159 95
162 156 93
168 163 97
166 160 98
171 166 104
167 161 98
165 160 94
165 160 99
165 160 98
167 162 100
162 158 95
161 157 96
168 163 99
171 165 97
163 158 92
166 161 99
166 161 99
161 156 94
167 160 96
165 161 97
171 165 98
152 148 86
165 159 101
165 160 98
157 151 93
161 156 94
172 166 101
163 157 92
161 155 91
163 158 93
163 159 93
163 158 92
162 157 91
164 159 95
163 157 97
169 163 101
163 159 94
166 160 94
165 160 96
153 148 85
161 156 93
157 153 95
164 158 98
163 156 92
164 160 95
164 158 93
163 157 91
160 155 89
165 160 98
156 151 85
162 156 94
165 159 96
156 151 89
161 156 91
159 154 90
149 145 86
155 150 89
153 148 89
159 154 93
160 153 83
164 158 94
158 153 93
167 161 95
153 149 84
155 150 88
154 150 92
155 151 87
162 156 96
154 150 84
158 152 90
159 154 88
160 154 92
147 142 89
157 152 84
158 151 92
156 151 85
218 233 254
218 234 252
219 234 252
219 234 254
217 233 248
219 234 253
218 234 252
218 234 254
218 234 251
219 234 251
219 234 252
217 232 248
219 234 253
217 233 248
216 231 242
218 234 253
215 230 246
215 231 245
215 231 241
215 230 244
217 232 247
216 231 246
218 234 252
217 233 248
216 231 245
217 232 251
216 232 246
216 232 246
215 231 246
217 233 248
218 234 252
216 231 248
217 232 252
216 231 246
216 232 245
216 232 245
216 232 248
217 233 248
218 233 250
216 232 245
213 228 241
217 232 248
216 231 250
216 231 245
217 232 248
217 232 247
216 232 245
216 231 245
215 231 244
218 233 253
218 233 252
215 230 248
215 230 250
217 232 250
215 230 250
216 232 245
213 228 245
216 231 246
213 228 240
214 230 244
215 231 247
216 231 251
216 232 248
217 232 250
217 233 252
216 232 247
217 232 253
215 231 245
213 228 244
215 230 247
218 234 252
217 232 251
215 231 247
214 230 247
214 229 245
212 227 244
215 231 248
214 229 246
216 232 250
216 232 251
212 228 242
215 231 247
217 233 251
215 231 248
215 230 248
214 230 244
217 232 251
216 232 248
217 233 251
218 234 254
217 233 248
216 231 245
218 234 253
215 231 245
213 229 244
216 232 251
214 230 245
216 231 248
217 233 252
215 231 250
216 232 248
213 230 248
215 231 247
215 231 248
215 231 247
215 231 246
215 231 250
216 232 250
215 231 246
215 231 247
213 230 242
214 230 245
214 231 244
215 232 247
216 232 248
216 232 250
211 227 242
211 227 242
212 228 242
209 226 242
209 225 245
208 224 245
208 224 242
206 222 242
209 225 242
200 217 234
207 224 238
208 225 237
202 219 235
207 224 239
201 219 233
206 222 242
214 230 251
204 221 239
207 224 247
209 227 250
205 223 250
207 226 251
204 222 248
205 223 249
206 224 249
212 229 252
208 225 249
213 230 252
219 234 255
220 235 255
220 235 255
220 235 255
220 235 255
220 235 255
155 173 202
67 102 156
67 101 151
65 99 147
66 100 150
65 99 153
67 102 154
66 100 154
66 100 157
65 99 147
66 101 156
67 101 155
67 101 157
66 99 145
66 100 155
67 101 154
66 101 155
66 99 151
65 98 146
65 98 145
64 97 144
64 97 145
65 99 146
69 104 158
68 103 156
66 100 152
66 100 148
62 95 140
65 99 143
67 102 150
67 100 143
66 100 148
67 101 153
67 101 149
66 100 144
64 97 141
66 100 151
65 98 144
66 100 154
66 100 151
64 97 137
67 102 149
66 100 151
67 102 145
64 98 148
66 100 148
67 101 152
64 98 138
66 100 141
65 99 140
65 98 143
67 102 152
66 99 149
64 98 147
66 99 153
65 99 143
64 97 144
66 100 148
62 95 140
64 96 136
63 95 135
66 100 148
66 100 137
65 99 144
63 95 139
66 100 151
66 99 141
66 99 140
65 98 145
65 98 146
65 99 144
64 97 146
65 98 150
64 97 148
63 95 139
65 99 145
64 96 138
64 96 141
69 104 157
67 100 151
62 94 137
64 96 143
65 97 145
62 93 128
65 97 143
65 97 142
63 96 145
64 96 145
61 93 137
61 91 128
63 94 140
64 96 149
61 91 128
59 90 129
59 87 127
63 94 139
62 93 145
58 87 129
58 87 123
133 150 181
220 235 255
220 235 255
219 234 254
127 129 109
105 103 72
100 102 73
118 118 83
93 94 66
93 94 68
104 106 77
112 113 77
102 105 78
99 102 73
94 96 70
113 114 81
102 104 74
112 114 80
114 114 79
116 117 82
104 106 73
110 112 80
128 128 87
127 126 84
114 114 76
128 128 85
123 124 84
128 128 80
131 130 84
137 135 86
136 134 85
139 137 88
146 144 96
137 134 84
140 139 90
154 151 101
150 147 94
145 143 96
143 140 90
134 133 80
155 151 95
144 143 87
141 139 89
146 144 85
153 149 91
151 149 93
147 143 88
151 149 96
153 151 94
149 146 96
153 150 94
152 149 98
155 152 97
162 156 99
157 153 99
160 157 99
155 151 90
166 161 102
165 161 104
160 156 94
164 160 98
159 156 95
163 158 100
160 156 95
162 157 96
163 158 99
154 149 95
163 158 98
162 156 98
164 160 98
159 155 92
165 161 98
163 158 99
164 159 95
170 165 101
157 153 98
169 163 99
155 151 88
163 158 98
170 165 102
160 155 93
162 157 98
166 161 98
171 165 99
160 156 95
161 156 94
155 151 91
167 162 96
162 157 95
158 153 84
165 160 89
161 157 95
162 157 91
160 156 93
165 160 96
167 162 101
164 158 97
160 155 89
158 153 90
165 159 97
156 151 94
152 148 87
158 154 88
158 154 90
156 152 86
166 160 97
163 157 94
159 154 89
159 154 90
168 163 99
161 155 93
164 157 95
158 153 87
164 159 95
162 157 94
162 157 94
165 160 99
170 164 100
167 161 96
160 155 94
164 158 96
168 162 98
163 158 96
154 148 88
162 157 90
164 158 90
158 152 91
154 150 88
160 156 93
165 160 98
155 150 85
157 152 96
158 153 90
155 150 83
164 158 94
158 153 91
160 154 90
162 157 92
165 160 96
147 142 84
158 154 87
150 145 83
152 148 88
157 151 90
158 153 89
167 161 96
155 150 91
144 139 80
155 150 89
158 152 89
152 147 83
217 232 251
216 231 246
217 233 250
217 232 250
217 232 249
219 234 252
219 234 252
220 235 253
218 233 248
218 233 248
219 234 252
216 231 246
219 234 252
219 234 251
216 232 245
217 233 248
214 230 237
215 230 244
218 233 250
218 233 250
216 231 245
215 230 246
215 230 245
215 230 244
215 230 240
216 231 245
214 229 242
214 230 240
217 232 247
216 232 249
218 233 252
216 232 246
216 231 245
219 234 253
219 234 251
216 232 248
216 232 248
215 231 241
217 232 248
217 232 248
217 232 248
219 234 253
218 233 250
218 234 251
217 233 248
217 232 246
214 229 241
218 233 250
219 234 253
216 231 250
218 233 250
215 230 248
215 231 246
216 231 248
218 233 251
214 229 247
214 229 245
212 227 245
215 230 246
219 234 252
216 231 250
211 226 246
218 233 253
210 226 237
212 227 241
216 231 251
219 234 253
215 231 248
215 230 250
218 233 250
215 230 250
213 228 246
213 228 245
217 232 251
218 233 248
214 230 245
215 231 246
215 231 251
216 232 250
214 229 244
217 232 248
215 231 248
217 233 252
216 232 248
217 233 250
215 231 248
213 229 242
216 231 247
216 232 247
217 233 251
217 233 250
217 232 250
218 234 253
218 233 252
215 231 245
216 231 245
217 232 248
217 232 248
215 230 247
217 232 246
217 233 250
216 231 247
215 231 248
215 231 247
214 231 244
216 232 247
216 231 246
217 233 251
215 231 246
216 231 248
215 231 250
214 230 242
216 232 250
216 232 251
215 231 247
212 228 244
216 231 250
216 232 248
212 228 244
210 226 245
211 227 242
205 221 234
208 225 240
207 224 240
208 224 239
207 224 236
210 227 242
208 224 236
202 219 241
208 225 241
204 221 235
205 222 238
210 227 242
211 228 249
206 223 239
205 222 245
176 195 226
207 225 250
208 226 251
206 224 249
209 226 250
209 226 250
208 224 250
209 225 248
218 234 255
220 235 255
220 235 253
220 235 254
221 235 255
221 235 255
105 128 170
69 103 160
66 101 152
65 98 150
67 101 158
67 101 154
65 98 150
68 102 158
69 103 153
69 104 161
67 102 153
64 97 139
67 101 153
65 98 147
66 100 156
68 102 154
67 101 150
66 100 148
65 98 149
65 98 145
65 98 143
67 101 155
65 98 147
65 98 140
67 101 159
65 98 142
66 99 150
65 98 142
66 101 148
65 98 149
66 100 149
64 97 137
66 100 144
67 101 158
66 100 146
66 100 147
67 102 151
65 98 138
68 103 151
68 102 150
66 99 147
63 96 146
67 101 154
64 97 142
67 101 148
68 102 155
66 100 144
67 101 147
64 97 141
65 98 147
67 101 151
64 97 140
67 101 153
65 98 142
67 101 155
64 96 142
65 99 146
64 96 146
65 98 147
67 101 153
66 99 151
64 97 142
65 98 147
62 94 134
65 98 142
66 101 143
64 96 145
65 98 147
64 97 140
65 98 141
63 96 142
64 96 140
61 93 132
65 97 139
65 98 144
64 97 144
65 97 149
63 95 136
65 98 133
67 101 150
63 94 140
64 96 147
65 98 145
64 96 141
64 95 141
63 96 154
65 98 147
61 92 134
64 97 153
61 93 135
65 98 147
62 93 139
60 91 138
59 88 130
60 89 124
59 88 130
59 88 129
63 93 141
57 86 122
93 111 139
221 235 255
221 235 255
194 206 220
93 92 61
106 104 67
111 109 73
94 96 71
80 82 59
81 84 61
100 102 76
99 101 72
101 101 72
95 97 69
107 109 78
93 95 70
113 113 77
115 116 79
111 113 76
114 114 80
121 122 83
121 120 83
125 126 83
122 122 83
115 115 77
131 130 87
124 125 83
127 126 84
136 135 89
127 127 87
137 136 88
134 132 84
138 136 89
129 128 86
143 140 90
143 142 94
140 136 85
138 136 87
142 140 89
143 140 87
154 151 94
150 148 95
143 141 91
147 143 86
157 153 97
152 148 93
149 145 93
150 147 95
155 151 95
158 156 97
161 156 93
157 153 95
161 157 96
157 154 100
160 155 99
155 152 95
163 158 98
156 153 98
164 159 102
169 164 102
155 151 96
166 161 101
161 157 97
161 156 96
169 164 104
159 156 95
161 157 94
166 160 100
163 158 94
161 156 94
158 153 95
160 156 95
164 159 99
162 158 95
160 156 100
168 164 102
160 155 93
163 157 96
165 160 95
160 156 91
163 158 94
163 157 95
163 158 98
158 154 90
167 162 100
167 162 100
164 159 96
161 156 96
158 153 93
169 163 101
166 160 96
166 160 93
161 155 93
160 155 95
157 151 92
160 155 89
158 154 89
163 157 93
162 157 99
164 158 93
164 158 100
167 162 100
157 151 90
166 160 98
161 155 87
159 153 91
165 160 95
166 160 94
163 158 98
161 156 90
169 163 91
162 157 95
165 159 97
167 161 94
160 154 83
164 159 96
165 159 93
153 148 87
161 155 93
161 156 94
166 160 96
158 153 90
159 154 92
163 158 93
161 156 92
166 160 97
166 160 92
155 150 88
159 154 93
155 149 89
157 152 94
163 158 93
168 163 97
163 157 89
159 153 93
166 161 94
164 158 96
159 154 89
162 157 92
155 149 93
157 152 92
161 156 94
155 150 91
153 148 85
158 152 90
163 158 96
154 149 88
148 143 83
155 149 89
152 146 88
156 151 88
219 234 251
220 235 254
220 235 255
218 233 253
218 233 247
218 233 250
220 235 253
220 235 255
220 235 255
219 234 252
218 233 250
218 233 248
219 234 252
219 234 251
217 232 246
218 233 250
218 234 251
216 232 245
215 230 244
218 233 248
215 230 244
217 232 247
217 232 248
217 233 248
218 233 248
218 234 251
216 232 242
216 231 246
218 233 251
217 233 246
218 233 247
218 233 248
217 232 247
218 233 251
217 232 246
218 233 252
217 233 247
216 231 247
218 233 248
218 233 250
218 233 248
218 233 250
218 232 250
218 233 250
218 233 250
218 234 251
216 232 248
217 232 250
216 230 250
215 230 248
216 231 247
216 231 251
216 231 247
218 233 248
215 230 247
214 229 247
216 231 250
215 230 248
217 232 250
215 230 248
216 231 250
217 231 251
211 226 244
215 230 247
218 233 253
216 232 251
217 232 252
212 227 245
214 229 242
216 232 248
216 231 250
212 227 245
215 230 245
216 231 247
215 230 245
217 233 251
214 229 242
215 231 245
218 233 250
214 229 246
216 232 251
216 231 250
217 233 248
214 229 245
215 231 244
217 232 251
214 230 245
217 232 250
216 232 248
216 232 245
216 231 247
214 229 244
218 233 250
219 234 253
216 232 247
215 230 245
217 233 250
217 233 248
216 232 247
217 233 248
216 231 246
216 232 247
216 232 248
214 230 245
217 232 247
216 232 248
215 231 244
216 232 247
215 231 245
218 234 252
218 233 248
216 232 250
215 231 245
216 232 247
213 229 245
209 225 240
214 230 250
214 230 248
216 232 247
212 228 246
209 225 243
204 221 232
208 223 240
209 226 239
208 224 240
206 223 240
203 219 234
211 227 243
207 223 240
205 222 237
200 217 231
207 224 236
207 223 247
206 222 242
209 226 245
209 225 247
170 188 219
175 194 225
205 223 248
205 222 246
212 229 251
213 229 253
208 224 248
204 220 245
211 227 250
219 235 255
220 235 255
221 236 255
221 235 255
205 220 243
66 101 155
66 100 150
66 100 156
66 99 147
65 98 142
65 98 146
66 100 145
66 100 150
66 100 145
63 96 139
65 98 141
67 101 159
68 103 156
68 102 155
67 101 150
66 100 150
67 102 155
65 99 148
66 100 149
64 97 141
65 99 150
67 102 153
64 98 150
65 99 146
68 103 155
67 100 154
66 100 145
68 102 146
66 100 149
67 101 152
68 103 153
66 99 147
64 97 139
66 100 149
64 97 137
65 99 142
65 99 141
66 99 141
66 100 146
66 98 136
65 99 145
66 100 150
66 99 144
64 98 144
67 101 154
67 101 152
63 95 136
66 99 147
64 97 147
65 98 141
65 98 144
68 103 159
64 97 144
65 98 141
65 98 136
65 98 151
64 98 149
64 97 147
65 98 143
65 98 136
65 99 139
65 99 141
65 99 143
66 100 145
62 95 136
63 96 129
65 99 150
67 101 153
66 99 145
65 99 148
63 95 143
64 96 140
66 100 143
65 97 139
65 99 148
64 96 133
64 96 139
61 93 142
64 96 145
65 98 149
67 100 157
64 96 141
63 95 134
63 95 141
64 97 143
63 94 141
62 93 126
61 93 133
63 95 139
58 87 123
61 93 137
61 92 137
62 92 138
62 93 137
61 91 132
59 88 123
58 87 127
60 89 137
59 89 136
56 84 120
205 220 239
221 235 255
163 171 173
112 112 77
98 96 68
95 95 65
94 95 68
98 99 70
89 91 67
76 80 61
89 93 69
98 100 71
92 94 66
94 95 66
96 98 66
112 113 82
100 102 68
109 109 76
110 110 76
109 110 76
115 115 76
122 123 82
122 122 83
111 113 77
126 126 82
125 125 83
128 126 81
128 128 86
130 129 85
133 131 83
136 135 93
127 127 85
142 139 87
150 147 95
145 143 91
139 139 92
142 140 89
147 143 87
149 146 92
145 142 92
156 153 101
155 152 96
153 150 94
152 148 92
159 156 101
151 148 93
149 146 89
151 147 94
152 148 93
153 150 95
157 152 96
158 154 95
155 151 93
157 153 90
155 151 94
162 158 101
162 157 99
164 160 97
161 156 96
150 146 89
170 164 103
156 151 87
162 158 95
167 161 100
166 161 99
164 160 98
159 153 87
158 153 86
165 160 99
165 160 94
167 161 101
158 153 92
169 164 103
169 163 100
151 146 90
168 163 100
161 157 93
167 161 96
163 158 98
168 163 99
163 158 93
162 156 93
158 154 91
163 158 95
159 154 93
158 154 89
159 154 92
170 164 100
160 156 95
172 166 98
167 162 100
163 158 92
162 157 95
162 156 96
158 154 91
170 164 93
165 160 98
168 162 99
162 157 93
171 165 104
170 163 99
165 159 93
167 161 96
162 158 93
166 161 96
171 166 96
160 155 94
160 156 90
164 157 95
171 165 102
166 161 96
167 160 98
161 155 91
159 153 96
157 152 92
155 150 85
169 163 100
164 159 95
160 154 91
162 156 93
160 155 91
152 147 84
160 153 89
154 149 86
166 161 94
160 155 89
161 156 96
164 157 95
162 157 91
157 153 92
154 150 86
161 156 87
162 157 95
167 161 92
150 144 86
157 151 86
161 155 91
155 150 88
153 148 88
154 149 84
158 152 91
151 146 88
160 155 89
163 157 89
161 155 91
159 154 93
159 153 89
150 146 84
156 151 89
157 152 92
221 235 254
219 234 252
220 235 254
219 234 253
220 235 254
221 235 255
219 234 252
220 235 254
220 235 253
220 235 253
218 233 250
220 235 253
220 235 253
219 234 252
217 232 247
217 233 248
216 231 244
217 232 247
217 233 247
219 234 251
216 232 245
215 230 244
216 231 244
219 234 251
218 233 248
217 232 246
217 232 245
218 233 250
218 233 248
218 233 251
217 232 250
214 229 239
219 234 250
217 232 246
216 231 244
217 233 247
218 233 246
218 233 250
218 233 248
218 233 248
217 232 247
219 234 252
219 234 253
217 232 246
217 232 248
217 232 250
218 233 250
216 231 246
217 232 250
217 231 246
213 228 241
218 233 248
214 229 245
218 233 247
213 228 244
210 224 242
216 231 249
214 229 249
214 228 247
216 231 248
214 229 248
213 228 247
212 227 247
210 225 244
213 228 246
214 229 248
214 228 245
216 230 244
214 228 245
215 230 247
218 233 251
217 231 250
213 228 245
216 231 248
216 231 245
217 232 248
217 232 248
217 231 248
216 231 246
216 232 245
218 233 250
216 231 247
219 234 253
219 234 253
215 231 245
214 229 245
216 231 246
214 230 244
218 233 251
214 230 241
214 229 242
217 232 247
215 230 244
218 233 247
218 233 250
218 233 248
217 232 247
217 233 251
217 232 246
217 233 248
217 233 248
217 232 248
217 233 247
216 232 247
216 231 245
214 230 242
216 232 246
218 234 251
216 231 246
217 232 247
216 231 246
217 233 251
215 231 248
215 230 247
212 228 241
211 226 242
211 227 239
215 230 244
204 220 235
211 227 242
211 227 242
205 221 237
211 227 244
208 224 240
209 225 243
210 226 242
207 223 239
202 218 237
210 226 240
208 224 237
208 224 232
202 219 231
213 228 248
212 228 247
213 229 248
207 224 240
200 217 242
88 116 173
197 214 242
214 231 254
208 225 248
206 223 247
206 222 247
205 221 246
205 220 245
220 235 255
220 235 255
221 236 255
221 236 255
177 193 219
66 100 153
67 101 146
69 104 160
65 99 148
65 98 143
67 102 153
64 97 143
64 97 140
67 101 153
67 101 149
66 100 135
65 99 150
67 101 158
65 99 149
67 102 154
66 100 151
66 99 152
64 97 145
67 102 148
67 101 148
65 98 146
66 99 149
67 102 156
67 101 142
68 103 148
66 100 148
65 98 141
66 100 151
67 101 157
67 100 150
67 101 144
67 102 154
67 101 150
67 100 145
65 98 142
66 99 150
68 102 154
67 101 152
66 100 149
66 100 147
68 103 156
67 101 151
64 97 141
67 101 149
68 103 153
65 98 137
65 99 145
64 97 135
65 99 141
67 101 142
64 97 145
64 97 142
65 99 150
63 95 134
66 99 148
66 99 143
65 99 150
67 101 147
63 97 142
65 99 149
66 100 148
65 98 141
63 94 133
63 96 144
67 100 153
67 101 145
65 98 143
64 96 140
64 98 147
64 97 138
65 98 146
66 100 150
62 95 130
64 97 136
66 98 149
66 99 141
64 97 141
65 97 142
66 99 150
64 97 132
64 97 134
66 98 140
64 97 140
63 96 141
66 98 142
64 96 130
61 92 135
62 95 143
62 92 140
63 95 133
62 93 138
62 93 144
61 92 133
62 92 135
62 93 138
59 88 121
61 92 138
58 86 128
57 85 125
55 80 111
174 188 209
221 236 255
148 153 146
97 97 69
101 100 70
93 94 66
79 82 61
93 96 69
84 87 62
92 94 65
95 97 68
92 95 71
92 95 71
96 99 74
105 107 73
104 105 72
113 114 76
108 109 76
112 112 70
125 123 84
123 123 82
120 121 82
124 123 81
120 120 81
127 128 87
128 127 80
122 123 81
131 130 86
126 126 81
125 124 82
135 133 85
126 124 78
140 137 89
150 146 93
142 139 89
142 139 87
145 143 94
145 143 90
139 137 85
149 147 93
145 142 92
150 145 91
151 149 94
148 144 91
151 148 93
156 153 96
153 150 93
151 148 85
160 156 99
153 149 90
163 158 99
159 155 94
156 152 94
154 150 93
158 153 94
156 152 91
162 157 91
166 161 99
160 156 95
163 158 97
158 153 96
163 159 101
163 157 99
160 155 91
160 156 93
153 149 89
168 162 97
161 155 97
161 157 95
170 164 99
165 159 99
157 153 91
167 161 96
160 154 95
161 156 89
160 155 93
168 163 100
163 159 94
166 161 94
167 161 98
168 163 103
165 159 93
165 159 97
162 157 93
158 151 91
167 161 95
159 155 93
164 158 94
170 164 93
167 162 99
159 154 90
165 159 95
167 161 100
167 162 95
162 155 97
168 162 96
160 155 96
164 158 91
160 155 93
153 148 86
168 162 98
166 160 93
170 164 97
163 158 94
168 162 93
161 155 93
163 158 94
158 153 85
166 161 93
164 159 99
166 160 96
160 156 89
157 152 89
161 156 88
169 163 96
160 155 95
156 150 83
164 158 93
154 149 84
157 152 91
160 155 91
153 148 89
167 160 93
155 150 87
159 153 87
164 158 93
157 152 89
161 154 90
160 155 96
159 153 91
161 156 95
157 151 89
155 149 93
151 147 80
159 154 87
167 162 97
154 149 89
153 147 85
158 152 89
157 150 88
158 152 90
156 150 87
155 150 86
157 152 89
150 146 77
162 155 95
144 139 83
156 150 88
156 151 87
160 154 91
220 234 253
221 236 255
221 236 255
220 235 252
221 235 254
220 235 253
220 235 253
221 235 254
221 235 255
220 234 250
218 233 248
220 235 253
220 234 253
220 235 253
220 235 251
217 232 245
217 232 245
218 233 247
217 232 241
218 233 248
215 230 246
216 231 245
218 233 244
215 230 240
217 232 246
218 233 246
216 231 241
220 234 252
217 232 244
219 234 248
217 232 246
220 235 252
219 234 251
217 232 247
216 231 244
217 232 248
217 232 246
220 234 251
217 232 248
219 233 252
217 232 242
218 233 250
218 233 247
218 233 248
218 233 248
215 230 244
218 233 248
217 232 251
214 228 241
218 233 247
216 231 246
215 230 246
215 230 245
217 231 248
218 233 250
217 232 251
217 231 250
216 231 248
216 231 248
211 225 244
218 232 253
216 230 250
211 226 244
216 231 251
210 224 242
217 232 252
215 229 248
216 230 250
211 226 245
217 232 251
218 233 252
218 232 251
214 229 247
217 232 251
216 231 248
216 231 248
212 227 244
219 233 251
217 232 248
218 232 251
217 232 247
215 229 247
218 233 251
216 231 247
215 230 245
218 233 251
214 230 242
216 231 246
218 233 251
218 233 246
216 231 245
218 233 250
218 233 247
216 231 246
214 229 242
215 230 245
218 233 246
217 232 247
217 232 250
216 232 244
217 232 247
216 231 244
215 230 244
217 232 247
218 233 250
217 232 245
217 233 248
218 233 250
218 233 248
217 232 247
218 233 254
217 233 247
217 232 250
214 230 244
217 232 248
212 228 244
216 232 249
213 228 247
204 219 235
207 222 242
206 222 236
206 222 238
209 225 239
213 228 245
208 224 240
210 226 243
213 229 245
206 221 240
211 227 240
211 227 242
209 225 237
206 222 240
212 227 247
210 226 243
204 220 238
203 219 241
215 231 250
109 133 179
118 141 186
208 225 248
207 224 248
211 227 251
209 226 248
207 223 248
205 221 245
212 227 249
220 235 255
221 236 255
221 236 255
169 186 214
64 98 150
64 97 141
67 101 158
66 100 147
66 100 146
65 98 144
66 99 149
66 99 152
67 101 148
66 100 155
65 99 149
67 101 152
66 100 149
66 100 152
67 101 143
66 100 152
64 97 140
66 99 143
65 98 149
66 100 138
70 105 158
65 98 147
66 100 147
67 101 147
68 102 157
66 100 150
66 99 152
67 100 153
67 101 155
65 98 142
65 99 149
67 101 150
67 101 148
63 96 134
65 99 146
64 97 142
65 98 138
66 99 141
67 102 148
66 100 151
65 98 149
65 98 138
63 96 142
66 100 145
64 97 136
64 97 135
65 99 145
67 101 147
67 101 152
65 99 144
65 97 146
65 98 137
67 102 151
65 98 142
66 100 146
66 99 151
65 98 146
65 98 139
63 96 142
65 98 149
66 100 142
65 98 143
66 99 145
65 99 141
65 98 145
64 97 141
68 102 151
64 97 142
62 93 141
66 100 147
63 95 144
66 99 147
65 98 138
64 96 143
62 94 136
62 94 142
62 94 134
65 99 156
66 99 150
62 94 131
64 97 145
65 96 143
65 98 147
64 96 139
64 95 137
63 95 139
63 95 133
65 98 139
63 94 138
61 91 134
62 92 135
61 92 127
59 89 125
63 94 126
63 95 151
62 92 133
61 91 135
59 88 131
57 85 116
55 81 109
155 169 190
217 230 249
118 118 89
91 91 60
101 100 70
82 84 61
87 89 62
89 91 65
90 93 71
81 84 59
88 91 68
91 92 66
86 89 62
109 111 78
105 107 75
103 105 75
109 111 78
118 119 78
107 109 77
130 129 83
111 111 70
112 113 75
118 118 77
126 125 83
118 119 78
129 129 88
134 133 88
137 135 87
133 133 86
135 133 83
143 142 92
133 132 88
141 139 90
145 142 87
142 140 87
134 133 80
136 135 86
137 135 82
142 140 88
149 146 95
151 149 94
150 147 91
149 145 90
150 146 88
147 144 92
157 154 94
154 149 91
160 156 98
148 145 93
152 149 93
160 156 95
156 153 94
165 159 99
162 158 97
162 158 92
148 145 85
158 154 90
159 155 96
154 150 97
157 152 93
164 160 96
159 154 94
166 161 99
163 157 96
167 162 95
163 158 96
155 151 88
164 160 96
168 162 96
165 161 95
158 153 95
163 158 93
156 152 85
168 162 96
160 156 93
161 155 89
158 153 93
166 161 95
159 156 88
170 165 100
161 156 95
166 161 95
166 161 99
158 153 88
164 158 91
161 156 93
173 167 104
163 159 94
173 167 99
154 149 90
163 158 91
158 154 94
168 162 96
165 160 93
161 156 95
170 165 99
167 161 96
159 155 89
155 150 88
165 160 94
162 156 94
164 160 94
161 156 90
166 160 95
163 157 93
158 152 83
161 156 91
164 158 92
162 157 91
153 148 86
163 158 90
153 147 85
163 157 91
163 157 89
167 161 97
163 158 89
161 155 93
165 159 97
166 159 93
158 153 94
163 158 96
153 148 89
162 156 93
159 154 90
159 154 89
163 157 96
157 152 87
153 148 85
155 150 85
163 157 95
152 148 87
158 152 92
162 156 90
156 151 89
159 153 90
154 148 80
158 153 85
154 149 85
160 155 93
164 158 95
155 150 90
156 151 83
167 160 102
157 152 84
163 158 93
159 154 92
158 152 82
159 152 87
155 150 82
155 150 87
221 236 255
221 236 255
221 235 254
220 235 253
220 235 253
220 234 252
220 235 253
220 235 252
220 235 252
221 235 254
221 235 253
221 235 253
219 233 249
221 235 253
220 235 253
218 233 248
216 231 244
217 231 247
217 232 245
217 232 244
217 232 248
217 232 245
218 233 248
217 232 242
220 235 253
216 231 245
214 229 241
220 234 251
215 230 242
213 228 235
220 234 251
219 234 248
217 232 244
218 232 246
218 233 247
216 231 241
217 232 244
218 233 250
218 233 248
214 229 239
220 235 253
218 233 250
218 233 248
219 234 248
216 232 242
220 234 251
219 234 251
217 232 248
219 234 251
217 231 247
217 232 248
213 228 244
219 234 251
218 233 250
217 231 250
213 228 245
217 232 251
214 229 248
213 228 247
215 230 249
210 225 244
218 233 252
217 232 251
216 231 251
216 230 251
212 227 247
211 226 245
213 228 247
215 229 248
214 229 246
218 232 251
217 232 248
213 228 244
214 229 245
219 234 251
217 231 247
215 230 246
215 230 245
216 230 247
214 228 242
216 232 242
218 233 250
219 234 250
215 230 245
217 232 246
219 234 251
217 232 246
220 235 253
216 231 241
216 231 245
219 234 252
216 232 246
219 234 251
216 231 247
217 232 250
217 232 245
220 235 253
218 233 250
219 234 253
219 234 250
215 230 244
219 234 251
217 233 246
217 232 248
216 231 244
216 232 245
216 232 245
217 233 248
218 233 247
217 232 247
219 234 250
216 231 248
216 232 248
213 228 243
214 229 247
217 232 247
213 228 245
212 227 248
210 225 237
215 230 249
210 226 240
214 229 247
207 223 240
210 226 239
212 227 243
210 225 239
209 225 241
207 223 237
210 225 242
214 229 248
207 223 237
206 222 232
208 224 244
212 227 247
212 227 246
209 225 247
210 225 246
162 180 216
78 108 168
172 191 221
212 228 251
212 229 251
213 229 251
209 224 248
200 216 239
204 219 243
221 235 255
221 236 255
222 236 255
113 136 174
66 99 152
66 100 147
67 101 147
67 102 155
68 102 160
67 101 151
66 100 159
67 102 152
64 98 142
65 99 147
66 100 146
66 101 151
65 98 147
66 100 148
66 100 152
65 99 145
65 98 145
64 97 143
65 98 142
65 98 147
64 97 143
64 97 142
67 100 155
66 100 141
66 100 147
66 99 139
65 98 146
65 99 142
65 98 135
66 99 147
64 97 148
66 99 147
65 98 147
65 99 150
65 99 146
65 98 140
63 95 136
67 101 142
68 103 151
67 100 149
66 100 144
67 100 142
65 99 144
67 101 143
64 97 144
65 98 147
65 99 143
67 102 151
66 100 138
66 100 150
68 102 151
65 99 143
64 97 136
64 97 145
66 100 142
66 98 143
65 98 144
64 96 139
65 98 144
65 98 139
65 98 135
65 98 145
66 99 145
62 94 134
64 97 146
66 100 145
66 99 146
67 101 148
63 95 143
62 94 138
65 98 147
64 97 144
64 97 139
64 96 143
64 96 140
65 97 142
65 98 144
65 98 141
62 94 137
65 99 147
64 97 141
61 93 128
65 97 141
63 96 145
63 94 131
62 93 127
63 96 138
63 95 140
60 90 127
64 96 134
60 91 137
65 97 143
63 94 140
62 93 140
63 94 135
60 90 129
57 86 125
60 89 122
57 84 119
57 85 123
115 131 157
197 208 219
121 119 74
82 83 59
100 99 70
69 71 53
79 81 55
82 84 58
87 90 63
78 82 62
85 88 61
79 84 62
98 100 71
95 97 70
89 92 64
101 103 72
112 113 77
106 109 75
108 108 75
108 109 73
120 118 75
117 118 81
111 111 79
118 119 83
114 115 75
119 119 76
120 120 77
118 117 70
136 134 88
138 137 88
124 123 80
131 130 85
141 138 87
137 135 83
149 146 96
140 138 89
146 141 90
144 141 90
140 138 88
153 150 97
143 141 87
150 147 93
143 140 83
153 149 92
154 150 93
154 151 92
153 148 93
152 148 89
157 153 92
163 158 101
160 156 94
155 151 90
160 155 93
157 154 96
153 148 90
156 151 91
160 155 91
163 158 98
162 157 94
161 156 97
163 158 92
166 161 97
164 159 96
162 158 95
167 162 97
154 150 86
149 146 86
156 151 93
160 156 94
156 152 89
161 155 96
160 155 93
166 160 98
158 153 86
164 158 93
167 162 97
164 158 93
166 161 99
161 156 95
163 158 91
160 154 94
161 156 89
164 159 97
166 160 95
165 160 94
171 165 98
165 159 94
162 157 95
165 159 94
165 158 97
164 158 96
164 158 89
162 156 90
163 158 89
164 159 101
167 162 96
163 157 93
162 156 93
156 152 89
162 157 93
164 160 92
163 157 93
160 155 93
167 162 98
168 162 95
157 152 92
164 159 95
167 162 93
167 162 99
166 161 96
156 151 90
160 154 86
167 160 92
161 155 96
165 159 93
156 152 83
159 154 89
157 151 89
166 160 91
154 149 89
163 156 92
162 156 96
157 152 89
157 153 89
160 154 89
158 153 90
150 145 86
159 153 90
148 144 83
161 155 91
157 152 83
156 151 91
159 154 91
162 157 89
158 152 92
154 149 85
161 155 93
161 154 91
156 151 92
155 150 93
158 152 89
160 154 95
163 157 92
154 149 86
158 152 91
162 156 92
158 153 87
157 152 90
151 146 87
158 153 90
221 236 254
221 236 254
222 236 255
221 236 255
220 234 250
221 235 252
221 236 254
221 236 254
222 236 255
221 236 254
222 236 255
221 236 254
221 235 253
220 235 253
220 235 251
221 235 253
219 234 250
220 235 252
218 233 246
218 233 248
218 233 242
218 233 245
218 233 246
217 232 245
218 233 247
219 234 251
218 233 247
219 234 250
217 232 244
220 234 251
218 233 246
219 233 248
220 234 248
219 234 248
218 233 246
221 235 251
217 232 244
220 235 251
220 235 252
219 233 247
217 232 245
219 234 248
217 232 242
217 231 245
220 234 251
219 234 250
218 233 248
219 233 248
219 234 251
220 235 252
215 230 245
217 231 247
217 232 245
216 230 247
214 229 248
216 231 250
216 231 250
213 228 248
217 232 251
213 228 247
216 230 250
213 228 248
211 226 246
217 231 250
218 232 251
210 224 244
213 227 246
212 227 245
214 229 248
216 231 251
218 233 253
215 229 248
216 230 248
216 230 248
216 230 246
221 235 254
219 234 252
213 227 241
216 231 244
218 232 247
220 235 252
215 229 244
217 232 245
218 233 252
216 231 245
216 231 246
219 234 251
215 230 242
216 231 242
219 234 250
218 233 250
219 234 252
217 232 245
216 231 242
219 234 250
219 234 250
219 234 252
218 233 246
218 233 247
217 232 246
220 234 252
218 233 248
220 235 252
219 234 250
219 234 250
218 233 248
218 232 250
218 233 245
218 233 248
215 230 242
215 230 243
217 232 249
220 235 253
209 224 239
212 228 238
214 229 243
218 233 251
211 226 244
206 222 238
211 226 242
207 222 238
211 226 242
209 224 237
213 228 245
213 228 247
206 221 240
212 227 247
204 220 236
214 229 247
211 227 242
208 224 240
209 224 240
217 232 250
209 224 244
216 231 252
212 227 246
212 228 248
190 206 230
73 105 164
103 127 176
213 229 251
213 229 251
206 222 245
209 224 247
213 229 250
202 218 242
213 228 250
222 236 255
222 236 255
97 122 170
67 102 159
67 101 146
66 99 149
66 99 139
65 99 151
68 102 161
66 100 150
66 101 150
65 99 147
68 102 147
65 98 149
64 97 143
66 100 151
64 96 137
63 96 143
65 98 137
64 97 143
66 99 145
63 96 139
66 99 145
63 96 138
65 99 143
66 100 143
64 98 146
67 100 152
63 95 132
67 100 148
65 99 141
68 103 151
63 95 139
66 100 141
66 100 149
66 100 147
66 100 149
66 101 151
66 100 145
66 100 152
65 99 149
66 99 140
66 100 139
63 95 138
64 97 138
65 97 131
66 99 143
66 100 146
65 98 142
64 97 143
66 99 142
67 101 147
63 96 137
67 101 151
66 99 149
65 99 144
63 95 139
64 97 139
64 97 142
66 99 147
65 98 139
66 100 141
64 96 140
64 97 147
68 103 151
65 98 145
66 99 146
67 101 144
64 96 135
62 94 136
66 100 148
67 101 148
63 94 137
63 94 125
63 95 131
62 95 138
63 95 144
64 96 141
65 98 137
65 96 145
65 98 140
63 96 128
64 95 138
66 99 150
62 94 141
64 96 144
65 98 135
62 93 137
61 93 129
61 93 134
63 94 136
63 95 136
61 93 135
62 93 138
62 93 125
60 90 132
58 87 123
58 86 128
55 83 119
59 88 136
57 86 125
58 86 115
54 80 117
60 85 119
189 200 212
97 95 55
101 101 66
73 75 54
85 86 59
66 68 48
85 87 62
81 83 59
60 65 50
92 93 66
81 84 60
92 93 63
90 94 67
83 87 58
100 102 67
104 106 75
106 107 72
113 114 78
109 111 74
116 115 71
117 118 76
126 125 83
119 119 78
116 117 77
121 121 79
124 124 79
126 125 81
129 128 76
135 133 85
130 128 76
135 133 84
130 128 82
145 142 92
138 135 81
141 139 87
145 142 86
149 146 93
142 139 82
148 144 85
147 144 92
144 141 86
143 140 85
138 135 79
158 153 94
145 143 90
152 148 90
156 152 96
153 149 90
155 151 98
157 152 91
152 148 89
157 153 94
155 151 94
159 154 90
161 158 98
167 162 103
157 152 88
156 152 91
153 150 94
157 151 88
162 157 93
163 157 93
158 154 94
163 157 87
154 150 88
167 161 98
156 151 89
150 147 80
164 159 92
166 161 97
167 162 97
166 160 98
163 158 92
166 160 95
162 156 92
161 155 89
163 158 90
158 154 90
168 162 96
158 154 96
160 156 94
163 157 89
164 159 91
164 159 98
162 156 95
170 163 98
165 159 95
159 154 88
161 155 88
168 161 96
160 156 94
167 161 98
162 156 92
167 162 99
169 162 98
161 155 90
171 164 99
164 158 96
162 157 90
162 155 90
164 159 87
165 160 99
163 157 89
159 153 90
158 153 85
167 162 95
164 159 93
161 155 92
157 152 89
160 155 91
160 154 90
158 153 89
157 152 88
162 155 94
167 161 93
159 155 90
157 152 85
154 148 82
158 153 88
166 161 96
158 153 86
158 152 91
169 163 96
156 152 81
156 150 85
161 156 93
156 151 82
154 149 86
153 147 82
160 154 88
165 157 92
151 147 87
156 152 91
161 156 94
157 151 87
162 156 89
162 156 89
162 156 91
155 149 86
159 154 83
161 155 86
151 146 81
158 152 89
156 151 83
154 148 84
155 149 90
153 147 81
157 151 96
145 140 83
222 236 255
222 236 255
221 235 255
221 235 254
221 236 253
221 235 252
221 235 254
222 236 254
222 236 253
221 235 253
222 236 254
221 235 253
222 236 255
221 236 253
221 235 253
220 235 250
219 233 250
221 235 254
221 235 254
218 232 250
218 233 246
219 233 250
214 228 242
220 235 252
220 234 250
218 233 244
220 234 251
218 233 248
216 231 244
218 232 247
218 232 247
218 233 242
218 233 244
219 233 246
217 232 245
220 234 250
221 235 253
220 235 251
222 236 254
218 233 246
220 235 251
220 234 250
220 234 250
220 234 250
219 233 248
219 233 251
218 233 246
216 230 244
218 233 247
218 232 247
220 234 252
217 232 251
215 229 245
213 228 245
215 229 248
218 232 251
218 232 251
215 229 247
212 227 246
213 227 245
212 227 247
215 229 248
218 232 251
212 226 245
219 233 253
216 230 248
218 232 251
213 227 247
221 236 255
219 233 252
211 225 243
217 231 250
215 229 246
215 230 246
215 229 242
219 233 250
220 234 251
216 231 244
220 234 250
216 230 242
217 231 245
218 232 248
217 231 246
216 231 246
217 232 247
219 234 251
218 233 248
216 231 242
218 232 248
216 231 242
218 233 248
218 233 247
221 235 254
219 234 248
216 231 244
218 233 248
217 232 247
219 233 246
219 234 250
219 234 247
218 233 247
218 233 247
217 232 245
220 235 252
219 234 250
218 233 247
217 232 247
219 234 250
218 233 248
216 231 245
216 231 242
217 232 248
212 228 242
215 229 245
218 233 247
218 233 247
209 225 242
212 227 245
209 224 240
208 223 235
210 225 239
211 226 240
212 227 242
210 225 243
211 226 238
212 228 242
206 221 240
215 230 250
213 228 242
206 221 234
208 224 238
209 224 242
206 222 239
216 231 249
211 226 247
214 229 247
212 227 248
210 225 245
89 117 174
82 111 165
179 196 226
215 231 253
212 227 248
210 226 247
209 224 246
211 225 247
211 225 246
222 236 255
216 230 250
66 100 150
69 103 164
64 97 146
68 104 161
66 100 154
65 99 150
66 100 150
65 98 146
68 103 155
67 102 150
67 101 148
65 98 150
63 96 137
67 101 146
66 101 151
67 100 151
65 98 142
67 101 155
66 99 147
68 102 153
68 102 150
67 102 151
66 99 150
64 96 143
66 100 142
66 100 149
68 102 144
66 100 154
65 98 137
66 100 151
63 96 138
65 98 143
67 100 147
66 99 143
65 98 141
65 99 142
65 98 133
66 100 145
66 99 144
63 95 139
63 96 126
67 101 142
66 99 144
62 93 132
65 98 140
67 102 149
65 98 145
66 100 138
64 97 141
67 102 154
64 97 136
65 98 145
68 102 153
65 98 140
62 95 135
64 97 141
64 96 135
65 98 143
66 100 145
67 101 149
66 100 148
64 96 139
65 98 134
62 94 126
66 99 148
62 94 134
64 97 139
63 96 131
64 97 136
65 97 140
65 98 145
64 96 136
63 95 142
64 96 138
63 96 148
61 92 136
65 98 142
61 92 127
65 98 139
62 94 131
62 94 141
66 99 143
64 96 138
64 97 135
62 94 138
64 97 138
64 96 132
65 98 142
64 96 141
60 90 130
62 93 133
61 92 130
62 93 138
60 89 126
61 91 137
64 96 138
61 91 133
60 90 125
59 88 122
57 83 121
58 84 124
56 82 119
145 150 150
97 96 62
85 84 54
82 83 58
76 78 58
73 74 54
71 74 52
80 82 54
88 90 64
79 82 57
90 91 64
87 90 62
80 85 56
89 92 66
87 89 62
115 116 79
103 105 68
127 127 86
112 112 72
122 121 78
112 113 77
119 119 80
120 120 80
113 112 71
119 118 77
127 126 78
121 121 78
129 127 85
131 130 81
131 130 84
123 122 74
135 133 81
142 138 84
151 147 94
149 146 90
141 139 90
154 150 94
146 143 85
138 136 88
147 143 89
150 147 92
143 140 83
145 142 84
155 151 91
144 141 85
146 142 90
148 144 87
160 155 92
150 147 88
164 159 99
150 146 88
151 147 85
161 155 91
158 155 91
153 149 91
154 149 92
156 151 91
155 151 91
153 149 86
155 150 92
160 156 89
156 151 91
161 157 89
166 160 96
156 151 84
164 159 97
164 159 91
161 155 92
164 159 96
157 152 95
165 160 98
161 157 95
161 157 89
160 156 91
158 154 93
158 153 92
156 151 87
165 159 91
163 157 89
161 156 89
160 154 91
165 160 92
165 160 96
170 164 98
168 162 94
161 156 84
171 164 102
166 160 93
164 157 93
160 154 91
161 155 92
158 152 86
164 158 96
166 161 92
161 156 91
163 157 90
163 159 88
164 158 94
159 153 93
166 161 99
160 155 95
156 151 84
167 160 95
156 151 83
161 156 85
167 161 99
160 155 84
159 155 84
161 155 86
153 148 83
159 153 85
166 160 91
160 154 89
160 155 88
163 158 97
162 156 86
161 155 92
161 155 89
161 156 85
157 151 90
159 153 89
170 162 93
166 160 91
167 161 93
160 153 92
158 153 89
160 155 96
163 156 91
167 160 96
163 156 95
154 150 83
155 149 83
150 144 82
154 148 83
155 148 83
151 147 85
160 154 87
156 149 89
162 157 93
155 149 84
152 147 77
153 148 83
164 158 92
159 153 90
159 153 88
150 144 89
148 143 78
155 150 84
160 153 91
222 236 255
222 236 255
222 236 255
221 235 255
222 236 255
222 236 254
222 236 254
221 235 253
222 236 254
222 236 254
222 236 255
223 236 255
221 235 254
221 235 253
222 236 254
222 236 254
222 236 255
222 236 254
220 234 248
222 236 254
221 235 252
221 235 251
219 233 247
220 234 252
220 234 248
215 230 240
220 235 252
220 234 249
216 231 240
220 234 248
220 235 250
219 234 246
219 233 245
216 231 240
218 233 245
219 233 246
221 235 251
220 234 248
220 234 251
218 232 244
219 234 248
219 234 248
219 233 246
218 233 244
219 233 246
220 234 248
216 231 241
217 232 245
220 234 252
213 227 244
216 230 245
217 232 245
216 230 248
213 228 247
216 231 251
217 232 251
218 232 251
217 232 252
218 232 251
214 228 247
213 227 247
215 230 250
212 226 244
215 229 248
216 230 250
214 228 246
210 224 243
218 232 251
220 234 254
217 231 251
215 229 248
215 229 248
218 232 253
215 230 248
221 235 252
218 232 247
219 234 251
219 233 250
218 233 248
215 230 244
216 230 242
218 232 247
220 234 251
218 233 247
220 235 251
217 232 242
218 232 247
219 234 248
218 232 248
218 233 246
218 233 244
220 234 250
218 232 245
219 233 248
219 234 248
218 233 245
218 233 245
218 233 246
221 235 252
221 235 252
219 233 250
219 233 247
218 233 246
219 234 250
220 235 250
219 233 248
216 231 242
219 233 247
219 233 251
220 234 253
218 233 246
213 227 237
216 231 247
219 234 248
214 228 244
213 228 245
215 229 244
211 226 241
209 224 240
213 227 243
210 225 237
210 225 242
216 231 244
213 227 244
211 225 244
213 228 244
215 230 247
210 225 236
210 225 239
211 226 243
214 229 243
208 224 237
216 231 249
210 225 245
215 229 250
216 230 250
212 227 246
209 225 243
110 133 176
83 112 163
124 145 189
209 224 245
214 230 251
213 228 250
214 229 250
209 224 245
205 220 242
222 236 255
195 210 236
64 98 150
65 99 146
65 98 147
65 98 147
67 102 150
65 98 148
67 101 150
65 99 144
65 99 146
67 101 157
67 101 158
66 100 154
64 97 139
66 99 148
66 100 137
65 98 145
67 100 145
68 102 156
66 99 152
65 99 145
67 101 145
67 102 156
65 98 140
63 96 138
66 99 149
66 100 146
63 95 140
68 102 147
67 101 148
63 96 132
67 102 144
66 99 142
65 97 131
67 101 152
67 101 155
64 97 142
65 98 147
64 98 139
65 97 144
68 102 152
67 101 147
64 97 132
66 99 147
66 100 150
66 100 140
67 102 152
65 98 144
66 101 144
66 99 140
66 100 139
66 100 147
65 98 133
65 99 137
64 96 141
63 96 140
65 98 144
65 97 147
65 98 149
65 99 141
64 97 134
64 97 143
66 99 147
65 98 135
65 98 141
67 100 147
66 99 141
65 97 140
63 96 140
62 92 125
64 96 140
66 100 148
67 100 147
63 95 130
62 93 137
66 99 146
66 99 146
64 97 141
62 94 132
66 100 149
61 93 133
63 94 133
64 96 139
62 95 142
63 96 140
61 91 133
65 97 142
65 97 138
63 95 137
60 90 122
59 89 129
64 96 135
63 93 134
60 91 130
64 96 138
60 89 128
59 88 124
60 89 119
57 86 126
60 90 131
59 89 124
52 78 111
50 76 105
93 96 80
90 90 61
91 91 62
76 78 51
77 80 57
72 75 55
68 71 53
80 85 62
87 90 65
78 82 57
95 97 69
92 93 62
86 90 62
87 92 65
92 95 69
105 108 76
103 104 67
102 103 64
102 104 73
108 110 74
125 125 84
113 114 75
134 133 89
118 119 76
125 126 80
127 126 78
127 125 82
121 119 72
130 128 78
133 131 75
135 131 85
138 136 93
147 143 84
143 140 87
147 144 91
143 140 84
140 137 79
140 137 85
135 133 83
144 141 84
144 141 86
146 143 91
154 150 90
154 150 88
157 153 87
150 146 87
158 155 94
157 153 90
161 156 94
151 146 86
156 152 96
157 152 86
150 146 87
159 154 90
153 149 93
160 155 95
159 155 91
159 155 92
152 149 91
161 156 92
163 158 92
170 164 100
160 155 92
157 153 90
163 159 92
159 155 89
166 161 95
152 147 88
162 157 93
158 153 88
155 151 87
168 163 100
167 162 96
160 155 94
162 157 89
157 152 81
157 153 91
163 158 89
164 159 93
162 156 92
155 150 87
162 157 90
157 151 85
160 156 91
160 155 93
160 155 89
165 159 91
161 155 87
165 158 92
162 156 90
164 159 92
161 155 89
163 158 96
161 155 87
166 160 95
157 152 89
162 154 89
170 163 94
166 161 90
166 160 97
160 154 90
164 158 95
167 162 97
162 156 90
155 150 86
162 157 94
162 157 91
165 159 93
161 156 91
162 156 89
166 161 89
158 152 92
167 161 99
164 158 96
162 156 92
159 154 84
157 151 83
159 154 89
157 152 81
157 151 90
157 152 83
157 152 89
163 158 93
157 151 83
161 155 91
160 154 87
160 154 86
157 152 86
160 154 89
166 159 91
154 149 83
162 157 89
154 148 89
152 147 87
151 145 84
158 152 83
154 149 83
165 159 94
155 151 84
162 156 93
152 147 83
154 149 85
153 148 83
152 147 87
158 152 89
160 155 90
149 143 83
154 149 89
151 146 81
223 236 255
223 236 255
223 236 255
223 236 255
223 237 255
222 236 255
222 235 255
223 237 255
223 236 255
223 236 255
222 236 254
222 236 255
222 236 255
223 236 254
223 237 255
222 236 255
223 237 255
223 236 255
223 237 255
222 236 255
222 236 255
222 236 255
223 236 255
221 235 251
221 235 254
222 236 253
218 232 249
220 235 250
219 233 248
216 231 239
220 234 248
220 234 250
220 234 246
220 234 247
220 235 250
220 234 247
219 233 244
221 235 250
221 235 250
220 234 250
218 233 247
221 235 250
220 235 250
218 233 242
219 233 245
221 235 252
222 236 253
219 233 251
215 229 242
217 231 246
218 233 250
217 231 248
216 230 248
219 233 253
214 228 246
215 229 248
218 232 251
215 229 248
219 233 253
217 232 250
217 231 251
219 233 253
217 232 251
217 232 250
221 235 254
219 234 254
218 232 251
217 232 250
219 233 251
216 231 250
215 229 248
213 227 245
218 232 251
217 231 251
218 232 250
219 233 247
215 229 240
220 234 248
218 232 246
219 233 246
215 230 240
220 235 250
221 235 253
221 235 251
222 236 253
219 233 246
219 234 246
220 234 250
219 234 248
220 234 251
221 235 252
219 234 248
220 235 251
220 235 250
219 233 248
219 233 246
220 234 248
219 233 247
220 234 248
218 233 246
220 234 250
220 235 250
219 234 247
218 232 244
220 234 248
219 234 246
219 233 248
221 236 253
220 234 248
219 233 245
219 233 253
215 229 241
219 233 248
215 229 245
216 231 244
216 230 245
214 228 242
214 228 245
215 230 247
214 228 248
208 223 238
210 225 243
217 232 245
211 226 237
206 221 235
209 224 237
211 225 244
217 231 247
212 227 242
212 226 243
214 229 240
216 230 248
212 227 247
213 227 248
208 223 244
210 225 245
213 227 248
214 228 248
145 164 201
79 108 158
83 111 164
204 219 242
211 226 249
206 221 243
209 224 244
211 226 248
204 219 243
221 235 254
185 201 225
65 99 153
66 101 152
68 103 154
67 102 151
66 99 142
65 98 142
65 98 145
66 100 151
65 98 151
65 99 142
65 99 141
65 99 146
67 100 156
65 98 137
66 98 146
63 96 135
64 97 134
65 99 148
65 99 142
68 102 151
66 99 148
66 99 144
66 98 151
66 99 140
66 100 140
64 97 140
66 99 141
67 101 142
67 101 149
65 99 146
64 97 140
65 98 140
65 99 142
63 96 134
66 100 147
64 97 133
64 97 134
66 100 139
67 102 152
67 101 152
66 100 153
65 99 143
67 101 148
66 99 148
66 99 141
63 95 135
64 97 139
68 102 145
64 97 138
66 99 148
65 98 138
65 98 136
66 99 143
66 100 151
68 102 159
64 97 137
67 102 147
65 98 132
66 100 150
65 98 145
64 97 145
67 101 144
64 97 141
65 98 136
67 101 146
64 96 134
66 99 148
65 98 142
65 98 143
65 97 131
59 90 130
62 94 133
65 97 140
63 95 127
63 96 137
63 94 138
61 91 132
66 99 144
65 97 145
64 96 135
65 97 141
63 95 144
65 98 141
66 99 146
60 90 127
64 97 140
62 93 138
67 100 145
64 95 140
62 93 129
61 92 130
63 95 138
61 91 130
62 93 139
61 91 130
59 88 119
61 92 133
59 88 125
56 84 121
60 89 127
58 86 121
55 81 113
75 82 80
72 74 50
72 73 50
74 75 53
64 66 45
67 69 47
69 73 54
88 91 64
78 81 59
83 85 58
87 90 61
95 98 67
93 95 63
97 99 66
90 93 66
94 95 64
108 109 73
95 97 62
114 116 76
110 110 71
101 103 67
109 110 67
109 109 71
107 108 71
122 121 78
130 130 79
122 121 74
136 133 84
129 128 82
132 131 82
115 115 71
131 128 77
136 135 80
134 131 80
143 139 88
144 142 87
142 140 85
141 138 85
150 147 89
146 142 85
142 139 83
146 143 86
134 131 80
150 147 85
154 149 93
147 144 82
145 142 85
147 144 77
154 150 94
155 151 91
152 148 85
161 156 93
155 151 90
162 158 90
151 148 89
156 152 92
161 156 91
157 153 87
156 152 92
154 150 87
150 146 86
162 156 87
165 160 98
156 151 86
154 148 88
153 148 87
156 150 88
162 156 95
164 159 90
166 162 96
169 162 98
160 155 89
159 154 84
163 158 89
163 158 97
159 154 90
167 160 96
164 160 95
164 159 89
161 156 93
158 152 88
163 158 93
164 158 99
159 155 90
165 159 95
170 164 98
167 161 91
159 153 89
161 154 90
165 159 93
152 147 86
166 160 94
156 151 85
158 153 86
169 163 99
167 162 97
161 154 85
164 158 91
167 161 95
161 156 86
161 154 85
164 159 95
162 157 90
171 166 96
153 147 81
166 160 96
157 152 87
169 163 95
161 155 90
160 153 88
155 151 88
169 162 91
161 155 90
166 159 91
165 158 93
159 154 91
153 148 83
163 158 89
154 149 87
159 153 83
157 152 84
155 150 84
150 146 78
159 154 86
160 154 90
157 151 86
161 155 85
160 156 85
154 148 86
157 152 87
154 148 89
158 153 83
162 157 89
160 155 86
151 145 79
156 149 85
151 146 81
157 151 86
156 150 86
160 154 88
163 158 93
159 154 84
152 146 82
162 157 89
152 147 83
160 155 88
159 154 92
152 147 87
151 146 81
223 237 255
223 237 255
223 237 255
222 236 254
223 237 255
223 237 255
223 237 255
223 237 255
223 237 255
223 237 255
223 237 255
223 237 255
223 237 255
223 237 255
221 235 254
222 236 255
223 237 255
222 236 255
222 236 255
223 237 255
223 237 255
223 237 255
221 235 254
222 236 254
223 237 255
222 236 255
223 236 254
223 237 255
221 235 252
222 236 253
220 234 250
221 235 251
222 236 253
222 236 252
220 234 248
221 235 250
220 235 248
218 232 245
219 234 244
221 235 251
219 234 245
221 235 253
220 234 248
221 235 248
221 235 250
221 235 250
222 236 252
221 235 250
218 232 249
217 230 248
220 233 252
217 231 250
214 228 246
217 231 249
215 229 247
214 228 248
215 229 248
216 230 248
218 232 252
218 231 250
219 233 251
210 224 243
218 232 250
219 232 251
216 229 248
218 232 250
221 235 254
218 232 251
222 236 255
216 230 248
217 231 248
219 233 252
217 231 249
219 232 251
219 233 250
219 233 250
218 232 245
220 234 247
221 234 250
221 235 250
222 236 253
220 234 247
221 235 250
219 233 244
220 234 246
219 233 246
219 233 250
218 232 244
219 233 246
222 236 252
219 233 246
222 236 254
218 233 245
221 235 252
221 235 252
218 233 244
219 233 245
220 235 248
220 234 248
219 233 248
219 233 244
221 235 252
219 234 246
220 235 250
220 234 250
221 235 252
218 232 244
220 234 247
219 234 246
221 235 253
220 234 250
219 233 249
210 225 235
213 228 244
215 229 240
213 227 243
216 230 248
210 224 237
207 221 234
214 229 242
212 227 241
215 229 243
214 228 244
209 224 238
215 229 240
210 225 240
215 229 246
210 224 240
214 228 243
218 232 249
211 226 244
217 231 251
214 228 249
210 224 243
215 229 250
213 227 247
217 231 251
212 227 247
172 188 217
75 107 163
75 104 152
179 195 221
212 227 247
216 231 251
212 226 248
207 221 245
211 225 246
215 229 250
178 194 220
66 100 151
63 95 138
67 100 149
66 99 143
65 98 144
65 99 142
67 101 148
67 101 150
66 99 141
67 101 146
68 102 155
67 101 149
66 100 140
66 99 143
67 102 146
65 98 130
65 98 142
66 100 146
67 101 148
67 102 153
64 97 138
66 101 145
67 102 151
66 100 150
66 99 147
65 99 146
65 98 136
67 101 147
66 99 138
68 103 154
66 100 140
64 96 132
67 101 146
66 99 150
64 98 146
65 99 140
67 101 142
67 101 140
63 95 134
64 97 140
66 100 145
64 96 134
65 99 141
67 102 152
65 98 137
65 98 137
67 100 149
65 99 141
64 97 135
66 99 145
66 99 142
66 100 147
67 100 145
66 100 146
65 98 144
65 97 136
65 98 135
66 99 149
65 99 144
64 97 143
66 100 144
66 99 148
64 96 147
64 97 138
65 98 145
65 98 140
63 94 130
65 98 137
64 97 140
64 96 140
63 96 137
61 92 128
65 97 141
65 98 143
64 97 143
63 95 140
65 97 137
65 97 136
65 97 140
65 98 141
63 94 138
63 95 128
62 93 132
61 92 132
61 91 124
64 95 131
63 95 136
64 95 136
62 92 129
64 96 126
63 94 133
61 91 129
61 91 130
59 88 119
60 89 123
61 91 121
56 84 116
61 91 137
61 89 125
56 83 122
54 80 99
55 82 118
75 79 70
88 88 59
83 83 54
66 67 42
57 62 46
62 65 46
80 81 54
64 67 45
88 90 61
89 93 66
71 76 53
90 91 58
72 77 54
87 89 59
94 96 65
112 111 73
98 99 62
100 101 61
100 101 68
116 117 74
124 123 78
114 112 70
117 117 72
115 115 71
125 124 73
127 126 81
119 119 78
128 127 79
134 131 81
126 124 77
135 132 82
141 139 86
140 138 82
138 134 79
135 132 80
143 140 83
138 135 85
141 138 82
145 142 85
149 145 88
157 153 96
144 140 84
156 152 91
155 150 93
153 149 92
150 147 89
162 157 93
149 145 81
150 146 80
142 139 86
158 153 93
145 142 84
151 146 82
154 150 85
145 142 81
152 148 83
160 156 94
161 156 90
158 152 93
160 155 87
144 141 86
157 153 83
158 153 91
157 152 86
158 153 93
163 159 94
169 164 101
152 148 89
157 152 88
158 153 90
167 162 99
160 155 90
157 152 82
166 160 93
162 157 90
158 153 83
158 153 81
161 157 89
166 160 93
151 145 80
162 155 94
163 157 89
160 155 88
164 158 91
168 161 93
160 154 90
158 153 81
161 156 91
162 157 90
162 158 86
164 159 91
166 160 91
167 160 95
169 162 93
169 164 92
159 154 86
164 158 92
162 156 87
165 159 93
161 156 87
156 150 86
164 158 88
156 151 85
161 156 92
160 155 89
163 157 91
155 149 88
164 159 94
164 158 89
159 154 87
161 155 87
162 156 89
161 156 83
163 158 92
166 161 97
163 157 90
161 155 86
153 149 80
163 157 97
160 154 89
157 152 90
162 156 89
158 153 82
165 158 90
158 153 85
155 149 83
149 144 86
160 153 91
158 153 89
156 151 83
149 144 81
154 148 85
151 146 78
161 155 92
154 149 83
153 148 75
160 155 92
159 153 88
162 157 89
158 153 88
158 153 86
150 146 80
155 149 90
153 148 84
157 152 87
154 149 83
154 149 80
145 139 77
145 140 76
222 236 254
223 237 255
223 237 255
223 237 255
223 237 255
223 237 255
223 237 255
223 237 255
223 237 255
223 237 255
222 236 254
223 237 255
223 237 255
223 237 255
221 235 254
223 237 255
221 235 254
223 237 255
223 237 255
223 237 255
221 235 254
223 237 255
223 237 255
221 234 254
222 236 254
222 236 255
221 235 253
223 237 255
223 237 255
223 237 255
223 237 255
224 237 255
224 237 255
223 237 255
223 237 255
224 237 255
222 236 253
223 237 255
222 236 253
223 237 255
223 237 254
222 236 252
221 235 248
221 235 248
221 235 251
221 235 250
218 232 248
215 229 242
216 230 247
221 235 253
222 236 255
219 233 253
216 230 250
218 232 251
216 230 249
217 231 250
217 231 250
222 236 254
216 230 248
212 226 245
220 234 254
216 230 249
216 230 250
212 226 244
218 232 251
216 230 249
211 225 244
211 225 244
216 230 248
218 232 251
215 229 249
219 233 251
220 234 253
217 231 250
218 232 251
220 234 250
221 235 251
221 235 251
219 233 245
220 234 247
219 233 244
222 236 254
220 234 247
221 235 248
223 236 254
219 233 244
222 235 251
219 233 244
220 234 247
219 234 247
220 234 247
221 235 250
220 234 248
222 236 253
222 236 253
220 234 246
220 234 247
220 234 247
221 235 251
221 234 251
220 234 250
220 234 248
219 233 247
218 232 245
219 233 246
221 235 250
220 234 247
219 233 247
220 234 248
221 235 251
217 231 247
213 227 242
214 229 242
218 232 242
215 228 243
216 230 242
210 224 234
215 229 244
207 222 235
203 218 233
214 229 242
213 227 241
212 226 241
215 229 246
214 228 246
216 230 250
214 228 247
214 228 246
217 231 251
214 228 248
218 232 251
217 231 251
217 231 251
214 228 248
212 226 246
216 230 250
215 229 249
215 229 250
164 181 211
79 108 159
74 106 164
152 170 203
213 228 247
215 229 249
214 228 249
210 224 244
198 212 235
216 230 250
174 190 214
62 93 142
65 99 134
66 99 138
64 96 144
65 98 138
66 100 146
64 97 148
64 97 141
66 100 148
66 99 145
63 97 137
67 100 149
67 101 151
63 96 139
69 104 154
65 98 150
66 99 146
66 100 148
67 100 144
66 100 143
63 96 132
65 99 136
66 99 138
66 100 148
66 100 148
66 100 149
67 100 146
67 101 143
65 99 141
64 97 133
67 101 153
65 98 134
65 98 143
64 97 135
64 97 133
61 92 118
66 99 147
66 100 156
67 101 146
67 102 151
65 98 143
65 98 145
64 98 138
65 98 144
63 95 131
65 98 140
66 99 146
64 96 140
65 98 136
66 100 141
66 99 141
65 97 142
64 97 139
65 97 137
64 96 132
64 98 138
65 98 133
66 101 148
64 96 136
66 99 139
63 95 128
64 97 136
66 100 141
63 96 135
64 97 139
62 93 128
65 98 143
65 97 140
64 97 140
63 95 133
65 98 140
65 99 140
65 98 141
65 97 141
63 95 138
63 95 133
67 101 150
61 92 120
66 99 137
65 97 144
61 91 120
62 94 132
65 98 140
60 91 132
63 95 131
59 89 119
63 93 136
63 95 142
60 91 122
60 91 127
60 91 123
61 92 129
60 90 129
62 92 130
56 83 117
57 86 127
59 87 123
58 87 121
59 87 115
57 84 126
56 82 112
56 83 117
64 76 75
68 70 45
74 75 52
77 80 59
63 67 47
71 73 50
46 50 39
76 78 55
76 79 53
75 79 57
84 87 59
69 72 51
83 86 57
90 92 59
94 96 61
82 87 57
94 97 61
102 103 64
107 107 66
121 119 69
122 121 73
109 109 72
106 107 69
117 117 72
118 118 80
118 118 68
120 120 73
126 125 81
130 129 77
132 131 82
132 129 80
123 123 77
130 128 78
129 129 80
133 133 84
142 140 84
146 143 84
134 133 81
137 134 79
138 135 80
143 140 80
148 144 83
154 149 87
147 145 80
152 148 86
160 155 97
150 146 82
148 144 83
157 152 89
154 149 85
148 144 79
157 153 86
163 158 91
156 152 86
147 144 80
157 152 87
156 152 90
158 154 84
158 153 89
162 157 87
162 158 92
162 157 91
161 155 91
158 154 89
151 147 83
164 160 93
158 154 84
161 155 90
166 160 89
166 160 96
159 155 85
165 159 88
162 156 91
158 153 84
159 154 91
167 161 98
157 153 89
156 150 84
165 160 93
155 150 86
158 153 90
163 158 93
161 156 89
157 152 89
159 154 89
157 152 80
155 149 80
171 165 93
162 157 91
157 152 90
165 159 92
159 154 86
167 161 98
165 160 92
162 157 93
159 154 89
153 148 82
160 153 87
163 157 90
161 155 93
162 156 86
156 151 83
162 156 89
162 157 95
165 160 90
162 155 89
161 155 90
157 152 86
168 162 89
166 160 92
158 153 90
165 160 91
167 161 93
163 157 93
160 154 85
157 152 85
161 155 88
157 151 86
160 154 87
158 153 83
161 155 92
158 152 84
157 150 87
153 147 80
157 151 84
158 154 85
159 154 84
156 151 86
148 143 75
157 151 86
154 149 86
158 152 89
158 153 87
147 142 82
165 158 94
159 153 87
148 143 78
164 158 89
162 157 86
158 153 89
151 146 79
156 150 86
159 153 84
159 153 89
157 151 86
161 155 89
148 142 75
158 152 81
154 149 83
223 236 255
224 237 255
223 237 255
223 237 255
223 237 255
224 237 255
224 237 255
224 237 255
223 236 255
224 237 255
224 237 255
224 237 255
224 237 255
224 237 255
222 235 254
224 237 255
223 236 254
223 236 254
224 237 255
223 236 254
224 237 255
223 236 255
223 236 255
224 237 255
223 236 254
223 236 255
222 235 254
224 237 255
223 236 255
224 237 255
224 237 255
224 237 255
224 237 255
224 237 255
224 237 255
224 237 255
224 237 255
224 237 255
223 237 255
224 237 255
224 237 255
224 237 255
224 237 255
224 237 255
224 237 255
224 237 255
219 233 252
220 233 251
217 230 250
221 234 253
206 221 240
212 225 245
215 228 247
218 231 250
218 231 249
211 224 243
215 229 247
217 230 249
217 230 250
217 230 249
212 225 244
217 230 250
214 228 246
216 229 249
216 230 249
215 229 246
217 230 249
216 230 248
218 232 251
213 227 246
216 230 247
210 224 242
217 230 249
217 230 250
220 234 252
218 232 248
223 236 253
222 235 253
223 236 253
220 234 246
222 236 252
221 235 247
222 235 250
222 236 252
222 236 251
223 237 254
222 236 253
222 236 252
222 235 250
223 236 253
223 236 253
222 236 252
221 234 248
222 236 252
221 235 248
221 235 247
222 236 252
221 235 251
222 236 252
222 236 253
222 235 250
221 235 247
223 236 253
222 236 251
223 237 254
222 236 251
222 236 252
221 235 250
222 236 251
219 232 246
219 232 249
218 232 250
219 233 249
221 234 251
213 226 242
217 230 246
214 227 244
216 230 249
214 228 247
216 230 248
212 225 244
215 228 246
218 232 250
221 234 254
216 230 250
215 228 248
218 231 251
219 232 252
214 227 247
218 231 251
215 229 249
213 226 247
215 229 249
217 230 249
215 229 247
217 230 250
217 231 251
217 231 251
173 189 216
82 110 165
74 105 162
145 162 192
211 225 246
212 226 248
208 222 243
211 226 247
199 214 237
212 226 246
169 185 212
65 98 151
67 100 149
66 99 143
65 97 141
65 99 146
65 98 144
64 97 138
64 95 142
64 97 143
66 100 152
63 95 128
64 98 133
67 101 148
67 101 142
65 98 144
66 100 147
66 100 147
65 98 137
65 98 143
67 100 145
65 99 136
65 97 136
65 99 147
65 98 141
65 98 139
64 96 133
65 99 139
65 98 149
65 98 135
65 98 133
65 98 146
66 99 137
66 99 141
64 97 136
65 98 143
65 98 142
66 99 129
64 97 136
66 99 147
63 96 128
65 98 132
67 101 148
65 99 145
66 100 147
65 97 140
65 97 132
64 97 132
64 96 135
62 94 132
67 101 147
66 99 141
65 98 135
64 97 136
65 99 136
65 98 142
67 101 143
63 96 141
61 93 129
61 93 127
64 96 132
64 97 137
65 98 134
65 99 142
67 101 144
64 97 126
65 98 140
64 96 132
64 97 128
64 97 138
65 97 141
64 96 134
62 94 138
66 99 150
65 98 143
63 95 133
65 98 140
63 96 127
61 91 120
62 94 131
64 97 140
62 94 130
60 92 127
63 94 134
63 96 137
65 98 137
64 95 137
60 90 130
63 94 136
60 91 129
62 92 127
62 93 131
61 91 127
60 89 116
64 96 139
60 91 120
59 89 127
59 89 125
60 88 116
57 85 125
60 89 131
56 82 105
52 76 98
74 79 70
76 77 48
64 65 37
62 64 43
62 65 43
67 69 42
57 62 46
81 83 55
62 66 46
73 77 49
67 73 45
89 92 65
88 91 60
89 91 59
87 89 55
100 100 66
90 92 55
99 101 62
99 100 57
106 106 71
113 113 75
120 120 76
113 112 70
122 122 75
109 111 73
123 122 71
122 120 75
122 122 76
109 110 64
139 138 84
129 127 76
136 133 80
137 135 83
135 134 79
137 135 72
142 139 84
143 140 86
149 145 85
147 143 89
140 137 81
151 148 87
145 140 84
150 146 88
149 144 82
144 142 84
156 151 85
152 148 81
147 144 85
148 144 83
158 153 88
155 149 90
154 151 81
156 150 89
152 148 85
158 153 90
154 150 86
159 154 93
154 149 84
152 149 81
158 154 92
161 156 90
158 153 87
159 154 87
160 155 89
162 157 89
158 154 86
165 160 88
162 157 91
155 151 86
162 156 91
153 149 84
170 164 95
165 159 89
166 161 86
166 160 91
160 154 86
159 154 89
165 160 93
161 156 88
161 155 89
169 164 95
161 156 88
163 157 91
161 156 90
161 156 87
158 153 83
166 160 94
153 149 82
157 153 88
162 157 91
165 159 93
164 158 88
166 160 93
156 150 83
160 155 88
166 159 93
158 153 85
166 158 91
160 154 86
161 156 90
163 157 89
161 155 89
163 158 93
163 157 90
156 150 79
162 157 86
168 162 96
162 157 89
164 159 91
154 149 89
160 154 85
165 159 84
153 148 84
161 155 88
165 160 89
161 155 86
160 156 84
164 157 87
164 159 87
158 152 86
160 154 88
161 155 87
160 154 88
161 155 83
158 152 90
155 150 86
161 155 88
162 156 90
167 161 89
153 148 85
158 152 86
156 151 80
155 150 83
161 155 90
163 157 92
156 151 83
163 157 89
160 154 83
158 151 86
162 157 90
153 148 84
158 152 87
153 148 81
160 155 86
162 155 89
156 151 88
150 144 86
149 144 77
151 146 83
223 236 255
224 237 255
224 237 255
224 237 255
224 237 255
224 237 255
223 236 254
224 237 255
223 236 255
224 237 255
223 236 255
224 237 255
223 236 255
224 237 255
223 236 255
223 236 254
224 237 255
223 236 255
224 237 255
223 236 255
224 237 255
224 237 255
223 236 255
223 236 255
224 237 255
223 236 254
224 237 255
223 236 255
224 237 255
224 237 255
224 237 255
224 237 255
224 237 255
224 237 255
224 237 255
224 237 255
224 237 255
224 237 255
224 237 255
224 237 255
224 237 255
224 237 255
224 237 255
224 237 255
224 237 255
224 237 255
221 234 252
221 234 253
222 235 253
223 236 255
214 227 247
217 231 250
217 230 249
219 232 252
217 231 249
214 228 248
218 231 251
217 230 250
217 230 248
216 229 249
220 233 252
218 232 249
218 231 251
217 230 249
218 232 250
221 234 253
216 230 250
213 226 245
222 235 253
217 230 250
220 233 252
221 234 253
216 230 249
219 232 251
214 227 246
221 234 253
224 237 255
224 237 255
224 237 255
224 237 255
224 237 255
224 237 255
224 237 255
224 237 255
224 237 255
224 237 255
224 237 255
224 237 255
224 237 255
224 237 255
224 237 255
224 237 255
224 237 255
224 237 255
224 237 255
224 237 255
224 237 255
224 237 255
224 237 255
224 237 255
224 237 255
224 237 255
224 237 255
224 237 255
224 237 255
224 237 255
224 237 255
224 237 255
223 236 255
222 235 252
221 234 251
221 234 253
218 232 251
221 234 252
215 228 245
221 233 250
217 230 248
218 232 250
218 232 251
215 228 248
215 228 248
220 233 253
217 231 250
216 230 248
212 226 245
209 223 244
217 231 251
214 228 247
218 232 251
218 232 251
212 225 244
219 233 253
219 232 251
221 234 253
216 230 250
214 228 247
217 230 249
216 229 248
190 205 228
78 108 158
77 106 161
122 143 186
212 225 244
213 226 247
211 225 247
211 225 244
201 216 236
208 221 242
164 181 213
65 99 151
65 98 147
66 100 144
65 98 137
64 96 144
66 100 147
67 101 149
66 100 143
66 99 144
64 97 150
66 100 143
65 98 138
64 97 138
65 98 137
66 100 144
65 97 143
66 100 145
63 96 142
64 97 134
67 101 151
68 102 146
65 98 134
67 101 144
65 98 133
66 99 146
64 97 142
65 98 142
65 98 145
67 100 152
67 101 144
63 95 136
65 98 138
65 98 141
65 98 142
64 97 141
63 96 136
66 99 141
67 100 148
64 98 138
66 99 141
64 97 139
65 98 139
65 99 141
66 99 141
64 96 137
67 101 151
66 100 145
66 100 138
65 98 140
64 97 131
64 97 141
66 99 139
66 99 143
66 100 137
65 99 138
65 98 134
63 95 131
65 99 135
66 99 144
63 96 132
65 98 137
65 98 138
64 96 130
63 95 138
67 100 143
65 99 144
64 96 141
65 98 138
63 96 137
64 97 132
64 97 139
63 95 131
63 95 137
65 97 145
65 98 140
61 92 128
63 95 129
62 93 131
64 96 138
63 95 131
62 94 129
64 97 137
62 95 132
63 95 131
63 94 124
64 96 138
64 96 136
63 95 138
59 88 123
62 93 128
62 93 128
62 92 132
60 89 122
60 90 129
62 92 126
60 90 118
60 89 118
60 89 129
59 88 114
57 85 118
53 78 109
54 80 101
52 68 81
70 71 45
65 67 44
60 63 44
57 60 41
45 47 33
73 76 51
72 74 42
70 73 47
68 71 44
70 74 45
69 74 53
79 82 52
92 95 62
91 93 58
85 88 55
101 102 64
87 90 62
104 105 62
94 97 63
116 116 68
120 119 75
104 106 65
114 115 72
123 121 75
105 106 65
133 131 82
129 128 82
125 124 79
126 125 76
132 130 70
131 129 76
122 121 75
141 138 78
132 130 74
143 140 82
136 133 75
148 144 85
143 139 85
136 134 76
142 139 78
145 142 83
145 141 80
153 150 88
146 143 80
146 143 82
154 150 86
159 154 90
151 147 85
152 148 81
153 149 85
154 150 82
153 148 87
154 149 87
155 149 90
151 146 85
156 151 92
146 143 87
157 153 83
154 149 85
152 148 82
154 149 81
156 151 92
159 154 91
164 159 92
160 155 89
152 148 86
160 155 89
160 154 85
161 155 90
160 155 88
159 154 86
161 156 84
165 159 92
154 149 85
166 161 92
163 157 95
167 161 86
161 156 82
158 153 85
169 162 95
164 159 86
161 156 91
164 157 87
167 162 94
166 160 86
164 159 89
160 154 89
165 159 91
167 162 94
161 155 86
161 154 86
158 153 85
165 159 86
161 156 94
159 154 88
161 155 88
164 158 85
167 161 94
159 154 92
161 155 88
161 156 88
164 159 91
160 154 88
161 155 90
163 159 89
164 158 89
162 156 85
166 160 98
161 155 89
169 162 91
153 147 81
163 158 90
157 151 83
158 153 89
158 153 83
158 153 85
155 151 77
156 150 85
168 161 95
162 155 86
153 148 82
159 154 83
152 147 80
162 156 87
157 152 83
161 156 88
163 157 90
153 146 79
161 155 88
154 149 84
154 149 86
161 155 85
159 153 88
153 147 78
156 150 85
158 152 88
153 147 83
157 151 88
154 148 83
155 149 81
152 146 81
154 149 80
159 153 78
161 156 86
146 142 75
154 147 84
159 153 86
160 154 85
224 237 255
224 237 255
224 237 255
224 237 255
224 237 255
223 236 255
224 237 255
224 237 255
224 237 255
224 237 255
224 237 255
224 237 255
224 237 255
224 237 255
223 236 255
224 237 255
224 237 255
223 236 255
224 237 255
223 236 255
224 237 255
223 236 255
223 236 255
223 236 255
223 236 255
224 237 255
224 237 255
222 235 254
222 235 253
224 237 255
224 237 255
224 237 255
224 237 255
224 237 255
224 237 255
224 237 255
224 237 255
224 237 255
224 237 255
224 237 255
224 237 255
224 237 255
224 237 255
224 237 255
224 237 255
222 235 254
221 235 254
220 233 252
221 235 253
224 237 255
218 232 251
216 230 250
216 230 250
219 233 252
213 227 247
216 230 250
219 233 252
213 227 247
218 231 250
213 227 247
217 231 250
220 234 253
217 231 250
217 230 249
215 229 248
217 231 250
220 233 252
216 230 250
216 230 249
214 228 247
222 235 254
217 230 249
219 233 251
216 230 248
217 231 251
222 235 253
222 235 254
224 237 255
224 237 255
224 237 255
224 237 255
224 237 255
224 237 255
224 237 255
224 237 255
224 237 255
224 237 255
224 237 255
224 237 255
224 237 255
224 237 255
224 237 255
224 237 255
224 237 255
224 237 255
224 237 255
224 237 255
224 237 255
224 237 255
224 237 255
224 237 255
224 237 255
224 237 255
224 237 255
224 237 255
224 237 255
224 237 255
224 237 255
223 236 255
224 236 254
219 232 250
218 231 250
216 230 248
222 235 253
214 227 244
218 230 246
211 225 244
215 228 245
218 231 249
214 228 247
210 224 245
216 229 247
219 232 250
219 233 251
218 232 251
216 229 248
219 232 251
212 226 245
214 228 247
222 235 254
217 231 248
217 231 250
217 231 251
220 233 252
220 233 252
214 228 248
215 229 247
218 232 252
180 195 221
73 104 155
87 114 162
118 138 180
217 231 251
210 224 244
211 224 245
216 230 249
203 216 233
212 226 247
160 177 203
68 102 156
66 99 142
65 98 144
67 101 152
65 98 150
67 100 144
65 98 147
67 101 150
66 99 140
66 99 143
65 98 146
63 95 134
65 98 140
67 102 155
68 102 149
65 97 142
65 98 142
64 97 140
67 100 148
66 99 142
65 98 136
65 99 144
65 97 141
66 99 146
64 97 138
65 98 130
66 99 142
66 99 139
62 94 136
67 100 141
67 100 144
66 99 146
65 97 137
68 102 157
65 98 146
65 99 140
65 98 141
65 98 145
66 100 147
65 99 142
64 97 128
66 100 139
64 97 134
65 98 141
66 98 138
67 101 155
65 98 140
67 100 145
66 100 147
64 97 125
62 95 130
66 100 142
66 99 138
63 95 136
65 98 137
62 94 136
63 94 134
66 100 144
67 100 141
64 97 139
63 95 141
68 102 149
67 101 139
64 97 135
67 100 142
64 97 127
65 97 130
65 98 135
65 98 138
66 99 137
61 92 127
64 97 137
66 99 141
65 98 140
64 96 134
64 97 141
64 96 133
63 95 124
62 94 134
62 93 134
65 97 142
62 94 134
63 95 118
63 93 128
64 96 143
60 90 129
63 94 139
60 91 122
63 94 131
62 93 133
57 87 122
61 92 130
60 90 121
58 87 116
61 91 133
59 88 117
59 88 125
57 85 115
57 84 116
55 83 118
52 77 100
52 76 95
63 73 79
75 74 40
59 62 39
53 53 30
67 70 46
59 61 36
50 53 30
70 73 47
63 68 48
72 74 50
73 75 45
78 81 48
86 87 56
79 83 55
97 99 63
85 90 59
102 102 63
114 114 70
124 123 73
111 111 68
107 108 61
112 113 65
117 116 67
119 118 73
113 113 63
125 123 73
120 119 77
136 133 76
118 116 64
125 125 79
123 121 75
134 131 83
142 138 78
128 126 76
146 141 88
145 142 83
139 137 80
136 134 77
143 139 84
130 128 71
146 143 80
150 145 86
148 144 77
147 144 84
142 139 85
154 150 81
156 151 89
151 147 85
144 140 79
154 149 92
159 154 89
153 149 83
151 145 84
162 156 94
153 148 84
153 150 90
149 145 77
154 149 84
159 154 85
154 149 83
162 156 93
157 152 89
154 150 82
163 158 91
157 151 83
152 147 83
162 157 91
167 161 94
161 156 88
160 155 90
159 154 88
154 150 85
160 154 92
164 159 89
162 157 90
159 153 82
168 162 96
163 158 91
162 157 91
156 151 82
168 162 93
163 159 91
157 152 81
159 153 86
167 161 92
155 150 85
163 157 84
157 152 86
163 156 91
162 158 91
163 157 88
162 158 90
159 154 92
163 158 84
154 150 88
158 153 84
158 152 81
162 157 83
164 157 85
167 161 86
162 156 89
164 158 94
162 156 85
171 166 96
152 147 80
166 161 87
162 157 90
158 152 83
156 151 88
156 151 81
163 157 83
156 150 83
159 153 83
158 152 85
160 155 86
157 152 77
154 148 78
162 156 93
159 153 83
156 151 83
163 158 94
151 145 78
162 156 83
165 160 86
164 159 92
161 155 91
157 151 80
155 150 83
156 150 86
153 149 84
152 147 78
161 154 92
159 153 86
157 150 85
168 162 99
156 151 83
159 153 89
156 151 88
150 145 78
163 157 89
157 152 84
157 151 77
143 139 82
150 145 82
151 147 81
148 144 81
152 145 83
155 149 83
160 155 84
223 237 255
224 237 255
224 237 255
224 237 255
224 237 255
224 237 255
224 237 255
223 237 255
224 237 255
224 237 255
224 237 255
224 237 255
224 237 255
224 237 255
223 236 254
221 234 253
223 236 254
224 237 255
224 237 255
223 236 254
223 236 254
224 237 255
224 237 255
222 235 253
224 237 255
223 237 255
224 237 255
224 237 255
222 235 254
222 236 254
224 237 255
224 237 255
223 237 255
224 237 255
224 237 255
224 237 255
224 237 255
224 237 255
224 237 255
224 237 255
224 237 255
224 237 255
224 237 255
224 237 255
224 237 255
221 235 253
222 235 253
219 232 251
222 235 253
219 232 251
221 234 253
217 230 250
215 228 249
214 227 247
217 230 248
214 227 247
214 227 248
213 226 246
217 230 250
223 236 254
222 235 253
220 233 252
209 223 243
215 228 246
221 234 252
220 233 251
220 233 251
215 228 247
215 228 249
219 232 251
217 230 249
220 233 251
219 232 251
219 232 251
220 233 251
220 233 251
221 234 253
224 237 255
224 237 255
224 237 255
224 237 254
224 237 254
224 237 255
224 237 254
224 237 254
224 237 255
224 237 255
224 237 255
224 237 255
224 237 255
224 237 255
224 237 255
224 237 255
224 237 255
224 237 255
224 237 255
224 237 255
224 237 255
224 237 254
224 237 255
224 237 255
224 237 255
224 237 255
224 237 255
224 237 254
224 237 255
224 237 255
224 237 255
224 237 255
223 236 253
217 230 248
223 236 254
220 234 251
222 235 253
217 230 246
216 229 246
219 232 250
218 231 250
212 225 245
217 230 249
218 231 250
214 227 246
218 231 250
217 230 249
217 230 250
218 231 250
219 232 251
218 231 249
217 230 248
221 234 252
217 230 248
220 233 252
221 234 253
219 232 251
222 235 253
218 231 251
219 232 251
212 226 246
181 196 220
87 113 159
76 105 158
123 143 185
219 232 251
217 230 249
213 226 245
210 223 244
209 222 242
215 228 247
159 176 206
67 100 149
66 99 152
65 97 139
65 98 142
67 102 155
67 101 153
66 99 143
64 96 137
66 99 144
65 98 140
66 99 147
66 99 149
66 99 138
62 94 127
66 100 138
66 100 145
65 98 144
68 102 148
65 99 137
67 100 151
65 98 143
68 102 157
63 96 138
64 97 135
65 99 138
65 99 141
66 100 143
66 100 134
68 102 145
64 97 133
66 99 142
65 98 142
66 99 146
64 96 137
66 99 141
63 96 136
63 95 134
66 100 146
67 102 147
66 100 147
66 99 136
66 100 140
66 100 145
63 96 131
64 97 137
68 102 148
63 95 131
67 101 150
66 100 149
64 98 142
63 95 144
64 96 143
65 98 136
63 95 131
62 94 125
64 96 137
67 102 148
65 98 134
65 98 136
65 99 142
61 92 127
63 96 124
66 99 136
62 94 127
64 97 135
65 98 138
65 98 134
61 93 122
65 98 136
63 96 125
63 96 138
65 97 143
65 98 129
64 96 134
63 95 135
64 96 139
63 95 130
62 93 126
62 93 130
63 95 135
64 97 133
63 95 130
62 94 121
62 93 133
65 98 138
62 94 128
64 97 131
60 90 125
60 90 132
59 89 116
60 90 122
61 91 129
62 93 133
63 95 129
61 91 127
59 88 118
61 89 126
60 89 119
62 91 129
54 79 99
56 83 113
52 75 94
63 75 85
68 68 40
72 73 48
60 63 40
51 54 32
46 49 36
63 67 47
62 64 42
72 75 51
62 66 42
84 86 55
87 89 57
83 85 54
86 88 59
89 91 58
91 92 59
99 99 58
102 102 60
85 88 55
103 104 67
111 111 67
115 115 73
121 121 74
113 113 63
139 136 81
110 109 67
117 117 68
124 122 72
116 115 70
132 129 77
128 126 74
136 132 74
135 132 77
133 131 73
130 127 72
143 141 80
146 142 79
141 139 81
140 137 77
141 137 78
142 139 78
142 139 82
144 141 81
142 138 80
146 142 77
139 135 76
139 136 77
142 139 82
149 144 74
157 151 85
150 146 84
152 147 85
147 143 80
152 147 84
154 149 84
151 147 85
146 142 71
159 153 91
150 146 82
149 144 79
162 157 86
157 153 89
149 146 74
158 152 84
162 157 87
165 160 86
158 152 87
156 151 84
160 154 85
161 157 86
159 154 88
160 155 86
162 156 90
161 155 87
156 151 79
165 160 88
166 160 93
160 154 85
154 148 85
164 158 87
165 159 91
157 151 81
151 146 77
174 168 94
154 149 82
164 159 93
164 158 89
164 158 92
168 162 93
157 152 80
163 158 92
162 156 88
168 161 93
164 158 89
158 152 87
159 154 80
171 165 96
161 156 81
163 158 87
163 157 89
159 152 83
160 154 90
153 148 81
164 157 87
156 151 84
163 156 85
161 155 84
159 154 85
159 154 86
162 156 87
162 156 85
152 147 81
155 150 80
159 154 81
157 151 87
148 142 75
160 155 84
158 153 89
161 154 87
159 153 87
160 154 84
155 149 85
160 154 87
158 153 83
166 160 88
155 150 87
163 156 86
161 156 82
159 153 86
160 154 83
164 159 90
162 156 86
157 152 86
150 145 74
155 150 85
158 151 83
159 153 84
159 153 84
151 146 83
149 143 76
154 147 88
153 147 78
154 148 88
151 146 80
154 148 82
156 150 81
154 149 83
155 150 83
154 148 78
224 237 255
225 238 255
225 238 255
225 238 255
225 238 255
225 238 255
223 236 254
225 238 255
224 237 255
225 238 255
225 238 255
225 238 255
224 237 255
225 238 255
225 238 255
225 238 255
224 237 255
225 238 255
225 238 255
225 238 255
223 236 253
224 237 255
224 237 255
225 238 255
225 238 255
225 238 255
225 238 255
225 238 255
225 238 255
225 238 255
224 237 255
225 238 255
225 238 255
225 238 255
225 238 255
225 238 255
225 238 255
225 237 255
225 238 255
225 238 255
224 237 255
224 237 255
225 238 255
224 237 255
225 237 255
225 238 255
222 235 253
222 235 254
222 235 253
221 234 253
219 232 251
216 229 247
214 227 247
222 235 254
216 229 250
221 234 253
220 233 251
220 233 251
220 233 251
216 229 250
216 229 248
211 225 243
215 229 248
218 231 250
222 235 253
214 227 246
216 229 248
218 231 250
215 228 246
218 231 251
221 234 252
218 231 251
217 230 248
219 232 251
218 231 248
220 233 252
222 235 253
225 238 255
225 238 255
224 237 255
225 237 255
223 236 253
225 238 255
224 237 255
224 237 255
225 238 255
225 238 255
224 237 254
224 237 253
224 237 254
223 237 252
225 238 255
225 238 255
225 238 255
225 238 255
224 237 254
225 238 255
224 237 253
225 238 255
224 237 253
224 237 254
224 237 255
224 237 253
224 237 255
224 237 254
224 237 254
225 237 255
224 237 254
224 237 255
222 235 252
221 233 251
218 231 248
222 235 253
220 233 253
216 228 245
216 229 246
220 233 251
214 227 246
219 232 250
216 229 249
219 232 252
216 229 247
220 233 251
220 233 250
215 228 247
215 228 248
214 227 245
215 228 247
215 228 247
217 230 247
219 232 250
217 230 249
214 227 246
215 228 246
216 229 248
212 225 244
218 231 251
214 227 247
182 197 221
78 107 159
83 110 160
147 164 197
217 229 247
216 228 247
212 225 246
215 228 248
203 217 238
213 226 246
162 178 207
66 99 141
67 101 151
65 99 143
65 98 143
66 99 141
64 97 146
64 97 138
68 102 154
65 98 143
65 98 147
67 101 144
66 99 149
67 101 142
65 99 148
65 99 132
64 97 136
65 98 138
66 99 138
65 98 143
68 102 140
68 102 154
65 98 144
64 96 138
62 95 126
65 99 144
63 95 128
63 95 141
63 95 131
63 96 137
64 97 141
64 97 135
62 94 126
66 100 144
67 101 151
64 96 126
68 102 148
66 99 142
65 99 132
65 98 125
65 97 133
64 97 133
64 97 137
64 96 134
62 93 136
64 96 130
67 101 148
64 97 141
65 99 136
65 98 141
67 101 144
64 96 138
66 99 142
66 100 140
61 93 121
64 97 136
62 94 126
61 93 127
65 99 135
68 102 153
61 92 131
68 101 150
65 97 140
66 99 144
65 99 139
66 100 141
63 95 133
65 98 139
62 94 132
64 96 133
66 99 139
63 95 126
63 96 125
66 99 146
63 96 138
67 101 148
62 93 126
63 95 133
62 92 117
60 90 118
66 98 143
64 96 130
63 95 136
62 93 132
60 91 126
60 90 122
62 93 129
65 98 144
61 93 133
63 95 139
62 92 128
62 92 124
64 96 134
59 88 126
61 92 130
61 91 129
57 85 107
59 87 111
59 87 117
55 81 106
55 81 107
54 79 105
53 79 113
57 67 67
51 54 36
56 57 35
64 66 38
55 57 34
70 72 44
47 52 37
58 62 38
59 64 43
60 65 44
78 80 47
68 72 43
67 71 46
79 81 49
80 82 51
89 91 53
87 88 50
95 96 62
110 110 69
118 116 59
100 100 54
106 106 65
107 108 67
116 115 77
117 118 76
124 122 66
119 118 69
120 118 66
127 126 77
119 118 69
127 124 69
125 124 71
143 140 81
125 123 69
139 136 77
151 148 88
139 135 72
139 136 79
147 143 81
142 139 78
148 143 76
132 129 74
139 136 76
146 143 79
147 143 77
151 146 85
154 149 84
145 142 83
158 152 86
161 156 87
146 142 74
156 151 87
155 150 89
150 146 79
160 156 83
156 151 83
158 153 86
158 154 86
157 152 80
154 149 87
161 156 85
162 156 89
149 144 75
154 149 79
161 155 88
163 158 88
170 164 86
160 155 86
163 158 86
162 157 90
160 154 87
160 155 85
166 161 92
155 150 85
148 145 78
163 156 84
157 152 80
166 159 86
151 146 81
159 154 82
164 158 88
165 160 90
156 151 76
156 152 86
163 157 81
157 151 82
163 156 84
158 154 79
163 158 89
169 161 91
161 156 89
160 155 85
150 146 76
161 156 84
165 160 89
167 161 93
160 154 85
161 155 83
166 159 88
165 158 91
155 150 80
155 151 83
163 156 85
149 144 77
160 155 81
157 152 83
158 152 85
162 155 86
167 160 86
156 150 82
161 155 82
161 155 86
170 163 94
159 154 86
163 157 85
155 150 82
159 154 83
165 159 87
160 153 86
154 149 85
153 147 81
156 151 81
158 152 87
166 160 88
155 149 83
154 149 78
161 155 88
157 152 84
157 152 86
163 157 82
158 152 83
159 153 83
162 156 87
150 145 77
160 153 89
157 151 84
161 155 86
157 151 83
162 157 89
151 146 84
158 152 83
152 148 80
152 146 80
156 150 83
157 152 87
149 144 79
160 154 89
153 147 77
164 158 93
225 238 255
224 237 254
225 238 255
225 238 255
225 238 255
225 238 255
225 238 255
225 238 255
225 238 255
225 238 255
225 238 255
225 238 255
225 238 255
225 238 255
225 238 255
225 238 255
224 237 254
224 237 255
225 238 255
225 238 255
224 237 255
224 237 255
224 237 254
225 238 255
223 236 254
225 238 255
225 238 255
225 238 255
225 238 255
225 238 255
224 237 254
225 238 255
225 238 255
225 238 255
225 238 255
225 238 255
225 238 255
225 238 255
225 238 255
225 238 255
225 238 255
225 238 255
225 238 255
225 238 255
225 238 255
224 237 255
221 234 253
223 236 254
222 235 253
224 237 254
220 233 252
220 233 253
218 231 251
223 236 254
220 233 251
218 231 250
221 234 251
222 235 253
216 229 246
208 221 243
220 233 251
217 230 249
217 230 248
218 231 250
218 231 251
217 230 249
221 234 250
221 234 250
216 230 248
216 229 247
215 228 244
219 232 248
218 231 246
213 227 244
216 229 247
223 236 251
224 237 253
223 236 250
224 237 253
225 238 255
224 237 253
223 236 253
224 236 253
224 237 254
222 235 250
224 237 253
223 236 251
223 236 248
220 233 245
224 237 254
223 236 250
222 235 247
222 235 250
222 235 245
222 235 251
221 235 245
223 236 251
224 237 253
221 234 244
224 237 252
222 236 250
223 236 250
222 235 245
222 235 248
223 236 250
224 237 252
222 236 248
220 233 244
223 236 247
223 235 250
221 234 250
219 232 245
222 235 252
221 234 250
221 234 251
216 229 244
220 233 250
220 233 251
219 232 250
212 225 242
217 230 248
218 231 249
213 226 243
219 232 250
221 234 251
215 228 247
219 232 250
213 226 245
214 228 248
218 231 249
216 229 247
217 230 248
213 226 244
217 230 247
217 229 249
221 233 252
214 227 244
220 233 251
174 189 212
73 103 149
76 105 147
158 173 197
216 229 247
213 226 244
210 222 241
210 223 242
204 217 234
210 224 245
162 178 199
67 100 144
63 95 134
64 97 142
65 99 141
68 102 153
69 103 150
66 100 144
64 97 140
65 98 140
67 101 146
65 99 150
64 97 132
65 98 142
64 97 139
66 99 146
67 101 146
65 98 139
66 100 146
65 98 137
68 101 151
66 100 151
67 101 142
65 98 137
64 97 137
66 98 137
65 97 143
65 98 142
66 100 144
67 101 144
62 95 120
65 98 130
65 98 133
66 99 144
63 95 133
63 96 132
62 93 129
65 98 135
64 97 135
67 101 142
64 96 137
63 95 139
66 100 145
66 99 140
65 98 142
65 98 140
66 100 143
65 98 131
63 96 135
66 100 149
65 98 137
65 98 130
66 100 136
64 96 132
65 98 133
65 98 136
64 96 135
63 95 134
65 98 140
62 95 132
64 96 132
65 98 143
64 97 135
63 96 130
67 100 143
64 96 135
65 98 140
66 99 141
64 96 127
65 97 137
64 97 127
62 93 133
65 97 134
66 99 136
63 95 132
67 100 146
61 91 127
61 92 130
61 92 128
63 94 133
63 94 134
64 96 135
63 95 130
63 95 132
62 92 134
64 97 137
60 91 116
62 93 129
62 92 127
61 92 129
61 92 127
63 95 134
62 93 128
61 91 123
60 89 124
56 85 120
58 86 117
60 89 127
58 87 114
54 81 116
57 85 105
59 86 113
54 79 110
72 78 63
75 72 37
66 67 41
67 68 40
65 65 38
67 68 38
68 70 41
62 66 37
83 85 52
73 75 47
81 84 51
82 84 54
88 89 53
81 84 49
94 94 60
88 90 50
82 84 52
97 99 59
100 100 55
109 108 64
113 111 67
122 120 72
108 108 62
102 103 55
111 111 66
128 126 69
126 124 76
123 121 72
134 130 70
122 122 67
125 124 76
132 129 73
130 128 77
135 132 79
132 129 77
130 129 79
135 132 73
136 134 73
130 127 73
147 144 83
134 131 74
139 137 79
150 146 82
136 132 78
150 146 83
145 141 82
148 143 74
152 148 80
155 150 89
149 145 82
155 151 85
157 152 86
155 151 85
159 154 90
153 148 77
153 148 89
154 149 83
159 153 85
157 151 86
156 152 91
156 151 87
156 151 86
154 150 80
155 150 81
158 153 88
159 154 86
161 156 89
164 158 87
154 149 74
162 156 84
161 155 84
157 151 86
162 156 86
161 156 84
164 158 85
161 156 87
158 152 83
161 155 86
159 153 83
158 153 81
157 152 82
163 157 87
163 157 84
162 156 89
158 153 83
158 153 85
154 149 78
159 153 86
159 154 83
168 161 91
163 158 89
168 163 94
160 155 86
156 151 83
158 152 86
153 148 83
158 153 81
158 152 83
162 156 85
162 157 85
152 147 72
154 149 77
164 158 89
169 163 88
158 153 73
167 161 94
160 154 80
158 153 75
162 156 88
154 149 81
158 153 83
160 154 83
163 158 89
161 156 89
166 160 95
167 162 88
159 154 84
164 156 88
155 151 75
166 159 93
155 150 78
162 157 88
162 156 84
155 149 78
159 153 83
167 161 89
157 152 81
153 148 72
159 153 79
155 149 85
160 153 82
150 144 75
161 155 89
157 152 80
157 151 83
143 139 71
155 150 83
162 156 89
158 152 84
164 157 92
158 152 85
142 138 69
159 153 87
153 148 75
152 147 82
150 144 80
155 149 87
153 148 82
148 142 76
224 237 255
225 238 255
225 238 255
225 238 255
225 238 255
225 238 255
225 238 255
225 238 255
225 238 255
225 238 255
225 238 255
225 238 255
225 238 255
224 237 255
225 238 255
225 238 255
225 238 255
225 238 255
225 238 255
225 238 255
225 238 255
225 238 255
225 238 255
224 237 255
225 238 255
224 237 255
222 235 253
224 237 255
225 238 255
224 237 254
224 237 255
225 238 255
225 238 255
225 238 255
225 238 254
225 238 255
225 238 254
225 237 254
224 237 254
225 238 254
224 237 253
225 237 253
224 237 253
224 237 252
225 238 255
223 236 253
221 234 250
222 235 252
219 232 245
221 234 250
221 234 250
216 229 243
206 220 232
214 227 241
217 230 244
210 224 238
217 230 239
216 230 244
214 227 239
215 229 235
216 229 245
215 228 244
218 232 243
218 231 247
218 231 247
213 226 242
218 231 245
217 230 245
219 232 244
214 228 239
215 229 240
212 225 238
215 229 239
217 230 245
218 231 241
219 232 244
220 234 241
224 237 253
220 234 245
223 236 251
223 236 248
222 235 246
221 234 245
221 235 245
218 232 241
221 234 246
222 236 248
219 233 240
223 236 250
221 234 246
222 235 247
220 234 241
221 235 246
221 234 245
222 235 250
220 233 244
222 235 247
220 233 242
222 235 246
219 233 236
216 229 233
222 235 247
221 234 247
222 235 248
220 234 244
218 232 240
221 235 247
223 236 251
221 234 242
222 235 246
220 233 248
216 229 243
220 233 247
216 229 242
221 234 251
219 232 248
221 234 253
215 228 247
213 226 242
216 228 245
220 232 250
218 231 249
222 235 253
213 226 244
217 229 248
219 231 249
216 228 247
218 230 249
217 229 247
218 231 250
218 231 249
210 223 241
224 236 253
218 231 248
223 236 253
220 232 251
214 227 244
216 229 239
159 174 189
78 106 136
80 106 132
182 196 207
217 229 246
221 233 250
216 229 246
213 226 244
206 219 237
221 233 252
186 200 221
61 93 127
64 97 131
63 95 144
65 98 137
65 99 134
65 98 144
64 97 137
65 99 144
65 98 148
62 94 132
64 96 140
66 99 146
65 99 143
65 98 144
66 99 139
64 96 133
65 98 134
65 98 138
64 96 141
65 98 141
66 99 138
65 98 136
66 100 137
66 99 139
65 98 133
63 95 129
66 99 135
66 101 146
65 98 136
66 100 141
63 96 135
62 94 134
65 98 144
66 99 147
64 97 136
62 94 134
62 95 133
64 97 128
66 101 144
64 97 131
61 93 133
65 98 142
64 96 137
67 101 146
66 99 138
64 97 136
65 98 131
66 99 133
65 98 147
63 96 128
67 100 145
67 101 139
65 99 135
65 98 142
65 99 138
67 101 137
65 97 135
66 101 152
62 94 135
62 94 137
64 96 136
66 100 145
63 95 120
65 98 135
66 100 136
61 92 127
64 96 136
65 98 135
62 94 127
66 99 134
64 96 134
61 92 127
63 95 134
64 96 137
62 94 129
64 96 131
62 94 136
61 92 122
63 94 131
63 94 138
64 96 133
63 95 131
61 92 127
63 95 133
61 91 123
61 91 122
61 91 123
61 92 131
61 91 131
64 96 137
59 88 120
59 87 119
61 92 128
62 92 130
58 86 114
60 90 133
61 91 119
58 87 121
56 82 118
55 82 117
54 79 106
53 78 112
60 70 56
61 61 38
61 62 31
61 62 23
55 57 31
65 66 35
60 62 35
71 74 44
66 69 37
65 67 46
72 77 46
79 82 48
90 92 50
83 85 47
75 77 42
77 79 42
100 99 62
98 98 58
105 105 60
114 112 69
118 118 69
100 101 53
102 103 61
123 122 64
117 116 69
122 120 67
113 113 65
122 122 68
126 124 77
119 118 63
130 128 70
131 129 70
139 135 77
135 132 74
134 131 75
137 134 76
137 134 72
145 140 84
133 131 71
141 139 73
144 140 78
145 141 75
135 132 80
140 136 80
144 140 80
146 143 80
150 146 82
153 148 83
147 143 77
155 150 83
153 147 78
153 149 80
148 143 80
149 145 83
158 153 89
152 148 81
149 146 74
155 151 84
152 147 76
150 145 79
155 150 87
154 150 82
158 153 88
159 153 76
159 154 92
161 155 88
156 152 79
151 147 81
166 159 92
159 154 83
166 160 87
160 154 87
153 149 77
163 156 84
160 155 86
161 155 85
161 155 84
157 153 81
163 157 82
161 156 85
154 150 77
160 154 84
164 158 90
162 157 86
170 162 92
163 156 90
163 158 90
157 152 80
166 160 84
171 164 86
159 153 83
161 155 83
159 154 83
161 155 83
157 152 77
163 157 89
155 150 81
168 161 91
166 160 89
165 158 85
163 158 83
161 156 81
165 160 90
164 156 83
162 156 84
165 159 83
165 160 89
164 158 89
159 153 82
159 153 89
162 157 82
151 146 81
160 154 86
152 146 84
156 151 81
160 154 87
153 148 83
160 154 87
157 152 81
146 141 74
157 152 81
161 155 89
144 139 76
157 152 79
154 149 83
156 151 79
160 155 86
158 152 83
163 159 89
155 150 83
153 147 81
161 155 90
154 150 80
162 156 83
152 146 81
160 154 86
158 152 81
158 152 86
148 144 81
153 147 80
161 155 87
156 149 85
149 144 75
144 138 74
147 143 83
150 144 77
153 148 83
159 153 83
156 150 85
226 238 255
225 238 255
226 238 255
226 238 255
226 238 255
225 238 255
226 238 255
226 238 255
225 238 255
225 238 255
225 238 255
225 238 255
226 238 255
225 238 255
224 237 255
225 237 255
226 238 255
225 238 255
225 237 255
225 238 254
226 238 255
225 238 254
225 238 254
222 235 251
223 236 248
222 236 247
223 236 251
223 236 250
224 236 253
223 236 247
223 236 248
223 236 247
224 237 250
221 235 245
222 235 244
221 234 245
224 236 250
223 236 250
222 235 245
224 237 252
221 234 245
220 234 241
223 236 247
221 234 241
223 236 250
223 236 248
222 235 247
219 232 244
221 234 248
220 234 243
216 229 242
217 230 242
215 229 242
219 232 242
218 232 242
216 230 242
215 229 237
217 230 240
213 226 242
217 230 242
219 233 244
218 232 242
214 228 240
212 225 234
216 229 240
214 227 240
220 233 244
214 228 235
221 234 250
214 228 237
218 231 246
213 226 233
217 230 241
213 227 241
223 236 251
220 234 245
223 236 250
218 232 240
221 234 244
223 236 250
221 234 242
223 236 250
221 234 248
223 236 251
220 234 241
221 234 242
220 233 244
223 236 251
221 234 246
219 232 239
222 235 245
219 233 241
222 235 246
222 236 248
221 235 244
220 233 244
222 235 246
225 238 254
222 235 247
221 235 246
218 232 237
221 234 242
220 234 242
224 237 251
222 235 247
222 235 247
222 235 246
219 233 240
224 236 250
221 235 244
217 230 238
221 234 249
220 233 248
221 233 249
218 231 246
224 236 252
220 232 250
218 231 249
221 233 251
225 238 255
216 229 247
216 228 246
217 230 247
215 228 245
219 231 249
220 232 250
216 229 247
216 229 245
221 234 252
219 232 249
223 235 253
220 233 250
217 230 248
218 230 247
215 228 243
206 220 213
194 210 180
188 205 160
140 159 159
83 109 126
81 107 136
160 179 88
182 200 121
213 227 220
218 230 248
213 226 244
209 222 239
219 232 245
187 200 220
63 96 132
64 97 133
64 96 143
67 101 149
68 101 153
65 97 139
63 94 138
66 100 143
67 100 148
65 98 147
66 99 141
67 101 147
64 96 131
68 102 147
64 96 129
65 97 141
63 95 128
65 98 134
65 98 136
63 95 127
64 97 129
66 99 142
65 97 139
64 97 128
64 97 126
61 93 135
64 96 133
68 102 142
67 100 146
63 96 132
65 98 135
62 94 127
66 99 139
66 98 143
67 100 141
65 99 133
64 97 135
61 93 124
63 96 135
64 97 135
63 96 133
65 98 124
67 101 150
64 97 136
63 95 127
64 97 130
65 98 136
67 101 143
65 98 139
65 98 138
65 98 145
66 100 142
62 93 129
62 94 122
67 100 149
66 99 134
66 99 144
66 99 143
66 99 138
64 96 136
63 95 130
65 98 136
62 93 122
64 96 133
63 96 120
64 97 136
66 99 139
65 98 131
63 95 132
63 95 132
64 95 118
63 95 129
65 97 134
60 91 118
65 98 137
65 98 136
65 97 141
61 90 129
63 95 139
64 96 131
62 94 136
64 97 133
62 93 132
62 93 131
63 95 128
58 87 123
60 90 123
61 92 124
62 91 128
59 89 119
60 90 124
59 88 113
61 91 124
60 91 125
58 86 112
59 89 115
56 83 116
58 86 111
58 85 114
57 84 119
51 76 90
51 75 98
73 76 56
81 80 43
73 72 37
65 64 37
57 58 31
65 67 30
70 72 35
76 77 40
64 69 42
71 73 46
64 68 41
65 69 48
92 93 58
81 83 39
97 97 55
84 86 39
93 94 49
102 102 55
99 100 61
110 108 62
102 101 57
110 110 56
110 110 66
114 113 65
116 115 64
121 120 69
130 127 73
128 127 79
126 125 69
131 129 74
131 129 74
124 122 71
140 138 68
132 130 74
135 132 77
143 139 82
132 130 77
132 130 70
137 134 70
137 134 76
150 146 77
139 136 72
145 141 76
151 147 79
151 146 84
141 138 77
152 147 80
147 143 79
150 146 80
145 142 82
138 134 65
151 147 83
145 141 70
147 144 86
149 145 79
156 152 80
156 151 77
155 150 79
150 146 81
151 147 77
157 153 84
150 147 80
157 152 79
164 158 87
159 153 86
159 153 87
160 154 91
161 154 83
164 159 89
159 153 85
170 164 96
155 149 81
162 155 83
158 154 76
161 155 84
153 150 78
161 155 83
159 152 81
163 158 86
150 145 81
156 151 83
157 152 79
154 147 80
149 143 74
157 151 82
158 153 83
159 153 81
162 157 84
157 152 80
160 154 84
159 154 80
167 161 93
159 155 79
153 148 79
161 156 90
158 153 86
163 157 87
164 159 86
156 151 80
155 151 78
157 153 79
160 155 85
162 156 89
157 150 83
162 156 91
157 151 83
162 157 89
156 151 81
166 160 89
156 150 85
158 153 81
158 153 82
161 156 80
158 153 79
163 157 91
169 163 89
152 147 75
164 158 85
152 147 79
155 149 79
162 156 89
165 158 83
159 153 85
163 157 87
152 147 77
152 148 81
151 145 77
158 153 87
161 156 83
155 151 76
164 158 86
147 141 78
157 151 82
157 152 80
152 146 79
161 154 92
156 150 85
162 156 87
152 146 83
157 151 85
149 144 79
154 148 83
154 149 74
156 150 85
150 145 74
153 147 81
153 147 76
154 149 75
148 142 74
226 238 255
226 238 255
226 238 255
225 238 254
224 237 252
225 238 253
224 237 251
225 238 254
225 237 253
224 237 253
226 238 255
222 235 246
224 237 251
224 236 248
222 235 247
219 232 240
222 235 250
222 235 245
222 235 247
224 237 252
220 233 244
219 232 235
222 235 250
223 236 250
223 236 250
221 234 245
222 235 247
223 236 247
223 235 248
222 235 247
223 236 246
223 236 251
222 235 246
222 235 246
220 233 245
224 237 252
223 236 250
223 236 248
222 236 247
222 235 246
223 236 248
223 236 250
222 235 246
222 235 248
222 235 251
221 234 245
221 234 245
222 236 247
216 229 239
218 231 244
220 234 242
217 230 244
214 227 237
216 230 240
213 226 242
214 227 237
215 229 240
216 229 242
215 228 240
217 230 240
215 228 243
216 229 244
219 231 245
214 227 238
215 229 242
217 230 245
217 230 242
218 231 247
219 232 243
220 233 244
217 229 244
214 227 239
218 231 244
220 233 244
223 235 251
222 235 247
222 235 251
223 235 248
222 235 247
221 235 245
222 235 246
224 237 252
221 234 245
219 233 240
222 235 246
220 233 244
221 234 246
220 234 245
222 235 246
223 236 250
221 234 245
222 235 246
223 236 250
222 235 246
221 234 246
221 234 242
221 234 246
221 234 245
219 232 246
222 235 250
221 234 247
221 235 245
222 235 247
220 234 242
220 232 244
221 235 245
220 233 245
220 234 241
222 235 245
222 235 249
222 236 247
219 232 244
217 230 240
219 231 245
221 234 247
221 234 248
219 232 250
217 230 247
217 230 248
218 230 248
217 230 247
218 231 248
216 229 246
220 233 250
219 232 249
221 234 250
220 232 250
218 231 250
215 228 245
220 232 249
219 231 244
206 220 213
205 220 202
189 206 153
180 199 99
182 201 115
184 202 138
190 208 150
91 118 129
79 107 131
123 145 104
172 193 48
181 201 78
175 195 83
184 201 159
201 215 231
203 217 233
217 231 227
211 223 241
62 94 122
65 98 133
64 97 138
63 95 132
66 98 142
65 98 139
67 101 143
65 98 134
63 95 135
67 101 148
68 103 153
67 102 141
64 97 132
64 97 128
66 98 144
68 102 147
66 100 138
64 97 130
67 101 141
67 101 140
65 98 144
63 95 134
64 97 141
68 101 145
65 98 138
65 98 147
66 98 145
65 97 136
67 101 138
66 99 132
65 98 140
67 100 143
61 93 131
63 95 134
65 97 137
66 100 138
66 99 135
65 98 139
67 101 143
64 97 139
66 100 146
64 96 137
67 101 144
65 98 130
66 99 142
62 94 127
64 96 137
63 95 131
65 98 147
65 98 138
66 99 145
65 99 140
66 98 141
65 98 134
64 97 141
67 100 145
65 99 145
65 98 135
63 95 135
63 95 135
63 95 131
64 96 131
62 93 126
65 98 142
65 98 138
65 99 136
63 94 136
63 95 128
62 94 119
67 100 134
65 98 139
64 97 139
63 95 124
62 95 119
62 93 130
65 97 140
62 93 115
65 96 141
62 93 131
60 91 124
63 95 125
66 99 141
59 90 119
64 96 134
61 92 122
63 94 129
61 91 119
61 92 123
62 93 125
63 95 130
60 89 119
63 94 124
61 90 121
61 92 127
60 90 123
57 85 115
57 86 113
58 87 126
59 88 118
54 79 99
57 85 118
47 68 70
75 80 56
83 81 44
72 72 29
65 64 31
51 54 32
74 75 34
58 60 33
58 60 30
70 71 38
61 63 35
76 77 43
71 73 42
80 83 42
87 87 43
80 81 43
90 91 49
93 93 50
97 98 57
99 99 61
111 111 56
106 106 56
103 103 56
113 111 64
116 115 63
125 123 71
112 110 59
119 118 63
121 120 63
122 120 67
118 116 61
135 131 69
135 130 74
132 129 75
127 125 66
134 131 69
139 137 79
140 136 79
137 133 74
145 141 76
129 128 65
146 141 81
139 135 73
147 143 77
138 135 71
144 140 77
150 144 81
148 143 78
143 139 76
148 145 83
152 148 81
148 144 78
146 142 77
155 149 79
157 152 84
153 149 83
149 145 71
155 150 81
149 144 76
157 151 80
157 151 84
149 145 76
153 149 77
160 154 81
153 149 80
153 148 81
155 150 83
157 151 83
157 151 86
161 156 79
159 153 82
159 154 84
151 146 80
155 150 76
155 150 83
148 143 77
155 150 80
164 159 86
162 156 83
157 151 77
152 148 73
156 150 76
158 153 78
159 152 81
163 157 84
162 155 83
157 152 82
164 158 88
155 150 77
163 158 82
161 156 81
154 148 80
160 155 85
158 153 80
165 158 85
161 155 83
158 152 83
165 158 88
158 152 80
155 150 77
164 159 86
164 158 82
151 146 75
156 152 79
154 148 87
157 151 79
157 152 81
168 161 92
161 155 88
159 153 87
156 151 79
163 158 87
154 149 75
158 152 83
161 156 90
162 156 86
157 151 78
150 145 78
159 154 83
162 156 86
160 153 81
154 148 81
158 152 81
159 154 85
155 150 79
158 152 79
158 152 83
158 152 83
163 157 89
154 149 84
148 143 77
152 147 75
150 145 78
158 152 79
147 142 73
150 145 71
158 152 85
156 150 88
152 147 77
158 152 83
158 152 86
153 146 83
149 144 76
148 143 77
139 134 69
149 143 71
153 148 84
155 149 81
150 145 82
142 136 72
221 234 242
222 235 246
224 236 247
222 235 245
222 235 242
218 232 235
225 237 250
223 236 248
222 235 247
221 234 241
223 236 250
223 236 247
223 236 247
224 237 250
222 235 245
224 237 251
225 237 252
221 234 247
223 236 251
224 236 251
220 233 246
221 234 247
221 235 242
221 234 248
219 232 240
224 236 248
224 237 251
222 235 245
224 237 251
220 233 243
221 235 242
223 236 250
223 236 248
223 236 247
224 237 251
224 237 251
223 236 248
222 235 245
221 234 242
225 237 252
222 235 245
222 235 244
222 235 246
221 235 244
222 235 244
222 236 247
222 235 244
223 236 248
219 233 240
219 232 238
217 231 241
223 236 249
218 230 244
220 233 246
215 229 244
220 233 244
213 227 239
214 228 240
212 225 240
217 230 239
221 234 250
214 227 237
209 222 232
212 225 235
218 231 244
220 233 245
220 232 245
217 230 241
216 230 236
214 227 237
216 229 245
216 229 238
217 230 239
221 234 245
222 235 245
221 234 248
222 235 245
224 237 251
222 235 246
222 236 250
221 234 245
222 235 250
221 234 242
221 234 247
222 235 246
219 232 239
222 235 248
223 236 248
222 235 246
222 235 247
222 235 247
222 235 247
222 235 246
222 235 246
222 234 245
219 233 239
222 236 247
221 234 241
219 232 240
223 236 250
224 236 250
222 235 246
222 235 246
223 236 251
221 234 242
222 235 248
221 235 245
220 233 240
221 234 244
220 233 246
221 233 245
221 233 250
217 230 244
222 234 252
224 236 251
218 231 245
218 230 247
215 228 244
219 232 246
222 234 251
219 231 248
218 230 247
219 232 248
218 230 246
217 230 242
210 223 225
197 213 196
195 211 179
193 209 180
182 201 131
177 196 104
175 195 95
178 197 99
177 198 105
178 198 109
180 199 115
182 200 129
175 194 127
73 101 112
72 102 125
138 159 78
173 193 37
176 196 83
169 189 69
176 195 93
195 210 193
205 218 221
213 227 217
208 221 230
63 96 125
62 94 132
64 97 126
65 98 136
64 97 127
64 96 129
65 98 140
63 96 124
66 99 137
62 95 136
64 97 131
63 95 124
63 95 128
62 94 128
64 97 140
66 100 141
64 96 132
64 97 134
65 97 131
67 101 149
65 98 131
67 100 141
65 98 135
67 101 147
65 98 140
62 95 125
64 96 127
63 96 127
66 100 139
63 96 132
65 98 142
67 101 140
65 98 145
65 97 137
64 97 140
67 101 151
64 97 134
63 95 134
65 99 142
66 98 139
65 98 135
64 96 130
65 99 137
62 94 129
65 98 135
64 96 134
63 96 133
66 99 147
67 101 143
66 100 134
66 100 142
64 97 137
66 99 137
66 99 139
64 97 136
66 99 132
66 100 142
63 95 132
66 99 138
67 100 142
65 98 137
63 95 134
64 96 131
62 94 125
61 92 123
64 96 133
64 97 136
63 94 136
63 95 122
65 98 139
64 96 132
64 95 137
64 96 132
61 92 125
60 92 126
64 97 126
66 100 144
63 96 122
62 93 129
63 94 127
60 90 122
61 92 125
62 92 128
62 92 122
63 95 130
63 93 124
63 93 126
60 91 126
60 90 114
64 95 131
60 89 114
61 91 120
59 87 114
57 84 106
57 86 107
59 87 114
57 85 105
57 86 116
54 80 110
54 80 92
52 77 102
51 74 91
157 163 163
80 79 40
71 72 33
71 71 40
63 64 34
62 62 27
68 70 42
56 61 34
55 57 23
59 64 42
79 82 45
69 72 39
80 80 42
88 89 46
84 85 42
97 97 51
90 91 39
103 103 62
94 95 53
101 101 57
104 103 53
97 98 54
113 111 58
116 115 64
122 120 71
114 114 63
121 119 59
122 120 65
121 119 62
123 121 61
119 117 61
135 131 77
130 126 70
139 135 75
129 126 69
134 132 71
129 126 67
145 141 76
136 133 70
135 132 73
138 135 68
131 128 72
137 133 69
141 138 73
137 134 75
145 142 75
144 140 74
150 145 77
142 138 72
154 149 82
148 143 78
155 150 76
151 146 78
148 144 79
149 145 74
155 151 78
152 148 79
146 142 75
150 145 74
151 146 74
160 154 82
158 153 74
153 148 80
150 147 80
157 152 85
155 150 76
151 146 78
159 154 80
150 146 77
159 154 78
160 155 77
167 161 94
156 151 78
158 151 79
156 150 86
165 159 85
166 159 90
155 149 83
162 156 88
159 154 85
157 152 83
158 152 75
160 154 84
157 151 81
158 153 77
157 153 84
158 153 83
160 154 83
158 152 81
157 153 78
156 151 76
156 150 79
161 156 83
159 152 80
162 156 83
160 155 80
163 158 91
164 158 89
162 157 84
163 156 83
166 160 85
161 155 80
153 147 73
159 154 87
154 148 73
164 158 82
160 154 83
163 157 88
160 155 84
154 149 78
152 146 79
161 155 89
156 152 82
155 150 82
162 155 88
149 144 82
156 149 84
156 152 84
164 158 86
158 154 83
151 145 83
160 154 83
156 150 77
160 155 74
151 145 79
154 148 81
149 144 75
158 151 83
159 154 87
157 151 79
152 147 71
153 148 83
161 155 74
153 148 76
161 155 83
153 147 84
155 149 74
157 152 85
154 148 77
158 152 84
156 152 77
162 156 85
155 149 81
154 149 83
153 148 80
146 141 72
147 143 75
148 142 79
150 144 79
223 236 248
223 235 246
224 237 250
224 236 248
225 237 251
223 236 246
221 233 241
223 235 247
223 235 246
224 237 250
222 235 245
222 235 245
223 236 246
224 236 250
223 236 247
223 235 248
222 235 247
223 236 249
221 234 247
223 235 247
225 237 252
221 234 244
222 235 245
222 234 245
222 235 246
221 234 244
219 232 245
221 234 241
218 231 239
222 235 245
220 232 242
224 237 251
222 234 247
223 236 250
223 236 248
223 236 250
222 235 246
223 236 246
223 236 248
222 235 245
221 235 242
223 236 247
222 235 247
222 235 242
221 233 240
224 236 250
222 235 245
221 234 242
222 235 245
220 234 245
220 233 244
222 235 246
220 233 245
220 233 248
220 232 244
215 228 244
216 229 244
218 231 242
216 230 242
218 230 242
216 229 241
218 231 240
213 226 240
210 224 233
213 226 239
217 230 242
216 228 241
219 232 243
221 234 247
217 230 245
217 230 240
221 234 247
221 234 244
219 232 240
223 236 248
222 235 244
222 235 244
221 234 246
220 234 242
222 235 245
222 234 246
222 235 244
223 236 247
221 235 245
222 235 245
223 236 248
222 235 247
221 235 246
224 237 250
221 234 245
222 235 245
222 235 246
220 234 241
220 233 242
220 234 241
221 234 244
224 237 251
222 234 244
223 235 247
218 232 237
223 236 247
224 237 251
223 236 248
218 231 241
224 237 250
227 239 255
221 234 247
223 236 248
220 233 241
224 237 250
218 230 242
223 235 248
223 236 251
219 232 244
217 229 242
221 234 248
213 226 227
211 225 226
208 222 214
198 213 193
195 211 168
188 205 158
181 200 127
175 195 85
172 192 68
177 197 59
173 192 91
176 197 68
174 194 93
171 192 65
177 197 87
171 191 83
179 199 99
178 197 97
187 206 120
182 201 115
191 208 155
151 172 117
65 97 126
76 103 101
166 187 47
170 189 52
173 195 55
171 191 71
164 184 68
175 193 122
214 227 230
211 226 211
221 235 241
75 100 123
63 96 124
62 95 126
65 98 131
62 94 123
64 98 122
63 96 129
61 93 123
60 91 121
64 96 124
63 96 123
62 96 117
64 97 124
63 96 122
64 97 120
63 96 125
66 99 131
62 95 130
66 100 131
65 98 128
64 96 133
61 93 124
64 96 134
63 95 130
64 98 125
64 97 131
65 98 130
65 98 137
61 92 116
65 97 137
66 99 131
65 98 121
66 99 139
65 98 129
64 98 128
61 93 120
65 98 135
64 96 130
63 96 122
65 98 133
65 98 124
65 98 131
65 99 143
64 96 132
63 96 133
63 95 123
62 94 123
65 98 135
66 100 139
67 101 143
66 99 142
65 98 137
62 94 129
61 93 125
62 94 132
62 93 126
65 98 138
62 94 121
61 92 131
65 97 131
62 94 123
62 94 127
65 99 133
62 92 114
64 97 130
63 95 133
61 93 120
62 94 127
60 91 115
64 96 134
62 93 127
62 94 128
63 95 122
62 95 127
63 95 128
65 98 129
63 94 128
62 93 121
59 90 122
63 95 131
61 91 115
61 92 112
63 95 124
61 92 125
61 92 122
60 90 112
64 95 128
60 91 111
59 89 107
60 90 124
63 94 124
59 87 112
62 92 117
58 86 111
58 87 116
62 91 118
55 83 101
54 81 104
53 80 101
56 83 98
56 82 95
85 100 115
176 185 192
84 82 36
72 70 32
74 74 24
50 52 28
56 55 22
61 64 26
59 62 33
61 66 38
62 66 33
70 72 39
75 77 43
89 89 47
87 87 43
80 83 48
98 97 50
99 100 54
92 94 57
91 92 43
109 107 62
98 98 52
110 110 56
109 109 63
114 112 57
113 111 65
119 117 58
114 113 63
122 121 62
127 126 61
122 121 67
113 112 64
121 120 67
126 124 61
137 134 79
132 130 72
126 123 59
142 138 71
139 136 76
143 139 80
141 139 74
128 126 75
138 136 71
131 128 65
131 128 70
148 144 81
146 142 81
140 136 70
143 140 70
151 147 82
152 147 79
149 144 72
149 144 81
155 150 81
150 146 70
150 146 71
157 151 82
152 147 75
156 150 86
154 147 80
147 142 72
147 141 72
157 152 82
150 144 83
161 155 81
160 154 81
154 149 84
147 141 71
150 146 76
154 150 78
158 153 83
159 153 87
155 150 77
161 156 81
158 153 78
159 154 78
163 158 86
160 155 75
153 148 79
157 151 80
162 156 84
161 155 83
162 157 85
160 154 81
156 151 80
157 151 85
156 152 76
159 153 79
166 159 89
164 157 85
155 149 74
163 158 81
163 157 88
161 156 87
160 153 81
167 161 89
158 152 82
159 153 79
157 152 81
152 146 81
158 153 75
160 155 84
161 154 79
161 155 89
163 156 84
163 157 83
154 148 78
161 155 87
160 154 83
153 148 77
160 154 80
154 148 80
161 155 89
158 153 87
164 159 84
157 152 72
159 153 78
157 151 81
152 147 85
159 153 85
163 156 91
155 148 83
157 151 81
161 155 89
160 154 89
160 155 80
146 141 75
154 149 83
154 149 76
158 153 77
150 145 75
162 156 83
147 142 79
154 149 79
155 149 76
152 145 77
154 148 83
154 148 83
153 148 77
165 159 86
161 155 83
152 147 81
158 152 83
155 150 75
146 140 76
153 148 79
155 149 81
149 144 71
152 146 81
152 147 80
217 230 229
222 235 244
226 238 253
223 236 244
223 236 245
220 234 240
222 235 244
224 236 247
223 235 246
222 235 242
225 237 252
223 236 245
225 237 251
222 235 245
222 235 245
222 235 244
223 236 247
223 235 245
223 236 248
222 235 246
222 235 244
222 234 245
223 235 247
224 237 251
224 236 247
220 233 237
224 236 248
222 235 242
222 235 242
223 236 247
221 233 241
220 234 241
223 236 246
221 234 241
223 235 250
221 233 244
221 234 245
223 236 246
222 235 245
225 238 253
224 237 250
221 234 242
224 237 250
224 236 251
223 236 247
222 235 246
223 236 246
222 235 244
223 235 248
220 233 240
222 234 244
221 234 247
220 233 245
218 231 240
224 236 250
221 234 245
221 234 245
219 232 243
212 225 239
214 227 241
216 229 239
217 230 237
218 231 246
220 232 248
221 234 246
218 230 239
217 230 239
216 230 234
215 229 237
216 229 242
223 235 248
221 234 245
224 236 250
219 232 242
222 235 246
220 234 245
221 234 246
222 235 246
222 235 246
222 235 247
221 234 242
222 235 247
222 235 246
222 235 245
220 233 242
222 234 245
221 235 244
225 237 252
220 233 241
224 237 250
224 236 250
225 237 252
218 231 240
223 236 250
223 236 250
221 234 244
218 231 242
222 235 245
223 236 248
223 235 247
219 232 244
217 230 241
224 236 251
220 234 245
215 229 227
214 228 225
207 222 206
213 227 217
202 218 193
198 215 181
194 210 160
192 209 152
187 206 128
185 203 123
178 198 81
179 198 85
181 201 95
173 194 52
172 193 87
178 197 85
173 194 85
176 197 84
176 196 73
172 191 97
180 200 97
174 194 62
169 189 105
176 196 108
170 191 62
174 195 85
174 194 81
174 193 97
175 195 85
181 199 121
177 196 121
182 200 149
186 204 123
139 160 109
66 98 125
131 153 80
166 187 59
169 191 37
169 189 12
171 190 67
171 190 69
162 182 64
211 225 210
207 222 201
219 232 236
113 133 153
63 96 120
64 98 134
63 96 109
62 95 118
62 94 120
62 94 118
64 97 129
62 94 120
65 99 128
64 97 123
63 95 124
66 99 133
61 93 123
66 99 132
63 96 136
64 97 130
64 97 129
65 98 138
63 95 129
65 98 132
65 98 133
61 92 119
62 94 120
64 97 128
65 98 131
61 93 124
63 96 122
63 95 129
66 99 145
63 96 131
63 95 122
65 97 129
64 97 126
63 95 123
62 94 124
64 97 126
65 98 137
62 94 117
65 97 128
64 97 127
63 95 118
63 96 124
62 93 126
63 96 125
62 93 131
62 94 119
61 92 124
65 99 130
62 95 121
62 94 118
62 94 127
65 98 127
62 94 118
64 97 122
63 95 129
62 94 135
66 100 145
63 95 121
63 96 126
61 92 119
64 96 137
66 98 137
64 97 128
62 94 123
63 95 123
62 94 133
63 94 127
62 94 122
62 93 120
59 90 124
61 92 105
63 95 126
63 95 127
64 97 132
61 92 122
63 95 138
65 98 131
58 88 109
62 92 121
61 92 107
62 93 121
62 93 114
62 93 129
62 92 124
63 95 134
61 91 110
59 88 127
63 94 130
60 90 117
61 92 120
62 93 122
63 94 125
61 90 123
60 90 110
58 86 111
56 84 112
53 78 108
56 84 108
51 76 86
51 75 85
128 141 153
201 210 221
93 90 50
87 85 36
70 70 30
68 67 10
65 66 29
68 68 26
63 66 32
67 69 41
68 70 39
69 70 34
73 75 36
65 68 35
82 85 50
87 87 51
90 90 52
98 100 58
86 88 45
95 95 53
107 106 61
99 100 54
101 102 50
113 111 57
102 102 52
120 118 65
124 121 62
109 109 66
119 117 61
114 112 57
122 120 64
125 123 65
129 128 64
133 131 76
125 124 65
135 132 71
137 133 70
125 123 59
127 124 68
134 130 72
131 128 68
134 131 72
138 135 75
144 140 78
130 127 62
148 143 73
146 141 76
150 146 78
140 136 68
139 136 63
151 146 79
146 141 78
148 143 76
140 137 67
150 146 81
152 147 81
154 149 72
151 146 79
146 141 74
151 145 80
155 150 84
150 145 67
160 155 82
153 147 84
154 150 74
152 147 73
163 157 86
152 146 79
159 153 84
157 151 85
156 151 83
152 146 70
158 153 82
161 154 85
157 152 78
150 145 64
154 150 74
153 148 72
156 151 74
155 149 81
152 148 67
158 152 81
160 156 82
161 155 82
157 151 79
165 158 84
154 148 82
159 154 78
165 159 85
158 152 76
152 146 75
155 149 72
159 153 82
156 150 81
161 155 76
147 141 74
164 159 81
162 156 86
157 151 70
159 153 84
160 155 84
163 158 87
156 150 81
150 144 76
159 154 77
160 154 86
157 151 78
159 154 78
158 152 85
155 150 79
163 157 89
160 154 89
155 150 80
159 153 79
166 159 90
161 155 85
157 151 81
157 151 76
156 150 81
159 152 77
154 148 76
156 150 73
155 149 81
156 150 87
153 148 73
156 150 85
154 148 77
157 151 78
160 153 85
154 148 79
151 146 75
159 153 88
158 153 87
152 146 80
149 143 78
144 139 71
147 142 75
152 147 81
154 147 83
152 147 73
150 145 80
152 146 80
156 151 79
154 149 77
155 149 80
157 151 78
151 146 73
152 147 77
158 152 80
142 137 67
183 201 123
189 207 123
194 212 150
191 208 145
199 216 171
203 218 191
208 223 204
210 225 208
215 229 221
220 233 240
222 235 245
222 235 244
224 236 247
224 236 248
222 235 244
222 234 245
222 235 242
223 236 246
221 234 243
222 234 245
219 232 241
222 235 247
222 234 244
223 235 246
220 233 243
224 237 250
224 237 248
222 234 245
222 235 245
222 235 244
223 235 247
222 235 250
223 236 245
222 235 245
222 235 244
223 235 245
222 235 244
224 237 250
224 237 251
223 236 247
223 236 250
222 234 246
222 235 248
224 236 248
223 236 247
223 236 246
224 237 250
224 237 251
220 234 237
220 232 241
222 234 246
223 236 245
222 235 246
218 230 242
222 235 247
222 234 249
220 233 249
220 233 245
216 228 233
217 230 241
220 232 248
217 229 245
217 230 243
216 229 239
224 236 249
216 229 235
220 233 244
220 232 248
221 234 245
225 237 250
221 234 242
220 233 241
220 234 244
221 235 244
222 235 246
224 236 248
222 235 247
221 234 247
220 233 245
220 234 240
225 237 251
222 235 246
219 233 240
222 235 244
224 237 248
222 235 247
219 233 237
220 233 237
214 229 227
219 233 235
213 227 219
207 222 204
205 221 199
202 219 186
197 212 185
199 215 178
205 222 193
194 212 164
194 211 141
189 207 138
184 203 123
178 197 93
176 197 71
178 198 65
180 200 71
176 196 89
178 199 71
177 197 65
179 199 71
180 201 89
176 194 76
181 201 81
175 196 81
176 196 65
176 196 89
176 196 71
172 192 83
180 200 85
175 196 83
172 193 68
176 196 83
176 196 81
175 194 95
175 195 83
174 195 99
177 197 86
173 193 89
170 190 87
174 193 86
171 190 71
172 191 87
171 190 95
174 194 83
177 196 123
181 201 131
178 197 128
177 196 129
94 118 119
100 124 104
166 186 55
164 185 37
168 190 37
171 192 45
168 187 55
164 185 81
173 193 55
203 219 185
202 219 188
226 238 252
162 177 190
63 96 120
64 97 132
62 95 126
63 96 128
63 96 119
64 96 122
62 95 134
64 97 124
64 98 128
63 95 122
62 93 112
64 97 117
61 92 121
61 92 114
62 94 118
63 95 130
67 100 139
64 96 135
63 95 130
61 92 111
64 96 128
65 98 133
61 93 115
64 96 120
60 92 123
62 95 109
62 94 121
66 100 137
63 96 124
62 94 136
62 94 128
64 97 124
63 96 126
65 98 137
64 96 125
66 99 131
63 95 126
64 96 122
62 95 120
65 98 130
65 99 128
65 98 136
62 93 118
64 97 129
65 98 134
63 96 121
65 98 123
63 95 131
64 96 130
65 98 129
66 99 139
64 97 129
62 93 110
64 96 144
61 93 104
63 95 126
67 100 139
63 95 127
63 95 118
61 92 127
62 94 122
62 94 127
61 92 113
60 92 122
61 92 114
65 97 131
65 99 128
63 95 123
64 96 130
65 98 133
65 97 128
64 96 131
63 95 127
61 92 116
64 97 132
60 91 120
64 97 122
60 90 125
60 89 110
62 93 123
63 94 125
62 93 128
60 90 122
60 91 110
63 95 138
61 92 125
61 91 115
61 91 118
59 89 113
61 92 122
59 89 110
57 85 110
57 86 104
49 73 84
55 82 88
59 89 114
59 89 118
58 86 115
54 79 96
51 75 87
161 172 187
223 234 248
102 101 61
86 85 37
77 75 35
74 74 28
68 68 30
71 71 25
62 65 23
75 77 41
77 79 41
71 73 37
74 76 41
73 75 39
75 76 44
85 87 44
79 81 47
86 84 35
91 91 39
82 84 46
98 98 50
88 89 51
114 113 56
108 109 61
113 110 61
111 110 56
121 119 65
117 115 64
113 112 60
112 112 52
122 120 58
123 121 67
120 118 59
137 133 70
131 129 62
131 128 65
126 125 68
134 130 62
129 126 58
126 124 62
129 126 65
144 141 76
143 139 72
132 129 64
142 139 68
144 140 72
146 141 70
141 137 74
143 140 73
139 136 73
138 135 70
152 147 82
145 141 73
155 150 84
144 140 73
143 139 69
157 153 77
146 142 70
152 147 78
151 145 72
151 147 74
152 147 77
158 153 79
162 156 88
152 146 73
152 147 79
147 143 69
154 149 75
154 150 71
153 148 74
157 151 79
154 150 80
154 149 75
154 148 82
163 157 76
155 150 76
157 152 78
151 147 71
163 156 87
150 144 75
151 146 69
155 150 77
161 155 81
150 145 64
160 154 87
162 156 80
149 144 78
160 155 77
159 154 74
153 147 77
155 150 70
155 150 78
154 148 76
160 155 83
159 153 76
164 158 88
160 154 81
153 149 77
160 155 80
158 153 84
159 153 85
156 149 76
155 149 81
159 153 81
159 153 84
160 154 83
162 156 79
158 152 85
154 148 76
155 149 77
150 144 69
158 153 82
154 149 73
155 149 82
158 152 77
158 152 78
158 151 79
164 157 81
158 152 83
156 150 80
154 148 78
160 154 84
157 150 80
162 156 79
155 149 77
149 143 76
156 151 80
147 143 70
158 153 83
155 150 75
159 153 83
157 151 77
149 145 78
161 154 85
149 144 72
154 149 71
163 156 86
150 145 75
163 156 84
148 143 78
139 135 70
147 142 74
151 146 77
160 153 87
155 149 87
158 151 83
147 141 73
149 144 73
148 143 74
153 148 73
192 210 143
192 210 153
183 203 114
184 202 111
187 206 120
187 206 117
184 203 101
180 200 81
183 202 85
184 203 97
183 203 97
188 206 128
188 205 133
196 214 160
197 214 166
196 213 162
204 220 184
204 219 190
201 216 185
207 223 196
211 226 211
212 227 217
213 228 216
218 231 229
217 231 231
219 233 239
218 232 231
223 236 245
221 234 242
223 235 244
220 233 241
225 238 252
223 236 247
224 236 248
221 234 241
222 234 245
224 236 250
224 237 253
223 236 246
223 236 245
224 236 247
223 236 248
223 235 247
221 234 241
223 235 246
224 236 248
224 236 247
224 236 250
221 234 245
221 234 246
225 237 250
221 234 245
222 234 246
224 237 250
224 236 251
221 234 243
222 235 246
221 233 246
220 233 240
221 234 246
218 231 233
218 231 233
216 230 231
219 232 237
214 228 223
216 230 225
211 225 219
212 226 216
209 223 208
210 225 204
210 225 206
208 224 202
205 221 195
198 215 172
201 216 191
204 220 188
196 213 162
198 215 164
187 206 145
192 210 156
182 200 125
186 203 148
186 205 104
184 204 89
178 198 89
178 197 76
182 202 71
179 199 93
177 197 65
180 200 65
180 202 59
176 196 71
178 199 59
179 200 59
179 200 59
181 202 76
181 202 85
179 200 81
177 196 76
180 201 93
176 196 85
174 193 76
179 199 65
174 195 71
178 199 65
175 196 52
181 202 76
177 197 76
177 198 65
177 197 89
179 200 76
180 200 108
174 194 76
176 198 68
173 194 91
171 191 91
167 187 43
175 195 91
175 195 87
172 191 85
177 197 85
173 194 76
177 197 103
174 195 73
172 192 87
168 189 78
174 194 68
171 191 89
172 194 68
171 192 99
179 198 81
174 193 89
182 201 117
179 199 109
182 201 123
180 198 121
166 185 101
83 109 108
146 166 55
165 185 44
166 187 37
172 193 23
167 186 40
169 189 65
173 193 84
174 195 55
206 221 199
203 218 191
217 230 227
175 191 194
61 93 101
64 97 134
59 90 118
64 96 123
65 98 126
62 93 118
63 95 122
64 96 129
64 97 128
64 97 122
63 95 127
62 94 123
63 96 120
63 94 131
61 93 124
62 94 125
62 94 127
63 95 129
63 96 130
63 96 128
65 98 126
65 99 132
63 95 122
62 93 122
65 98 133
62 93 113
60 92 108
65 98 136
64 97 127
65 97 130
64 97 133
61 92 124
64 96 131
64 96 125
63 95 127
65 98 133
63 94 125
62 95 124
64 97 127
65 98 133
63 95 120
62 95 117
65 97 136
63 96 133
65 98 133
64 96 123
62 94 113
65 98 127
63 96 125
64 96 121
63 96 132
63 95 125
65 97 131
61 92 122
63 95 129
63 95 120
62 95 119
63 95 128
60 91 116
63 96 129
64 95 122
61 93 120
62 94 129
64 97 144
62 94 119
64 97 131
63 95 128
61 93 123
64 97 135
62 93 126
63 95 125
63 94 127
63 95 126
63 94 120
64 95 134
61 91 124
62 94 118
62 94 128
63 95 135
60 90 116
62 93 130
64 96 131
61 92 128
61 91 121
62 92 124
60 91 114
60 89 119
61 91 116
58 87 113
59 88 108
63 94 120
58 87 113
58 86 116
57 85 112
56 84 113
56 83 105
57 86 110
57 85 111
53 78 103
47 69 84
183 195 203
217 230 228
141 147 134
89 87 42
79 78 27
71 69 27
72 71 33
62 64 18
64 65 33
65 67 26
62 65 29
83 82 32
75 74 25
77 78 33
83 82 34
79 81 37
88 89 39
84 86 29
87 86 43
95 95 39
86 87 39
96 97 49
102 101 51
105 106 52
108 106 54
114 113 58
117 115 56
114 113 54
110 109 57
119 118 61
129 126 69
131 128 63
115 114 54
128 125 72
129 126 60
122 120 60
126 123 63
133 129 65
140 137 68
123 120 68
133 130 68
141 138 76
143 140 75
132 130 66
148 144 78
135 132 73
144 139 75
136 133 69
136 133 66
142 138 70
153 148 80
148 145 76
143 140 70
152 147 74
145 141 72
146 142 75
143 140 68
143 138 70
156 150 77
149 145 79
153 149 81
149 145 76
156 151 78
156 149 78
149 144 78
146 142 72
151 146 78
148 143 69
148 143 73
154 148 78
159 154 79
158 153 70
160 153 82
158 153 76
153 148 81
158 153 78
156 151 77
150 146 73
159 153 77
154 150 70
157 152 75
158 152 88
155 151 76
163 157 79
154 149 82
146 142 68
157 152 83
159 153 83
154 148 71
156 149 81
160 154 78
162 156 83
164 157 85
166 161 83
162 157 80
162 157 78
159 155 81
160 155 78
160 154 83
161 154 78
154 148 80
159 153 75
155 149 77
155 149 80
154 149 76
158 152 82
155 148 78
156 151 71
156 151 76
160 154 84
157 152 77
163 156 89
162 156 82
155 149 74
160 154 85
157 150 84
164 157 83
158 152 80
153 146 76
152 148 73
155 149 80
157 151 77
153 148 72
155 149 73
149 144 78
149 143 71
156 150 80
151 146 78
156 149 75
164 156 87
158 153 81
159 154 76
155 149 76
152 147 73
149 145 74
159 153 87
158 152 85
156 150 85
145 140 74
154 148 78
164 156 85
156 149 80
157 151 81
147 140 73
158 152 84
154 148 81
155 150 78
154 148 78
149 143 78
141 137 70
190 207 138
191 209 141
190 209 125
188 208 114
187 205 120
187 206 104
187 207 114
187 207 108
182 202 81
185 204 93
181 201 89
183 203 89
178 197 65
182 202 89
179 199 93
179 199 81
180 200 91
182 201 71
177 197 52
182 203 65
179 200 81
180 199 95
181 201 76
180 200 89
182 202 81
179 199 71
180 200 76
179 199 73
180 202 76
180 201 76
180 201 71
185 204 108
183 202 91
182 201 93
182 202 108
183 202 104
186 205 108
184 203 120
186 205 125
188 207 131
188 207 123
193 211 148
188 207 117
190 208 141
187 206 136
185 204 111
189 208 128
188 207 123
181 200 108
188 207 128
189 209 125
185 205 114
182 202 104
183 202 101
184 203 104
179 199 101
183 203 101
176 197 81
179 199 52
181 202 97
178 199 76
180 202 65
178 197 81
178 199 89
179 200 71
175 194 52
180 201 97
180 200 71
176 197 76
179 199 71
180 200 76
179 199 59
179 199 81
178 199 76
181 201 85
181 202 59
179 199 81
176 197 52
179 200 81
181 202 59
180 201 71
177 199 65
178 199 43
174 195 65
176 197 65
180 201 89
176 197 76
178 200 81
177 198 76
178 198 59
177 198 59
178 199 76
176 197 52
173 194 71
176 197 81
180 200 76
176 197 81
178 199 93
180 201 65
174 193 71
175 196 71
178 199 85
176 196 76
178 199 93
180 201 71
179 199 65
175 196 71
179 199 76
180 199 65
175 196 81
174 194 71
175 196 89
176 197 89
176 196 85
176 195 89
177 197 89
172 193 55
173 194 81
172 192 81
173 193 87
175 196 91
175 195 78
175 195 78
176 196 78
168 188 76
175 195 99
175 195 89
177 197 97
174 194 87
176 195 99
169 188 93
173 192 115
172 191 108
173 193 117
181 200 111
171 190 93
130 149 97
138 160 67
160 179 23
169 190 34
170 191 23
169 190 31
162 182 49
175 195 73
174 193 76
182 202 52
206 220 199
188 206 117
178 198 0
163 185 43
62 94 119
62 95 122
63 95 127
64 97 130
64 97 123
61 92 116
63 96 125
64 97 125
65 98 131
65 97 121
63 95 122
64 96 125
63 95 129
63 95 119
66 100 133
63 96 130
62 94 126
64 97 130
59 91 120
63 96 129
63 95 134
62 94 110
65 99 133
61 93 132
66 100 128
63 95 127
63 96 120
62 94 114
64 97 140
60 91 129
64 97 130
62 93 123
64 97 134
62 94 125
63 96 127
62 94 113
62 94 127
63 95 127
62 94 121
64 97 127
66 99 132
63 95 123
63 95 123
64 96 129
63 95 123
65 99 133
62 95 127
63 95 127
66 100 144
63 94 125
65 97 132
60 91 122
62 93 112
66 99 139
61 93 116
62 94 125
63 95 131
64 96 119
63 95 128
62 94 119
63 95 130
62 94 119
61 93 127
61 92 113
65 98 132
62 93 124
63 95 130
61 92 117
62 94 118
63 95 121
61 94 119
64 96 131
59 90 118
64 96 123
64 96 128
62 92 121
61 92 123
59 89 113
61 91 129
63 95 123
62 93 121
62 93 126
62 94 112
59 89 113
62 93 124
59 89 115
60 90 121
60 90 118
58 88 109
60 90 114
60 90 123
57 86 112
56 85 117
61 91 127
57 85 115
58 87 107
52 77 94
54 81 97
57 84 106
50 73 89
161 181 0
180 202 0
127 137 31
81 79 32
82 79 37
61 61 23
66 66 29
58 60 24
60 60 29
65 66 31
80 81 38
71 74 35
54 57 24
63 66 32
69 72 33
87 88 47
91 91 38
81 84 36
97 97 50
95 97 55
91 92 46
91 91 41
115 114 60
103 103 50
118 116 60
102 102 59
110 110 46
120 118 66
116 114 60
117 115 54
126 122 58
124 122 62
128 126 67
120 117 57
126 123 63
126 124 56
137 134 67
127 124 67
134 131 72
134 132 64
138 135 58
138 134 68
134 131 65
138 135 71
145 141 75
140 136 67
142 137 65
143 139 73
129 126 62
143 138 69
139 135 66
148 144 71
137 134 64
142 138 70
145 141 70
147 143 73
154 149 76
148 144 72
143 138 65
153 147 69
147 142 69
153 148 71
147 143 69
157 151 79
158 152 76
151 145 78
157 153 79
148 143 74
159 153 83
161 156 80
156 151 73
155 149 77
154 149 74
149 145 66
152 147 71
157 152 74
161 156 84
143 139 63
157 152 76
163 157 79
155 149 75
153 148 73
154 148 74
161 155 81
155 149 78
163 157 84
159 153 77
158 152 79
163 156 82
158 152 78
158 152 76
157 150 79
160 154 83
155 150 74
156 149 76
163 157 84
155 150 74
161 156 83
156 151 79
162 155 85
157 152 76
161 155 80
159 153 80
161 156 78
157 151 78
152 147 81
151 144 76
163 156 79
157 151 75
160 155 78
150 145 74
158 151 78
159 154 76
153 146 73
155 149 70
149 144 72
151 145 68
158 152 78
156 149 77
157 152 76
152 147 81
146 142 69
168 161 89
153 147 78
148 144 67
158 151 80
156 150 79
158 152 81
153 146 74
148 141 72
148 143 69
145 140 69
152 147 73
150 144 77
154 149 80
157 150 80
157 151 81
154 149 80
146 141 66
150 144 75
150 144 75
155 151 76
153 148 79
151 144 74
150 144 78
156 150 79
141 136 70
155 149 81
157 151 79
161 155 86
190 208 143
187 207 120
186 206 111
187 205 125
184 203 104
188 207 123
183 203 104
187 206 131
181 201 89
182 202 101
181 200 89
181 202 81
182 202 85
177 196 89
185 205 101
184 203 81
184 204 89
181 202 91
179 199 87
182 202 71
181 201 95
178 198 97
178 198 85
178 198 71
181 201 97
177 197 65
183 203 101
179 199 43
176 197 76
177 197 93
176 196 71
179 199 95
177 197 43
182 202 65
181 200 89
178 198 73
181 201 71
175 196 71
180 201 81
178 198 81
178 199 85
176 196 85
179 200 76
174 194 65
175 196 85
184 204 71
178 199 97
177 197 76
178 199 81
178 199 81
178 198 71
179 200 76
179 199 65
179 200 89
180 200 65
179 200 59
175 195 52
180 201 65
178 199 81
176 196 71
175 196 65
178 197 76
180 201 76
173 194 52
181 202 65
179 200 89
179 199 71
181 202 89
180 199 85
179 199 76
176 196 43
178 199 76
174 195 43
180 201 89
178 199 52
178 199 76
172 192 65
173 194 76
179 199 52
180 200 76
175 195 85
179 199 76
177 198 101
177 197 59
179 199 85
180 200 71
180 200 93
171 193 71
177 198 81
175 196 59
178 199 89
178 199 76
177 197 76
178 198 89
179 201 85
178 198 81
175 196 81
177 198 89
177 198 97
180 202 81
177 197 81
178 199 71
176 196 76
178 199 85
181 202 97
175 195 65
177 197 76
174 194 71
175 196 59
173 193 71
174 193 0
174 195 65
173 193 59
176 197 85
177 198 89
172 191 59
173 193 65
170 190 65
177 197 78
176 197 81
165 185 52
173 193 90
169 188 62
171 191 73
177 198 95
174 194 91
174 195 106
177 198 67
175 196 76
172 192 78
174 195 103
173 194 109
178 198 100
178 197 109
173 192 108
173 191 123
142 162 71
167 188 40
168 189 23
167 188 23
167 188 31
167 188 38
170 190 48
171 191 55
179 200 43
177 197 65
209 224 208
185 204 85
175 195 0
174 195 0
81 107 117
62 94 110
66 100 133
62 94 120
62 94 119
63 96 125
62 94 115
62 95 126
62 94 125
65 97 130
62 95 116
63 96 121
60 92 112
63 95 130
63 96 128
63 95 124
64 97 126
62 94 112
63 95 116
62 94 124
62 93 117
65 99 127
65 98 129
63 96 121
62 94 124
63 96 118
63 95 126
62 95 110
62 94 122
63 96 122
61 92 130
63 95 124
63 96 123
64 97 139
64 97 124
61 93 118
64 97 124
66 99 144
66 100 139
63 95 129
63 95 122
66 99 131
63 95 119
63 95 122
61 93 116
64 96 127
64 96 121
62 93 121
63 95 121
61 92 118
61 92 120
65 97 128
61 93 110
64 97 126
64 95 117
62 94 126
61 92 123
63 95 131
63 95 128
59 90 109
63 95 131
66 99 132
61 92 125
62 94 131
62 94 117
62 94 127
64 97 127
60 90 125
64 97 129
62 94 118
62 93 116
61 92 125
60 91 122
60 91 119
63 94 133
59 90 126
60 92 117
64 96 133
61 92 128
61 92 120
61 91 106
58 87 115
62 95 127
59 89 114
61 92 128
60 90 127
63 95 130
58 86 111
60 90 105
58 88 123
57 86 107
55 83 95
59 89 115
61 92 123
58 87 109
56 84 108
55 80 101
55 81 96
49 72 71
67 87 61
176 196 0
175 196 0
156 173 20
82 82 36
79 78 32
76 75 30
66 68 29
81 80 21
83 83 26
71 72 31
73 75 36
78 79 35
87 88 40
78 80 38
80 81 33
78 79 32
95 92 40
95 94 37
93 93 49
89 88 43
97 96 46
95 95 48
107 107 54
109 108 57
103 102 41
106 105 54
103 103 51
114 111 54
109 108 58
122 120 59
112 112 53
120 119 62
125 122 69
134 131 66
120 118 63
126 124 68
119 117 55
129 126 63
130 128 62
142 139 70
136 132 62
138 134 68
143 138 69
142 138 68
138 133 65
144 139 72
142 137 69
136 133 70
147 143 68
149 145 73
146 141 72
140 136 72
139 135 64
142 138 65
149 143 73
149 144 68
149 144 79
146 142 70
154 148 75
140 136 72
151 147 78
154 149 72
156 151 75
148 142 73
142 139 59
156 150 77
154 149 75
148 143 74
144 141 67
149 144 72
147 142 71
150 146 74
154 149 80
153 149 74
162 157 83
148 143 73
150 146 69
150 146 71
157 152 77
158 152 77
150 144 71
162 157 84
156 150 76
149 144 68
160 154 79
156 150 70
160 155 75
155 150 73
155 150 74
152 146 81
156 150 72
153 148 72
158 152 86
155 149 80
151 146 73
160 155 81
149 143 66
158 152 76
155 150 80
159 154 75
160 154 76
159 152 80
152 146 72
156 151 74
164 158 89
162 156 83
152 146 70
159 154 75
150 143 76
161 155 82
152 147 72
165 159 86
161 154 83
153 148 71
155 148 75
151 145 74
160 154 86
162 155 81
155 150 76
149 143 69
161 155 83
153 147 79
148 143 67
148 143 72
161 154 79
157 152 74
140 136 57
153 146 78
149 145 72
152 146 69
145 140 73
161 154 77
154 148 79
163 156 85
159 152 83
153 147 76
153 147 78
155 149 80
154 148 77
155 150 79
155 149 76
147 142 76
152 146 74
154 147 78
151 145 74
150 144 77
151 146 81
154 149 75
145 139 72
146 142 70
191 209 143
188 207 135
183 202 125
186 205 120
182 200 117
182 201 101
182 201 101
183 202 93
180 200 101
183 202 108
186 206 117
178 198 81
178 196 93
183 203 103
184 203 101
182 202 93
180 200 81
184 203 97
181 201 85
181 201 76
178 198 85
180 201 81
184 202 103
179 199 76
180 201 81
178 198 87
185 205 101
179 199 65
181 201 83
178 198 65
183 202 89
178 198 81
180 200 81
176 197 62
181 201 85
178 198 59
177 197 52
178 200 89
179 199 52
179 198 65
180 200 81
178 199 71
179 200 93
180 201 81
177 198 76
176 197 65
182 202 89
181 202 76
178 199 76
180 200 76
181 201 71
180 200 76
183 204 101
176 197 59
179 199 71
180 201 71
179 200 65
177 198 71
180 199 71
180 199 59
175 195 59
177 199 76
179 201 65
182 201 65
182 202 71
179 199 71
178 199 65
178 199 76
181 201 59
177 198 59
178 199 89
177 199 81
179 200 81
177 198 93
178 198 59
176 196 81
177 198 52
175 196 71
180 201 65
178 199 59
177 197 43
174 194 65
175 196 71
174 194 104
180 201 85
178 199 43
175 196 59
181 202 104
175 196 76
176 197 71
178 200 76
178 199 59
176 197 89
179 200 97
179 200 76
180 201 71
178 197 89
177 197 76
174 194 85
179 201 71
174 195 89
178 198 76
174 194 76
176 197 76
176 196 59
178 198 81
177 198 65
180 201 89
177 197 89
177 198 65
177 197 59
178 198 65
176 197 76
178 199 93
179 201 59
175 196 71
173 195 85
171 192 65
172 191 62
178 198 89
171 191 81
173 193 78
175 195 78
178 198 71
177 197 81
173 194 91
174 194 85
174 195 91
170 190 65
178 198 89
175 194 81
176 197 114
181 200 111
176 194 112
175 194 111
172 192 91
156 177 43
159 180 37
160 181 37
167 187 23
171 192 23
164 184 31
166 188 59
172 193 43
173 194 31
184 203 111
191 209 152
176 197 0
173 193 0
177 196 0
105 129 96
61 92 119
61 93 120
63 95 115
65 98 122
63 95 131
60 91 113
64 97 128
63 95 118
63 95 124
62 94 124
64 98 129
63 95 127
62 94 110
62 94 128
66 100 130
64 98 126
64 96 132
65 98 130
64 97 126
61 92 127
65 98 131
63 94 121
63 96 125
64 96 125
62 94 129
62 95 121
62 95 124
61 93 125
64 97 131
62 95 131
64 97 124
63 96 121
61 92 118
65 99 128
62 93 125
65 98 130
62 93 119
63 96 131
63 96 125
61 93 121
64 96 123
60 92 116
64 97 130
65 99 133
63 95 120
60 92 112
65 98 130
65 98 126
60 91 116
63 96 124
66 99 139
65 98 130
64 98 132
64 96 131
60 91 109
59 89 115
63 95 121
65 98 128
64 96 126
59 89 113
66 99 136
64 96 126
61 92 117
63 95 129
61 94 117
66 100 135
61 92 118
63 95 134
63 94 126
63 95 134
64 96 127
64 96 130
61 92 120
60 91 118
65 96 132
60 91 114
62 93 124
61 92 118
62 93 119
60 90 112
63 95 115
62 92 124
61 92 124
57 86 92
61 91 119
62 93 124
59 89 119
59 88 116
62 92 119
61 91 120
62 93 116
56 85 108
59 87 113
54 81 106
58 87 114
55 83 97
55 81 111
51 76 93
113 131 77
173 193 0
175 196 0
176 196 0
113 115 43
83 81 36
90 87 36
80 80 34
64 66 29
74 74 27
76 76 27
77 77 16
72 74 33
77 76 32
76 78 36
81 81 34
98 98 43
83 83 42
82 82 43
99 100 37
87 88 31
96 98 42
85 83 29
95 94 47
100 99 32
114 111 55
111 109 54
104 104 52
113 111 52
97 97 47
115 112 57
127 124 62
119 117 50
114 112 65
123 122 61
117 115 55
139 136 73
123 122 62
130 128 66
127 123 64
128 125 64
143 138 68
134 130 68
128 125 67
135 132 64
137 132 69
144 140 70
141 138 62
140 135 69
137 134 70
139 135 69
141 137 60
140 137 66
147 142 72
143 138 74
153 148 72
148 143 65
146 140 68
146 141 70
148 143 63
154 148 79
148 144 69
153 148 75
153 148 73
151 146 72
145 140 63
148 143 69
157 151 83
154 149 77
147 143 70
158 152 71
150 146 71
153 147 81
161 155 77
152 146 77
150 145 66
156 150 72
156 150 76
157 151 82
154 148 74
156 151 75
163 157 81
156 151 75
159 154 76
141 136 66
156 151 74
154 148 75
150 144 79
149 144 70
164 158 81
156 151 75
152 147 77
163 157 84
162 157 81
148 144 68
157 151 83
161 154 78
151 146 73
154 149 72
161 155 79
156 150 72
155 149 78
162 155 83
159 153 86
153 147 74
158 151 79
160 154 82
158 152 78
157 152 86
156 150 70
161 154 76
158 151 77
155 149 81
152 147 64
154 148 79
156 151 72
153 147 74
149 144 77
158 151 79
151 145 74
160 155 81
150 144 75
157 151 73
160 153 76
162 155 82
153 148 71
154 149 71
155 150 74
150 145 70
159 153 87
150 144 71
144 138 69
148 144 67
158 152 77
152 146 76
145 140 76
152 147 65
153 149 69
153 147 81
154 148 80
149 143 72
153 147 76
153 147 77
155 149 83
154 148 79
154 148 72
147 141 71
156 149 82
151 144 78
151 145 73
150 144 76
186 204 125
194 211 143
189 207 143
182 201 104
180 200 101
186 205 117
183 203 104
186 205 108
184 204 111
187 206 131
182 201 111
182 201 93
184 204 95
183 203 101
183 203 89
180 200 111
184 204 108
180 200 81
180 201 93
179 198 89
179 199 76
178 198 91
178 199 59
177 197 65
178 198 91
179 199 76
177 197 85
180 201 76
178 198 76
180 201 71
177 197 91
180 200 89
183 203 93
179 199 81
180 200 81
174 195 76
178 199 87
177 197 83
179 199 108
182 202 71
178 199 65
182 202 85
179 201 89
178 198 76
179 199 89
178 199 43
178 199 65
176 197 71
178 197 65
179 200 85
179 200 81
182 202 85
174 194 85
178 198 81
178 198 71
177 198 71
176 197 65
179 199 59
182 203 104
176 196 43
174 194 89
178 199 65
180 201 104
177 198 71
180 201 101
180 201 76
179 200 71
176 197 71
175 195 76
175 194 71
176 197 71
180 200 81
175 195 43
177 197 76
176 197 59
178 199 71
173 195 76
179 199 59
177 197 85
178 199 89
179 200 71
177 198 101
181 202 89
176 198 81
180 200 85
174 195 52
174 195 85
178 199 59
178 198 31
174 195 52
179 199 76
178 200 89
176 196 81
176 198 81
172 193 71
175 197 52
177 198 59
179 201 89
172 192 65
177 197 52
180 200 81
176 196 81
174 195 52
181 201 71
178 198 65
174 195 65
175 197 76
177 198 71
178 198 52
176 197 71
181 201 93
171 191 81
177 197 71
178 199 65
172 193 81
180 200 52
174 194 93
172 191 59
171 192 68
175 195 76
175 196 65
169 189 85
177 198 82
162 183 65
165 185 73
173 194 78
172 192 92
172 193 99
173 193 95
173 194 93
171 191 93
172 191 109
180 199 121
175 194 109
174 194 101
160 179 43
159 181 23
162 182 37
161 181 37
172 193 23
167 188 62
167 188 37
172 193 43
172 192 43
173 192 31
193 211 150
185 205 114
174 192 0
172 193 0
178 199 0
154 176 55
61 92 124
62 95 117
63 95 122
60 91 111
63 96 122
64 97 126
63 95 121
60 92 111
62 95 123
63 95 124
64 97 127
62 94 124
62 94 116
63 95 125
63 96 126
64 97 123
65 98 137
61 92 116
61 91 121
63 95 123
65 98 129
61 93 115
61 93 122
62 94 121
62 95 126
65 98 130
63 96 125
62 94 116
62 93 119
62 95 120
64 97 127
61 93 124
62 94 121
62 94 128
62 94 107
65 98 134
64 97 131
63 96 122
61 93 115
64 96 130
63 95 120
63 95 124
60 91 119
62 94 124
63 94 134
64 96 132
60 91 121
62 93 124
64 97 131
66 99 132
65 98 133
60 91 107
62 94 115
64 96 123
62 94 121
62 94 120
61 92 112
60 90 118
61 93 119
63 95 122
63 94 121
61 92 117
66 99 132
63 95 116
65 97 133
60 91 123
64 96 127
62 94 120
59 89 108
60 91 116
61 93 123
60 90 127
61 91 128
64 96 127
61 91 118
61 92 123
63 94 118
60 90 119
59 90 112
61 92 119
61 92 119
60 91 117
60 90 114
60 89 116
60 91 124
62 93 126
60 90 121
61 91 113
59 88 106
60 91 115
60 90 113
59 88 111
57 86 109
59 88 106
56 83 96
52 75 93
55 81 99
51 73 87
146 165 58
178 198 0
177 196 0
174 194 0
137 148 28
88 85 43
83 81 31
73 73 22
58 59 29
79 80 33
68 69 24
79 77 30
75 76 31
73 73 32
72 72 27
89 90 36
80 80 33
85 85 27
90 89 44
72 73 30
99 97 45
100 100 50
90 91 51
88 89 47
106 105 37
103 103 51
112 111 52
114 112 50
102 102 44
118 115 59
102 101 52
120 119 58
116 114 60
116 114 59
119 117 59
137 132 65
130 127 65
122 120 57
138 134 68
123 122 61
133 130 64
131 128 56
139 135 70
140 136 68
137 133 68
147 142 70
135 131 63
135 131 64
139 134 63
138 135 69
142 138 66
147 141 74
139 134 70
142 137 63
143 139 65
146 141 72
145 139 70
149 144 69
151 146 69
132 129 61
149 143 70
153 148 75
149 143 72
155 150 79
154 147 74
151 146 72
146 141 68
152 147 73
150 146 66
158 152 81
151 146 67
152 145 70
152 146 73
146 142 69
144 139 70
147 142 67
159 154 79
154 148 79
164 159 79
158 152 73
160 153 82
151 146 72
161 155 79
155 149 71
152 145 76
155 150 70
150 145 64
152 148 72
156 150 74
154 149 78
160 153 80
152 146 73
158 153 77
158 153 82
159 152 88
157 151 75
154 149 73
155 149 76
162 155 80
161 155 79
147 143 69
156 150 76
155 148 70
152 148 77
155 150 74
154 150 76
152 146 73
155 150 78
160 154 81
153 146 83
157 151 80
160 154 83
155 149 69
161 154 80
161 154 76
155 149 76
153 147 71
154 148 82
153 147 73
149 144 65
151 147 78
155 148 79
147 142 73
156 150 76
147 141 73
149 143 71
156 149 80
148 142 67
150 145 74
154 149 76
151 145 76
156 150 83
147 142 76
148 143 76
150 146 74
151 147 70
147 141 67
159 152 75
149 145 74
150 144 70
160 153 83
157 151 81
145 139 70
163 156 85
153 148 82
142 137 66
154 149 80
148 143 72
159 153 79
143 137 70
150 145 75
181 202 108
190 207 138
190 207 144
191 208 143
186 205 117
189 208 120
187 206 117
188 207 117
182 201 108
182 202 108
184 203 125
185 204 104
182 202 97
185 205 81
180 200 89
183 202 93
181 201 89
184 204 85
182 202 101
181 201 97
182 203 81
183 204 93
178 199 85
179 199 59
178 198 76
180 200 81
183 203 71
182 201 89
179 199 83
180 200 93
176 197 87
175 197 76
177 197 81
179 199 71
178 199 76
179 199 31
178 199 76
176 196 76
181 201 85
177 198 85
181 201 89
178 199 59
178 198 71
180 201 65
177 198 76
177 198 65
176 197 76
175 195 65
178 199 71
182 202 89
176 197 59
176 196 76
179 200 52
178 199 59
176 197 71
180 201 81
177 199 81
177 198 65
179 201 81
179 199 59
180 200 93
174 195 71
179 199 65
177 198 85
177 197 71
176 197 81
177 198 65
178 199 71
174 195 59
179 199 71
174 194 59
175 196 81
176 196 43
176 197 76
178 200 89
177 198 71
178 199 76
175 196 43
176 196 76
180 201 76
179 199 52
178 198 85
175 195 31
176 197 52
181 202 85
177 197 65
175 196 65
179 200 81
171 191 52
173 195 89
180 200 59
172 193 71
175 196 76
176 197 59
174 194 59
171 192 65
181 201 93
173 194 71
177 198 76
178 200 81
176 198 85
177 198 65
174 194 59
174 196 59
178 199 52
177 197 65
178 199 52
177 199 76
171 192 71
176 195 76
174 194 93
174 194 71
177 198 81
173 194 71
171 192 76
178 197 76
173 194 71
179 199 93
168 187 65
181 201 81
173 193 101
168 188 65
170 189 52
171 192 83
169 190 97
176 196 93
174 195 104
174 194 99
171 191 91
172 192 93
169 189 100
177 196 124
180 199 128
170 188 109
172 192 89
158 178 0
157 176 0
166 185 23
166 186 31
170 190 31
165 188 43
170 190 31
174 194 52
173 194 43
179 199 65
195 212 154
180 201 65
173 194 0
175 196 0
171 191 0
167 187 2
68 98 112
64 96 133
62 94 124
62 94 119
61 92 110
63 97 120
63 95 119
60 91 123
62 94 114
64 98 143
61 93 105
63 95 122
61 92 115
61 92 118
61 93 117
64 97 125
61 92 118
65 97 129
64 97 131
61 93 126
62 95 118
64 97 130
63 94 124
65 99 132
64 97 134
61 93 108
64 96 134
63 96 122
62 93 119
60 91 120
64 97 134
64 97 126
64 98 122
62 94 120
62 94 128
63 95 114
66 99 139
63 95 128
62 94 119
62 93 122
64 97 132
62 93 125
61 93 125
64 96 126
63 95 126
61 92 122
63 94 128
61 93 122
62 94 119
63 96 122
60 90 117
64 97 123
64 96 120
64 97 125
62 93 128
62 94 119
64 97 140
61 92 120
63 96 123
62 95 129
61 93 120
63 95 128
65 98 134
61 92 115
66 100 136
61 92 117
61 92 121
59 89 107
61 92 111
62 94 124
60 89 116
60 90 116
63 95 120
63 95 124
61 92 122
60 91 119
58 88 110
63 94 125
63 95 137
61 92 113
59 90 112
62 92 119
59 88 113
59 89 103
58 87 102
59 88 111
56 85 107
59 88 114
59 88 111
56 85 107
60 90 119
57 85 104
57 85 107
57 85 102
55 82 105
54 79 85
54 79 89
59 79 70
173 193 12
175 196 0
176 196 0
175 195 0
165 184 21
92 90 39
80 79 28
78 76 27
67 67 30
70 70 28
72 73 26
82 81 21
77 78 23
71 71 29
75 77 33
95 93 39
89 88 37
79 81 39
87 88 41
75 76 39
88 90 37
97 97 47
100 99 47
105 104 44
111 109 57
109 108 54
113 112 54
112 109 53
122 119 65
110 109 46
121 118 57
118 115 52
114 113 54
115 113 53
130 127 70
128 126 58
120 115 56
123 122 56
135 131 56
139 136 74
130 126 64
127 125 56
136 132 67
126 123 63
139 134 60
137 133 65
143 139 69
138 133 55
133 129 61
143 138 69
137 133 63
136 132 65
149 142 71
144 138 65
149 145 60
144 139 70
146 142 71
144 140 69
143 137 64
146 141 65
153 148 73
141 136 68
149 145 66
152 148 71
151 146 68
150 145 70
151 146 65
150 146 69
153 147 69
154 148 72
154 149 66
150 145 69
154 149 73
145 140 63
155 151 67
149 145 57
153 148 78
159 154 77
158 152 78
158 151 77
158 153 74
161 155 85
154 148 74
158 151 79
159 152 77
150 145 66
160 155 72
154 149 76
155 150 76
153 148 67
152 147 74
149 143 71
161 155 77
148 143 68
156 151 74
151 146 71
152 146 76
159 153 79
154 149 72
149 144 71
147 143 73
153 147 70
151 145 76
155 150 79
156 151 78
148 142 75
152 147 70
154 147 73
153 148 74
151 146 77
156 150 73
156 151 73
148 143 73
152 147 76
151 146 76
151 146 79
151 145 69
151 145 78
157 151 76
148 143 75
152 147 72
160 153 79
156 150 69
149 144 70
148 143 73
152 146 70
153 147 74
154 149 74
147 141 65
156 150 81
153 147 75
151 145 70
152 145 75
149 143 66
153 148 79
145 139 67
158 152 76
157 151 80
153 149 77
151 146 71
145 139 66
159 153 84
157 150 83
155 150 78
159 154 78
146 141 70
151 146 71
160 153 85
151 145 77
141 136 71
152 147 71
176 196 81
181 200 93
185 203 128
189 207 136
189 207 129
186 204 117
192 210 143
185 206 114
188 208 117
186 206 101
181 200 104
185 204 111
183 202 108
183 201 93
182 202 89
178 197 101
176 196 52
176 195 91
181 200 89
180 202 81
181 201 59
184 204 85
175 195 76
179 199 83
176 197 89
180 200 81
180 201 65
182 202 93
179 200 65
177 198 76
181 200 95
179 200 71
176 197 71
179 200 97
178 197 71
180 199 71
179 200 76
180 200 71
176 196 76
178 200 76
176 195 0
176 196 59
178 199 76
177 197 76
178 199 81
175 196 76
181 201 108
178 198 59
178 198 71
178 199 65
177 198 52
179 200 81
181 202 81
180 201 85
177 198 71
179 199 104
179 200 76
177 198 76
178 199 71
177 197 81
181 202 71
179 201 85
178 198 65
173 193 52
175 196 71
176 197 65
174 195 52
176 197 71
179 200 93
180 200 59
175 197 81
180 201 85
176 197 81
181 202 81
179 200 71
180 201 93
172 192 71
178 199 81
179 201 101
175 197 89
179 200 93
179 199 93
178 198 59
173 193 65
179 199 65
177 198 59
178 198 65
175 196 81
174 195 59
178 199 85
177 197 65
174 195 76
176 198 76
180 200 76
177 198 85
177 198 76
176 197 71
175 196 81
178 198 71
175 196 71
171 191 52
172 193 76
176 198 76
178 199 76
175 195 59
174 194 65
177 198 76
177 198 76
176 197 76
175 197 71
170 190 59
173 194 59
179 199 89
167 188 59
175 195 65
172 192 52
175 194 93
174 195 71
176 197 97
175 195 59
173 194 89
173 193 83
169 189 76
175 196 65
171 192 101
172 193 87
175 197 103
173 193 93
175 195 93
171 191 99
178 198 109
177 196 117
174 193 97
174 193 112
160 180 43
148 167 31
159 180 31
160 180 37
162 183 43
158 179 23
162 181 48
173 193 31
174 194 43
179 199 65
177 197 65
192 209 158
174 195 0
176 197 0
174 195 0
176 196 0
176 196 0
113 135 99
59 89 98
61 92 111
62 94 122
63 95 128
63 96 124
63 95 128
61 93 108
61 93 123
63 95 122
62 94 114
65 99 127
63 95 111
64 96 122
62 94 123
64 97 126
64 97 124
61 94 114
63 96 135
64 97 123
64 96 130
62 95 117
62 94 122
62 94 114
59 90 112
64 97 129
63 96 133
62 94 111
62 95 118
60 91 121
65 98 116
66 99 129
64 97 129
63 95 119
65 98 118
62 93 121
64 98 133
61 92 114
62 93 129
62 94 130
66 100 129
66 99 138
64 97 127
61 92 121
63 95 123
64 96 120
61 93 120
63 95 126
64 96 126
64 97 131
62 95 112
61 92 121
62 95 117
61 93 125
64 97 135
61 93 119
62 94 121
62 94 113
63 95 119
60 92 116
64 96 124
61 91 117
61 92 110
62 94 124
58 88 111
61 92 118
62 94 130
62 94 129
63 94 128
65 97 128
63 95 120
62 93 109
62 93 113
61 92 119
59 89 119
59 90 115
62 93 122
59 89 111
59 89 113
63 95 121
62 94 122
60 90 113
59 89 113
62 93 117
57 86 113
59 89 121
62 92 123
58 87 105
57 84 100
60 89 115
55 83 101
57 85 93
61 90 102
55 82 102
55 81 99
53 78 88
53 78 86
110 127 71
172 192 0
174 194 0
176 197 0
175 195 0
176 195 0
122 126 43
77 76 25
80 79 25
82 80 29
79 78 26
72 71 21
75 76 18
88 87 28
69 71 22
85 83 28
75 74 17
78 76 40
79 80 38
95 94 37
93 93 36
99 97 48
101 99 50
107 105 41
109 107 43
99 99 50
100 100 41
103 102 44
109 107 61
105 105 48
114 112 55
123 119 59
121 118 48
124 120 62
110 108 55
117 116 58
123 121 55
124 119 63
132 128 52
130 127 62
137 132 65
144 137 68
133 129 62
121 118 53
129 126 64
137 134 62
136 132 56
134 130 66
135 132 64
141 138 68
135 131 62
141 137 70
141 136 58
136 133 57
146 141 69
137 133 66
144 140 67
147 143 66
135 130 62
148 142 69
146 141 64
146 141 66
145 141 66
145 140 64
148 143 67
155 149 79
151 146 70
141 137 65
150 145 77
152 146 71
154 149 76
151 145 74
158 151 74
161 155 78
155 150 70
151 146 69
149 145 60
155 150 72
151 147 70
153 148 69
153 148 67
150 146 71
156 150 74
155 148 74
159 153 75
154 149 68
153 148 71
149 146 64
153 148 74
143 137 66
159 153 73
151 145 65
159 153 80
146 141 67
153 147 74
157 152 67
153 148 71
159 153 76
153 147 67
155 149 73
153 147 76
154 148 70
159 152 75
154 149 72
155 149 77
160 154 76
163 156 75
151 144 71
153 148 74
156 151 78
153 148 78
151 147 70
155 149 77
158 153 75
153 147 72
153 146 77
158 152 82
155 149 76
150 144 76
158 152 78
150 144 70
150 145 71
156 150 78
155 149 76
160 154 74
153 147 76
157 151 73
151 145 73
154 148 74
151 145 66
152 146 70
153 146 76
146 140 69
152 147 74
156 152 74
150 144 77
155 149 74
147 142 70
152 147 71
156 150 73
143 139 69
151 144 80
153 147 72
152 146 69
153 147 72
154 147 78
151 145 69
145 139 71
149 144 74
153 147 77
154 148 73
154 149 79
186 205 123
184 204 93
183 203 104
191 209 143
187 206 125
186 205 114
187 206 123
182 202 111
182 201 114
183 203 108
184 203 120
183 204 111
181 201 101
183 203 104
180 200 91
182 202 111
182 202 97
182 203 89
182 201 101
180 201 71
183 202 97
179 198 81
175 196 73
182 201 101
174 193 52
184 202 104
179 200 81
180 201 68
181 200 83
176 196 68
176 196 65
178 199 81
180 200 89
175 195 89
179 199 73
180 201 71
177 197 71
182 202 81
179 200 59
180 200 81
178 198 52
176 197 59
178 199 93
178 198 93
180 201 76
182 202 85
176 196 81
177 198 89
177 197 71
178 199 81
179 201 71
176 197 43
179 200 93
178 200 76
181 201 93
182 203 89
178 199 71
178 199 71
175 195 76
171 192 52
177 198 71
177 198 52
180 202 81
181 202 85
179 200 71
179 200 89
177 198 71
176 198 76
176 197 97
180 201 76
180 200 97
178 199 71
179 200 81
178 198 59
179 199 81
181 202 89
173 193 81
175 197 81
176 196 85
179 201 93
179 199 65
172 193 52
180 200 76
177 198 71
175 196 59
178 200 89
177 198 65
179 201 59
175 196 71
174 195 93
175 196 93
178 200 81
175 195 71
176 198 76
176 198 65
175 197 71
176 197 52
178 197 65
178 200 76
176 197 85
176 196 71
172 194 85
178 199 81
175 195 65
179 200 71
178 199 76
172 193 81
176 196 65
177 197 59
179 200 65
173 193 71
175 195 59
175 194 81
178 198 71
175 195 76
175 197 76
174 195 85
175 195 65
171 191 81
172 193 76
173 192 89
171 192 71
170 190 89
173 193 81
169 189 81
173 192 89
171 191 81
177 198 108
171 190 104
173 194 101
175 194 101
169 188 103
169 189 93
167 186 89
153 173 23
157 175 31
156 176 31
160 180 43
160 181 38
162 183 23
170 191 0
171 192 31
172 191 65
172 193 59
188 205 138
175 194 81
171 190 0
175 195 0
177 197 0
170 189 0
177 197 0
150 172 71
64 97 117
57 87 97
61 92 108
61 93 121
61 93 111
62 94 123
63 96 127
61 92 110
62 93 115
63 96 119
62 93 118
65 98 131
62 93 114
62 94 128
60 92 114
63 95 118
65 99 123
63 95 119
62 94 116
63 95 125
64 96 122
61 92 117
63 95 121
62 94 121
60 91 110
63 96 130
63 95 127
59 90 116
61 93 115
61 92 120
60 90 112
62 94 132
64 96 128
62 95 121
60 90 108
62 94 121
64 97 131
64 96 129
62 94 113
62 93 120
64 97 120
66 100 135
61 93 113
65 98 135
61 93 113
62 93 119
62 94 124
63 94 130
63 94 122
63 95 125
62 94 119
61 93 111
61 93 120
61 91 122
60 91 124
63 95 118
60 91 128
61 92 125
63 95 124
64 96 130
63 94 121
59 89 106
61 92 113
63 95 113
64 96 128
64 96 125
64 97 123
59 89 110
62 93 108
64 97 121
61 92 118
63 95 121
63 95 130
61 92 129
61 91 118
64 96 125
63 94 122
58 89 113
60 90 111
61 90 117
58 87 100
62 92 131
61 92 111
60 90 109
59 89 121
57 86 106
61 92 114
57 85 108
57 86 104
57 85 100
57 85 112
60 89 117
56 84 103
51 76 80
54 80 92
53 77 82
154 173 41
177 197 0
178 199 0
176 197 0
176 197 0
175 195 0
152 168 30
92 89 42
100 97 38
87 84 30
90 88 34
80 79 25
75 76 27
82 81 16
93 92 33
82 83 34
81 81 30
89 88 30
85 85 33
94 94 35
83 83 33
90 89 36
99 98 44
102 99 45
101 100 40
93 93 37
104 102 48
104 103 37
112 110 48
113 111 56
116 114 52
113 110 44
112 110 46
124 121 58
122 121 55
119 117 55
126 123 56
127 125 57
130 126 64
124 122 48
115 113 55
133 131 60
126 122 58
134 131 66
132 128 53
136 132 63
126 124 58
138 134 69
138 134 67
136 132 60
146 141 71
133 129 58
138 134 70
141 137 60
143 138 70
139 135 52
145 140 58
149 143 70
141 136 67
146 141 72
151 146 60
147 142 69
139 135 61
143 139 66
158 153 73
148 142 66
147 143 64
140 136 59
156 152 66
148 142 70
150 144 67
151 145 71
152 146 71
147 141 66
150 145 66
158 152 71
150 144 68
151 146 73
157 151 75
152 147 74
148 144 57
158 152 75
155 150 68
151 146 66
158 152 74
152 145 67
148 144 62
137 133 59
154 147 77
146 141 67
154 149 75
157 150 75
159 152 81
146 140 70
153 146 63
150 144 70
153 148 71
161 155 81
153 147 73
159 153 70
152 147 76
151 145 73
157 151 83
151 146 66
149 144 66
151 145 71
154 149 69
160 154 72
144 139 68
154 148 73
153 148 72
159 153 75
147 141 71
158 152 75
151 145 71
146 142 67
165 158 79
155 150 71
155 150 80
153 148 73
155 148 79
154 148 73
162 156 81
154 147 75
154 149 76
147 140 65
150 144 78
157 151 72
150 144 72
153 147 76
155 149 79
150 143 75
150 144 74
149 145 66
154 148 79
151 145 73
147 142 66
158 152 74
147 141 71
155 149 76
153 147 74
142 138 66
141 136 64
147 141 71
152 147 76
152 144 77
146 142 70
158 151 78
148 142 75
141 136 67
147 141 76
156 150 74
185 205 104
184 203 103
185 204 104
181 201 93
191 209 141
183 202 120
188 207 133
187 207 120
181 200 89
186 205 101
187 206 117
182 201 114
180 200 99
180 199 98
185 205 101
183 202 101
182 202 78
179 200 81
182 201 93
178 199 81
178 198 95
183 202 104
181 200 85
181 201 89
178 198 52
176 197 68
182 202 93
180 200 65
177 197 52
182 203 85
179 200 93
180 200 87
177 196 59
179 199 81
181 201 89
182 203 81
182 203 93
180 200 93
178 199 76
175 196 47
177 198 89
180 200 76
178 198 85
181 201 76
178 199 81
179 200 97
176 197 97
178 198 89
177 197 43
182 203 81
180 201 85
173 194 52
175 196 59
180 202 76
177 198 65
182 203 93
177 198 85
177 199 59
176 197 52
179 200 85
177 198 76
180 201 85
181 202 81
177 197 52
178 198 89
183 204 101
176 198 71
178 200 89
178 200 85
176 196 71
178 198 65
177 198 81
180 200 52
178 199 65
175 195 59
176 197 59
173 194 85
177 198 76
179 200 101
177 198 59
180 200 52
175 197 85
176 197 81
177 198 93
173 195 59
171 192 65
175 195 76
178 200 89
178 199 71
176 197 52
178 199 71
176 198 89
178 199 65
172 193 65
177 198 81
177 198 76
171 192 59
171 193 43
176 197 59
176 197 71
176 197 76
175 195 71
174 196 81
177 197 59
176 197 89
173 194 43
179 200 65
176 197 81
175 197 76
169 189 81
178 199 76
180 201 81
164 184 81
176 196 71
176 197 81
172 192 71
169 190 76
178 198 81
175 195 65
172 194 81
176 196 81
169 189 59
173 194 101
173 192 104
168 188 81
169 190 87
171 191 97
166 187 81
169 189 103
173 194 109
174 193 109
173 192 108
161 180 95
147 166 47
150 169 23
153 174 43
157 178 23
166 186 0
160 180 31
174 195 0
168 187 0
175 196 59
175 195 31
178 198 52
186 203 133
175 195 0
177 197 0
176 196 0
174 196 0
171 191 0
175 194 0
177 197 0
84 111 106
61 92 109
63 95 126
59 90 112
61 93 111
64 96 128
63 95 114
62 94 121
61 93 127
63 95 123
63 96 121
62 95 120
61 92 114
62 94 120
61 93 110
60 92 114
62 94 116
63 96 121
61 94 117
61 94 109
63 96 123
61 93 118
61 92 116
64 96 124
62 93 114
63 96 127
64 97 128
62 94 117
62 94 115
63 95 122
63 95 116
62 94 122
64 97 123
64 97 132
63 95 127
63 95 130
62 94 119
63 96 119
62 93 125
63 96 128
63 95 129
63 95 128
61 92 119
61 92 115
63 95 122
60 91 112
63 96 121
60 91 106
60 90 115
63 95 127
65 99 126
59 89 110
62 94 125
62 93 124
62 94 126
63 96 127
60 90 118
64 96 132
60 90 121
61 92 110
63 95 123
62 94 119
60 90 108
63 94 118
65 98 133
59 89 111
62 94 120
60 90 122
61 93 113
65 98 134
61 92 113
62 94 123
61 93 118
60 91 115
61 92 111
62 93 123
63 93 118
59 89 106
58 88 104
62 93 118
59 89 110
60 90 117
64 95 124
60 91 111
61 92 108
57 86 105
59 88 105
60 90 115
57 84 100
54 81 103
58 86 111
54 82 102
55 81 100
54 81 88
56 82 92
67 85 69
170 189 11
176 197 0
172 194 0
171 191 0
175 196 0
174 195 0
177 197 0
104 108 36
82 80 32
89 88 39
70 69 15
75 74 26
71 71 21
84 83 8
70 71 25
81 80 17
74 74 25
86 86 30
87 89 33
86 86 30
101 100 41
83 82 28
83 84 36
95 94 41
98 96 46
107 106 42
102 101 47
101 102 37
102 99 46
100 99 41
115 113 53
106 103 48
111 109 49
102 100 38
122 118 55
117 114 53
120 117 42
123 120 51
125 121 61
126 123 57
130 128 59
136 131 67
135 131 67
127 124 51
127 124 59
129 126 52
130 127 60
127 125 44
126 124 56
133 130 55
142 136 57
145 140 71
153 148 68
133 129 62
138 134 59
140 136 63
135 131 55
151 146 72
131 126 56
141 136 60
145 141 71
149 144 69
144 139 60
142 138 64
139 135 61
153 147 70
143 138 65
156 150 73
150 146 70
157 152 70
147 141 66
148 143 65
149 143 71
157 152 75
155 149 75
155 149 72
150 144 66
148 142 71
152 147 65
151 146 67
147 143 66
150 147 63
150 145 73
152 146 71
154 148 71
149 144 60
156 150 71
156 149 85
151 144 71
156 150 74
151 145 70
148 143 66
149 144 63
153 147 67
156 150 74
145 141 65
147 143 63
158 152 73
143 138 60
151 146 71
149 144 71
159 153 77
157 151 77
153 146 74
160 154 82
152 145 76
154 148 72
150 144 70
157 151 74
149 145 70
151 145 70
158 152 73
149 144 71
153 147 73
157 151 77
154 148 70
156 149 75
163 157 81
149 143 70
159 152 76
150 144 73
151 145 67
157 151 71
156 150 78
151 146 70
152 147 69
157 150 79
155 149 82
157 150 75
148 142 67
142 137 64
150 144 71
152 146 75
155 149 78
158 152 78
144 139 67
145 140 66
156 149 79
141 136 64
147 140 77
146 141 67
156 150 77
155 150 78
144 140 75
149 143 74
149 143 70
147 141 65
144 140 64
141 137 60
152 145 76
154 149 75
153 148 75
182 202 93
185 205 97
188 207 120
183 202 104
186 204 123
187 204 131
186 205 117
184 203 89
181 201 108
185 204 120
182 202 97
184 203 93
181 201 76
181 201 97
180 200 106
178 198 85
175 195 65
184 204 117
182 203 101
184 203 93
179 198 85
181 201 85
176 196 52
178 198 65
174 195 95
175 195 97
179 199 65
178 199 59
182 202 85
180 201 81
178 199 65
180 200 76
180 201 59
180 200 71
178 199 52
176 198 71
177 198 73
178 198 83
178 199 76
177 198 89
182 202 101
180 200 71
179 199 81
176 197 71
178 199 71
178 199 76
181 201 85
177 198 76
178 197 71
178 199 89
176 195 59
178 199 71
177 197 65
178 199 85
172 193 76
178 199 65
178 198 65
177 198 43
176 196 65
176 196 52
176 196 76
181 202 89
180 201 89
177 197 81
178 199 71
177 198 71
176 197 71
174 195 71
176 196 71
178 199 93
182 203 85
178 199 76
177 199 93
174 195 65
177 197 76
174 194 76
175 195 52
178 201 71
178 199 65
175 194 59
174 195 59
177 198 85
175 196 89
176 198 71
177 199 59
181 202 76
176 199 85
179 200 97
179 199 89
175 197 65
169 190 71
178 199 59
177 198 52
177 198 71
177 197 65
178 199 71
175 196 89
180 200 71
174 194 81
177 197 52
177 198 76
178 199 65
178 198 81
171 193 81
180 201 76
175 195 52
178 199 52
172 193 71
175 196 89
178 198 59
174 196 65
175 196 65
175 196 93
174 195 65
171 191 89
174 194 59
172 192 71
170 191 71
168 189 89
170 190 85
180 200 85
172 192 81
176 198 117
175 196 52
175 195 81
174 196 65
178 199 118
170 191 84
175 193 111
173 192 108
172 192 85
170 189 97
156 173 81
151 171 0
154 174 0
153 173 23
159 180 0
169 188 0
168 188 0
174 194 0
171 193 31
174 195 52
174 193 43
183 203 104
187 207 123
175 195 0
178 199 0
177 199 0
178 199 0
178 198 0
176 196 0
173 193 0
138 158 64
60 92 111
62 94 118
63 95 114
62 94 124
60 91 103
63 95 120
61 93 108
62 94 117
64 97 121
60 91 115
63 95 121
61 93 112
61 93 101
61 93 114
60 91 110
63 95 116
61 92 118
64 97 114
63 95 123
61 92 119
61 92 117
66 99 127
63 95 125
62 94 126
63 96 122
62 94 111
61 93 113
61 93 121
60 90 126
63 95 123
63 95 116
62 93 128
59 89 109
61 92 113
62 95 120
61 92 121
62 94 110
61 93 114
62 94 122
62 94 121
61 92 122
63 95 132
65 98 135
63 95 109
63 94 126
61 92 114
64 96 123
61 93 122
63 95 120
61 93 103
60 92 113
61 92 115
64 96 128
62 94 122
60 91 116
63 95 112
62 94 119
62 94 124
64 97 130
61 92 122
61 92 126
63 96 126
62 94 121
64 95 124
63 95 121
61 92 104
62 93 125
62 94 125
64 96 108
63 94 130
60 91 115
64 95 116
59 88 108
61 92 121
64 96 115
62 93 115
61 92 128
60 89 117
62 93 126
58 88 107
61 91 116
59 89 117
60 90 118
58 87 106
56 83 98
56 83 88
60 88 115
59 89 110
54 81 94
55 82 96
55 83 106
53 79 85
54 81 93
51 75 71
132 150 48
174 195 0
173 193 0
178 198 0
175 196 0
177 197 0
175 196 0
176 196 0
154 170 21
89 88 21
97 93 28
82 81 30
79 77 30
83 82 26
72 72 20
91 89 37
91 90 33
73 74 28
76 75 27
83 82 26
88 88 37
84 83 31
94 93 39
74 74 41
86 86 35
103 101 44
97 96 40
104 103 52
110 107 39
108 106 33
110 109 48
93 92 25
120 116 47
115 114 57
112 108 52
114 111 51
118 116 53
116 113 46
125 122 61
123 120 58
125 122 56
125 122 52
126 123 59
128 124 56
133 129 56
116 114 52
127 122 54
132 127 57
120 116 52
128 125 59
144 140 61
134 130 55
143 139 68
147 143 69
143 139 67
141 136 62
143 138 71
135 132 60
144 139 67
140 137 55
145 140 72
137 133 59
149 144 62
146 140 64
151 145 71
141 137 64
147 142 67
148 143 68
148 144 64
149 144 63
152 147 69
158 153 74
148 143 68
144 138 67
150 146 69
144 139 67
154 148 74
156 150 75
148 143 66
148 144 63
151 145 71
156 150 72
151 145 73
148 144 66
149 143 69
145 140 67
151 145 73
151 145 71
153 148 70
144 140 66
152 147 71
149 144 57
149 143 71
153 148 66
154 149 71
157 152 76
146 141 63
148 143 68
155 148 71
161 155 83
153 148 63
158 152 73
157 151 75
157 151 69
152 146 72
158 152 78
157 152 74
156 150 69
159 152 78
148 143 67
148 143 69
158 152 74
164 158 77
154 148 71
149 143 74
156 150 66
143 138 60
157 151 79
152 146 71
152 147 70
153 148 71
154 148 75
153 147 72
145 139 69
156 149 75
150 146 71
157 151 73
149 143 70
140 136 67
150 145 74
150 144 69
153 147 69
151 145 72
150 146 71
158 151 73
158 151 75
152 147 70
149 142 74
148 142 69
148 144 67
149 144 71
143 137 65
137 133 57
152 146 72
146 139 75
148 143 66
144 139 72
148 142 75
148 142 72
144 138 61
143 137 72
147 142 75
145 140 66
176 195 71
183 202 85
184 204 89
186 206 111
180 200 97
184 204 115
189 209 131
184 203 117
180 200 104
186 205 111
188 207 124
178 199 85
182 201 97
183 202 112
180 199 89
183 202 108
182 202 97
182 202 97
179 199 85
182 202 104
180 201 89
178 199 71
180 199 91
182 203 85
177 197 71
177 197 91
179 199 78
179 200 71
180 201 81
179 200 97
174 194 65
176 196 85
179 200 83
177 197 52
179 200 81
180 201 81
175 195 89
182 203 97
180 200 93
180 201 81
177 198 81
178 198 85
179 200 81
180 201 81
180 200 65
180 201 81
178 199 59
174 194 65
178 198 65
177 198 85
179 200 76
178 200 76
179 200 76
178 198 85
179 200 52
179 200 93
175 195 65
177 198 65
177 198 81
179 199 81
178 199 76
177 199 59
178 199 52
178 198 65
175 196 76
178 200 65
177 199 52
177 197 89
177 198 89
178 200 76
178 199 52
179 200 81
179 200 76
174 195 71
179 201 85
178 200 104
174 194 71
178 198 65
180 201 85
176 196 71
176 197 89
177 198 59
174 195 65
178 198 52
171 193 65
173 193 59
175 196 76
178 199 76
177 198 81
177 198 81
172 193 76
176 197 71
177 198 85
176 198 71
175 196 76
175 196 59
174 195 71
174 195 59
173 194 76
175 195 31
175 196 71
178 200 52
176 199 76
175 195 65
177 197 76
171 192 65
173 194 52
177 199 89
179 199 101
172 192 52
177 198 65
174 195 65
173 195 71
176 197 76
169 189 85
170 190 71
173 195 89
181 202 89
164 184 85
174 195 81
169 189 65
169 189 71
171 192 85
175 196 85
170 191 76
176 195 97
171 191 101
172 192 89
168 187 108
174 193 109
167 187 76
163 181 93
150 169 0
155 174 0
151 171 23
158 177 0
161 181 0
163 183 31
162 182 0
172 192 0
174 194 59
174 194 59
174 196 0
184 202 128
172 193 31
174 195 0
175 197 0
175 195 0
172 193 0
175 195 0
176 196 0
175 195 0
173 193 23
70 100 123
63 95 121
62 94 119
61 93 116
63 96 125
61 93 112
62 93 116
62 94 114
60 91 103
64 97 126
60 91 108
63 95 119
63 95 123
64 98 123
60 91 112
63 95 117
63 96 119
63 96 126
62 94 112
61 92 118
61 93 112
63 95 118
65 98 124
61 93 109
61 93 111
61 93 124
62 94 122
61 92 130
62 94 126
64 97 116
62 94 120
60 91 99
63 95 123
64 96 131
62 94 124
63 96 120
63 96 124
61 92 107
64 97 126
64 96 120
63 96 120
65 98 125
63 95 123
63 94 129
62 94 119
64 96 123
62 94 117
60 92 110
61 93 117
63 96 117
61 92 117
60 91 119
61 92 115
62 94 117
61 92 123
62 94 120
64 97 129
60 91 113
61 92 124
63 95 125
65 98 119
61 93 115
62 94 108
60 91 110
57 86 97
62 94 113
60 90 112
61 93 117
64 95 126
64 96 119
59 90 110
59 88 108
60 90 113
60 90 115
59 89 115
62 93 114
61 93 121
60 91 111
61 91 105
60 90 108
59 89 113
60 90 117
57 85 96
57 85 104
57 84 106
57 87 107
59 89 105
59 89 102
53 79 90
56 84 90
54 81 91
52 78 89
52 77 89
55 77 81
170 190 31
172 193 0
176 196 0
177 197 0
172 192 0
174 195 0
174 194 0
175 195 0
178 197 15
107 108 39
82 81 30
77 74 25
79 78 22
74 73 23
79 76 29
82 82 16
89 86 26
78 77 22
97 95 36
91 88 27
87 86 32
82 81 19
89 90 41
99 96 39
102 100 33
95 94 32
106 105 43
118 115 54
105 104 43
111 109 36
104 102 43
108 105 44
113 111 46
115 111 53
106 104 41
126 122 58
133 128 63
123 120 47
123 121 50
125 121 49
124 123 52
128 125 57
128 124 59
132 128 61
136 131 57
139 135 52
133 129 58
133 129 56
128 124 57
134 130 65
143 138 66
142 138 62
140 137 60
134 129 65
146 141 62
135 131 61
134 130 61
144 139 57
141 135 63
146 142 65
143 139 64
141 137 63
148 143 67
142 137 61
140 136 63
142 138 61
147 141 66
147 142 70
146 143 55
145 140 65
139 135 62
143 139 59
145 141 65
142 137 61
155 150 71
149 144 67
146 140 61
141 136 62
150 144 74
156 150 70
144 139 66
150 144 74
145 140 60
159 153 71
147 142 67
155 149 64
144 138 66
153 148 71
148 142 60
143 139 61
163 156 74
152 147 61
158 152 81
148 144 65
156 151 70
150 145 61
160 153 73
151 145 73
149 144 67
152 146 73
148 143 66
153 147 71
157 151 72
154 148 69
143 138 62
153 148 72
155 150 71
151 146 61
152 146 71
150 145 60
151 145 70
149 143 75
148 141 69
157 150 75
150 145 69
147 142 62
154 149 71
162 155 79
151 144 72
153 147 73
154 149 72
148 143 64
153 147 73
145 140 60
151 145 70
154 148 69
159 153 75
153 148 76
152 147 76
152 146 73
152 148 74
150 144 75
149 144 70
146 141 69
150 144 73
157 151 77
149 143 63
158 151 76
152 147 78
153 147 71
155 150 71
146 142 61
148 142 65
144 139 67
149 144 67
147 142 66
154 148 74
147 140 72
146 140 69
152 145 70
155 149 76
154 149 76
145 140 71
175 195 0
181 200 89
178 198 89
189 208 141
182 201 91
181 201 85
183 203 118
187 206 114
186 205 128
186 205 120
189 207 125
182 201 108
182 201 101
180 198 104
179 199 85
181 200 101
184 204 120
180 201 81
182 202 81
179 200 76
178 197 89
178 198 81
183 204 81
175 196 85
179 199 93
181 201 93
181 201 95
180 201 81
181 201 71
178 199 62
177 198 78
178 199 59
177 198 71
179 200 65
177 197 59
177 197 62
180 202 93
181 202 97
178 198 83
176 196 52
179 199 65
175 197 65
175 196 76
182 202 76
175 196 76
179 199 101
176 196 59
178 198 89
178 198 65
177 197 76
182 203 76
180 200 65
180 201 81
179 199 71
176 197 76
177 198 89
178 199 89
177 198 59
177 197 65
177 199 85
178 199 97
177 198 59
179 201 97
180 201 85
178 198 52
179 200 76
175 196 65
179 200 76
176 197 71
177 198 71
176 197 59
174 195 71
174 195 76
173 195 76
180 201 85
176 197 59
179 200 52
178 199 65
177 198 71
174 195 76
174 195 85
175 195 31
174 194 81
175 196 71
177 198 71
177 199 71
174 196 71
175 196 76
177 199 65
175 196 85
178 199 76
176 198 97
178 199 76
173 193 43
176 198 76
178 201 104
173 195 81
177 198 71
177 198 59
177 199 85
176 197 85
176 198 76
177 198 71
177 197 59
176 198 76
173 195 93
174 195 43
173 194 93
173 193 59
172 192 81
175 196 71
176 197 52
174 194 76
166 186 71
175 198 76
177 198 65
170 192 59
177 198 101
171 191 76
173 194 76
174 194 76
173 193 101
174 193 85
171 191 89
175 195 93
171 191 85
183 202 125
173 192 89
170 190 81
163 183 71
156 176 76
154 173 0
157 177 0
152 171 0
161 180 0
157 176 0
163 183 0
158 177 0
168 189 0
167 186 31
173 193 52
171 192 52
183 202 117
180 199 93
176 197 0
172 192 0
172 193 0
173 194 0
174 195 0
174 195 0
171 193 0
169 189 0
171 192 0
116 138 74
62 94 112
63 96 122
60 91 111
64 96 121
61 93 119
58 88 90
61 92 108
61 93 120
61 93 111
62 94 122
64 97 121
64 97 111
63 94 121
63 95 124
59 90 106
64 97 120
64 97 125
65 98 127
59 90 109
60 91 114
60 92 122
62 94 115
66 100 137
64 96 126
59 90 109
61 93 118
64 97 123
64 97 129
60 92 114
63 95 125
61 93 116
64 97 122
63 95 124
62 94 113
61 93 109
62 95 130
59 90 116
62 95 118
61 93 120
64 97 128
63 94 119
63 95 115
64 97 118
62 94 112
62 93 117
65 99 127
64 97 135
64 97 120
62 94 103
61 93 120
59 89 114
63 95 125
61 92 115
62 94 120
60 91 107
64 97 122
60 92 101
63 95 122
64 96 133
63 96 115
63 94 126
62 94 121
60 91 112
62 93 122
59 90 113
61 92 132
60 91 110
62 94 124
61 92 112
60 91 121
61 93 110
60 91 111
61 91 122
63 95 120
61 92 119
59 89 109
62 93 117
60 90 114
62 93 119
61 90 109
62 94 118
60 89 117
56 84 109
60 90 113
58 88 109
56 85 97
58 85 109
55 82 95
55 81 98
52 78 91
53 80 88
52 76 82
117 136 58
169 188 0
170 190 0
175 194 0
175 196 0
177 197 0
172 193 0
173 192 0
175 195 0
175 196 0
152 168 20
103 100 39
92 90 42
91 88 29
73 72 23
83 82 31
70 71 29
74 73 7
83 84 23
90 90 28
75 74 27
95 93 33
99 97 37
86 85 34
96 95 30
91 89 31
89 87 26
107 105 47
106 104 30
85 86 36
96 95 37
105 102 40
114 112 43
110 108 47
110 107 47
108 104 43
111 109 36
113 110 54
112 108 42
133 129 66
120 118 43
131 127 55
134 130 57
130 126 56
125 120 57
118 116 45
131 127 49
132 128 58
128 126 52
128 125 49
142 137 56
138 133 63
134 130 57
136 132 58
132 128 61
143 139 69
145 141 64
133 129 53
145 141 63
132 128 57
134 130 56
138 134 58
138 134 59
146 141 56
138 134 59
152 146 72
148 143 60
139 135 50
142 137 55
145 140 67
150 146 64
143 138 65
151 146 65
147 143 63
149 145 56
154 149 68
144 138 59
147 141 60
151 147 56
147 143 61
150 144 70
150 144 71
139 134 60
155 149 75
144 139 62
158 152 71
156 151 73
149 144 69
150 144 67
148 144 63
147 142 59
152 145 71
155 149 76
154 149 67
157 151 67
142 137 63
153 147 67
154 147 72
154 147 74
152 146 63
162 155 75
147 141 69
147 141 67
154 148 71
146 141 70
157 152 75
148 143 71
151 145 70
147 142 66
139 134 63
153 148 63
154 149 72
153 147 74
152 147 68
158 151 84
149 143 70
152 146 76
157 151 70
154 149 70
146 140 73
150 145 63
151 144 79
150 144 73
147 141 71
147 141 70
151 145 71
159 154 75
146 141 64
149 142 63
153 147 74
149 145 63
151 145 73
145 139 66
147 142 60
147 142 61
151 146 72
155 149 75
148 140 71
146 141 63
146 141 63
156 150 79
150 145 72
148 141 75
156 149 81
148 142 70
143 138 67
142 136 66
155 149 79
145 141 63
143 138 67
145 140 64
143 139 60
150 145 73
145 139 66
174 195 0
176 196 0
181 201 76
182 202 81
186 205 124
182 201 97
184 203 97
185 203 114
184 202 128
188 206 133
186 205 123
177 196 104
178 198 87
184 204 97
182 201 111
187 207 120
182 202 93
182 203 108
185 205 101
177 197 95
178 198 71
183 204 103
179 200 81
180 200 68
179 199 76
179 200 59
179 200 71
177 197 65
179 200 91
180 200 93
179 198 71
179 199 91
174 194 76
178 198 81
180 201 76
178 197 76
178 199 89
178 199 73
179 200 65
178 199 76
180 201 85
176 197 71
179 199 93
179 200 43
178 199 52
176 197 76
181 203 97
175 197 76
176 197 59
176 197 97
175 195 59
173 193 65
180 200 76
177 197 85
180 201 71
176 197 76
179 199 52
180 201 81
174 194 43
177 197 76
177 198 85
176 197 65
176 198 76
175 197 85
176 197 71
172 194 89
178 200 81
172 192 52
180 201 97
177 196 89
180 202 89
177 198 71
179 200 59
176 197 71
173 194 43
178 199 65
175 196 65
176 198 85
174 196 89
173 194 59
176 198 85
178 199 52
176 196 65
174 195 65
174 194 52
174 195 59
174 196 85
172 193 81
173 195 76
177 198 65
174 195 59
179 201 81
175 196 52
174 197 59
176 198 59
175 196 81
174 194 59
176 197 59
172 194 76
174 195 85
175 196 59
177 199 97
176 198 81
174 195 71
174 194 52
166 188 65
174 194 59
175 196 71
175 197 76
178 199 97
172 192 65
175 197 101
178 199 52
172 192 85
172 194 81
174 195 76
175 196 85
169 189 71
173 193 71
173 193 71
175 194 89
170 190 89
165 185 89
164 183 71
174 193 97
171 191 85
176 195 101
175 194 114
165 185 81
173 192 93
141 159 0
150 170 0
154 173 0
154 175 0
156 175 0
160 179 0
163 183 0
164 184 0
170 191 0
167 187 52
175 195 43
174 194 43
187 205 143
177 196 31
177 197 0
174 195 0
176 197 0
170 190 0
175 196 0
173 194 0
175 196 0
173 193 0
173 194 0
161 182 43
62 92 105
62 94 105
60 92 112
61 93 108
62 94 116
62 94 122
58 88 94
64 96 115
62 94 117
64 97 130
62 94 120
59 89 99
65 97 122
62 94 123
61 93 111
63 95 117
58 89 101
62 94 109
60 91 102
60 91 100
62 93 110
62 95 114
62 94 120
60 91 106
62 94 124
61 93 114
63 95 115
62 94 125
63 96 112
64 97 121
61 92 127
61 93 108
64 96 116
62 94 121
62 93 112
61 93 116
61 93 122
63 95 122
60 91 106
59 91 112
61 92 123
62 95 117
63 96 125
60 90 110
64 97 118
63 95 116
62 94 110
63 94 120
61 93 96
61 93 117
62 93 127
60 90 109
61 93 109
64 97 126
59 90 105
61 92 112
61 91 119
61 93 110
60 91 109
61 92 117
61 92 118
59 90 112
61 92 107
61 92 107
62 93 118
60 91 106
58 88 109
60 91 118
61 92 121
60 90 102
60 90 113
63 94 122
59 88 108
59 90 106
60 89 114
56 84 101
59 90 110
59 89 109
59 88 105
61 92 113
59 88 108
57 87 101
55 83 89
54 81 94
54 81 89
56 84 95
56 84 99
54 80 94
55 83 89
52 79 93
50 75 96
57 79 71
162 183 26
175 195 0
169 189 0
176 195 0
169 189 0
178 198 0
174 194 0
170 190 0
173 194 0
174 195 0
175 195 0
128 134 45
88 86 35
96 92 36
83 80 20
87 85 27
86 85 16
82 81 28
83 82 17
82 82 30
85 84 26
98 96 33
95 92 25
101 98 35
105 101 44
95 93 40
93 92 35
100 97 34
109 108 44
104 102 43
110 106 40
95 93 40
112 111 46
105 104 44
115 113 49
125 122 48
121 118 55
124 121 55
119 116 45
124 120 57
128 124 46
114 112 40
130 125 50
140 135 59
120 117 53
118 115 45
133 129 55
125 123 52
134 131 53
140 135 58
131 129 61
132 128 55
129 126 55
135 130 61
136 132 63
137 133 57
128 124 40
134 131 53
143 138 69
138 133 60
146 141 65
135 131 60
140 136 57
143 139 63
145 140 59
150 144 70
154 147 71
147 143 58
141 137 64
142 137 69
148 142 66
148 143 65
149 144 59
154 147 69
147 142 61
142 137 57
147 142 56
143 137 57
143 138 66
147 142 68
153 147 66
157 149 77
147 141 64
152 147 59
156 150 73
152 147 67
151 144 67
145 140 64
147 142 59
148 142 66
148 142 70
151 145 65
145 141 59
151 146 70
140 136 65
155 149 66
148 143 65
148 142 67
152 146 71
154 149 63
154 148 66
155 149 77
143 137 67
150 144 70
156 149 65
160 155 76
150 145 60
150 144 66
151 145 63
143 139 65
149 144 70
155 150 70
164 157 82
152 146 66
153 147 74
156 150 73
148 143 63
146 140 66
147 142 66
152 146 73
149 143 70
151 145 66
158 152 74
147 140 69
146 141 66
146 141 65
148 142 67
152 146 71
152 147 66
145 140 61
150 143 72
137 132 56
158 152 74
151 145 59
145 141 64
146 140 65
150 144 72
150 145 69
151 146 70
142 137 56
150 144 63
146 141 65
145 139 75
154 148 80
147 140 66
148 142 64
149 144 64
143 138 63
154 147 73
147 142 71
136 130 66
146 140 73
147 140 75
145 140 70
175 196 0
176 197 0
173 194 52
180 200 89
183 201 101
183 202 104
183 202 108
182 202 89
183 203 108
183 202 114
187 206 125
187 206 114
179 198 81
183 203 101
186 205 125
182 201 89
180 200 95
181 201 89
181 201 89
178 199 76
183 203 101
180 199 89
181 201 89
174 195 89
178 199 85
181 202 97
179 199 71
177 197 68
185 205 93
181 201 99
180 202 76
179 200 59
179 201 81
180 201 76
180 199 78
175 196 85
179 200 81
180 201 89
177 198 73
179 199 81
179 200 93
177 197 59
179 199 59
178 199 81
176 196 71
177 199 76
179 200 89
179 200 89
177 199 71
178 199 81
176 197 93
176 197 76
176 195 76
180 201 81
175 196 81
177 198 89
175 197 65
174 195 71
177 198 89
179 199 59
173 194 59
176 197 71
177 198 65
175 196 76
177 198 81
177 198 65
177 198 71
174 195 65
176 198 97
175 196 76
176 197 85
175 197 65
180 200 59
177 197 71
179 200 65
174 196 52
177 199 81
172 192 59
174 196 71
177 197 71
177 200 71
176 197 85
175 196 76
177 199 85
176 197 76
178 199 76
172 193 81
174 196 71
177 198 85
176 197 81
177 198 65
172 192 81
175 197 97
171 192 65
178 198 81
176 198 76
171 191 59
176 197 65
173 195 85
177 200 81
171 192 71
173 194 71
169 190 43
175 196 85
175 195 71
173 193 59
175 197 81
171 191 85
176 197 65
172 193 101
169 189 65
167 188 59
176 197 85
176 197 81
174 195 59
166 187 76
174 194 93
168 189 81
171 191 81
174 194 65
175 196 108
175 196 101
175 195 108
176 196 97
171 191 85
168 188 93
175 195 93
167 188 89
168 187 89
146 164 59
145 163 0
148 168 0
147 166 0
165 185 0
166 185 0
163 183 31
162 182 31
167 187 0
167 188 43
172 192 43
177 197 31
177 195 104
177 196 71
175 196 0
175 195 0
175 196 0
176 198 0
175 196 0
174 194 0
177 198 0
170 191 0
169 191 0
171 192 0
177 198 0
111 133 78
58 89 105
58 89 108
63 95 120
62 94 117
64 96 129
61 93 103
59 90 106
62 94 119
61 93 116
62 95 116
63 96 126
64 96 121
62 94 116
61 92 113
59 90 118
59 90 99
60 92 105
62 95 116
63 95 116
60 91 106
61 93 110
62 94 118
64 97 125
62 95 116
62 94 105
65 98 120
65 97 124
60 91 119
63 95 115
62 93 111
60 92 121
63 96 125
62 94 116
63 96 122
60 92 114
62 94 128
60 92 106
65 98 137
63 95 121
61 93 112
62 93 117
63 95 123
63 95 115
63 95 123
63 95 118
60 91 109
61 93 118
62 94 125
61 92 121
61 93 117
63 95 122
65 98 128
64 96 119
64 97 122
62 93 120
60 90 111
63 96 120
61 92 108
60 90 123
62 93 121
64 96 124
62 93 116
59 89 105
60 91 111
61 93 112
59 89 112
61 91 115
58 88 103
60 91 112
62 93 120
59 88 100
61 93 116
61 93 121
58 87 113
58 88 105
58 87 105
64 95 125
61 92 111
56 85 104
59 87 99
60 89 108
58 87 92
57 86 102
59 88 109
58 87 114
59 88 109
57 85 102
54 80 90
57 84 97
49 74 85
113 131 59
167 187 0
173 192 0
173 193 0
174 193 0
175 195 0
174 193 0
175 195 0
176 197 0
176 196 0
173 194 0
169 190 0
165 182 20
101 97 39
92 88 34
90 88 13
79 76 25
83 80 27
81 79 28
81 81 19
95 93 36
96 95 25
86 84 23
92 88 21
85 85 30
99 97 34
94 93 32
98 96 34
93 92 34
91 90 39
97 96 40
96 95 40
95 95 37
110 107 48
112 109 45
123 120 58
112 109 49
125 122 40
103 102 39
112 110 45
116 113 54
131 126 55
125 122 50
119 116 51
120 117 52
116 114 51
129 127 55
129 126 48
133 130 59
129 126 56
134 129 49
132 128 59
132 128 49
137 132 57
146 141 62
133 128 61
139 134 63
135 130 53
143 138 62
131 127 48
144 139 64
145 140 64
140 134 56
135 130 63
143 138 58
141 137 63
148 144 64
148 142 59
148 143 64
139 133 53
142 137 60
143 139 62
150 145 66
142 138 56
151 145 69
144 139 66
151 146 63
136 132 52
140 135 56
153 147 67
150 144 66
146 140 61
151 145 72
147 142 63
136 132 60
151 146 69
144 140 66
142 137 59
142 137 59
142 136 63
156 151 67
155 149 66
154 147 66
152 147 65
149 143 65
150 144 65
162 155 77
155 149 65
148 142 72
160 153 73
150 145 70
155 149 75
150 145 61
149 144 63
158 151 71
152 146 67
151 146 64
157 152 70
152 145 69
153 148 72
144 140 67
150 145 68
152 146 63
150 144 70
157 150 71
154 148 70
143 138 56
149 144 65
142 136 64
150 145 67
153 147 67
149 144 69
149 142 69
157 151 70
145 139 64
141 135 55
151 146 67
150 144 74
149 143 65
148 141 77
150 145 66
152 146 66
147 142 59
145 140 69
147 142 69
157 151 73
147 143 60
146 140 67
151 145 67
150 145 70
157 152 78
151 144 73
146 142 70
139 135 66
150 144 69
146 141 65
145 140 59
149 143 64
143 137 66
148 142 71
133 128 59
149 142 72
147 141 73
141 136 57
150 144 67
175 195 0
178 198 0
175 196 0
179 200 52
181 200 104
186 204 111
184 203 114
185 205 93
180 199 85
182 203 97
193 211 150
185 205 120
183 202 104
186 204 136
183 202 120
182 201 101
184 204 114
182 202 101
181 201 89
181 201 93
180 201 89
178 197 85
178 198 76
177 198 59
181 201 71
180 202 89
178 198 65
181 202 81
177 198 81
179 201 93
177 198 65
177 197 68
178 200 52
180 201 89
179 199 71
179 199 59
177 196 59
175 195 71
173 193 59
176 196 43
180 201 76
177 198 89
178 199 52
177 198 81
176 197 81
181 203 85
179 200 85
180 202 89
181 201 71
175 195 52
181 202 108
173 194 71
176 197 59
178 198 71
177 199 89
176 197 59
174 195 81
175 196 101
176 197 65
180 201 59
172 194 65
179 201 85
178 198 65
180 201 97
175 195 59
173 194 81
178 199 65
177 198 65
174 194 59
177 198 59
175 197 85
176 198 71
174 195 52
171 192 31
173 195 65
172 192 76
174 194 59
177 197 76
178 199 76
169 190 71
175 196 65
178 198 76
175 197 93
172 193 71
177 199 76
172 193 81
173 195 71
174 195 52
174 196 52
174 195 59
170 191 59
176 198 76
173 194 59
170 191 59
177 198 71
177 197 65
176 198 97
176 198 71
178 199 85
172 194 81
171 191 59
178 198 59
171 192 59
175 195 52
180 201 81
179 200 76
175 196 85
175 196 71
172 193 81
178 199 89
174 196 76
168 188 65
174 195 81
175 196 101
174 194 65
171 192 97
172 193 71
168 188 76
173 194 89
173 192 81
169 190 97
179 198 89
170 189 81
177 197 111
172 191 120
172 192 111
169 188 93
168 188 76
153 172 71
159 179 0
151 169 0
163 182 0
163 183 0
167 187 0
168 188 31
157 177 0
162 183 0
166 185 0
176 195 76
170 191 31
178 199 65
183 202 120
171 192 0
176 198 0
174 195 0
176 197 0
175 195 0
176 196 0
168 188 0
168 188 0
172 193 0
171 191 0
176 196 0
176 196 0
160 180 25
61 92 103
61 93 103
62 93 114
63 94 120
59 89 107
61 92 111
60 91 122
61 92 114
62 94 114
59 90 100
58 89 102
60 92 103
62 95 117
61 92 107
62 93 104
59 90 113
64 96 121
56 85 96
62 94 113
58 88 108
61 92 112
61 92 112
63 95 122
63 96 122
63 96 114
62 94 117
64 97 119
64 97 122
62 94 113
60 91 113
61 92 113
62 93 111
61 93 113
61 93 109
60 91 120
61 93 110
63 95 116
62 95 116
63 95 117
62 92 114
64 97 118
60 92 107
63 94 119
61 93 116
60 90 113
65 97 132
61 92 112
60 90 117
60 91 110
64 96 132
59 89 97
64 96 123
60 92 117
62 93 118
59 88 112
61 93 119
62 94 114
61 92 115
59 90 112
61 92 118
57 87 106
61 92 119
56 85 96
59 90 104
59 89 107
56 85 110
59 90 104
61 91 115
59 90 105
59 89 97
55 84 95
63 94 121
57 86 108
59 89 111
60 90 110
62 92 106
56 84 102
57 86 98
59 89 113
58 87 111
57 86 108
60 90 109
58 86 99
57 86 94
56 84 100
56 84 94
60 89 109
53 79 94
55 81 76
55 78 75
162 182 23
173 193 0
172 192 0
166 186 0
173 193 0
172 192 0
170 190 0
173 193 0
172 192 0
170 190 0
167 186 0
176 195 0
173 193 0
131 141 25
87 85 29
88 85 25
92 88 27
90 88 23
98 96 28
80 77 20
77 75 18
93 91 21
86 85 28
93 91 12
96 96 39
98 97 29
80 81 21
98 97 34
107 105 40
89 89 28
97 96 25
114 112 40
102 100 28
102 101 42
104 100 31
97 96 30
110 107 34
123 119 48
114 112 37
109 107 48
117 115 46
129 126 44
122 118 47
126 123 50
120 117 49
117 113 31
134 132 59
120 117 54
126 123 54
130 125 52
128 124 61
134 131 60
135 130 63
126 121 50
130 126 47
135 131 58
142 138 58
132 128 58
136 133 57
137 132 63
141 135 61
146 141 59
144 139 60
136 132 59
149 142 66
141 135 60
144 140 59
134 129 49
145 140 65
132 128 42
149 143 64
140 135 63
139 134 63
146 141 63
138 134 56
142 137 59
143 139 61
148 144 58
150 144 68
148 144 56
147 142 68
146 141 65
148 143 50
150 146 65
144 139 57
149 144 63
146 140 63
144 139 70
156 149 71
147 141 60
144 138 66
147 143 63
153 146 70
148 142 65
151 146 65
150 144 69
151 144 67
150 144 72
149 143 61
147 143 65
154 148 71
148 143 69
139 135 61
152 147 73
142 137 56
149 143 59
149 144 74
147 141 66
150 144 70
153 147 70
151 146 59
155 149 71
151 145 70
150 143 66
153 147 71
151 146 71
150 145 66
154 147 74
147 141 63
151 146 72
147 141 65
151 145 70
149 144 60
141 136 59
157 151 73
150 146 69
158 151 71
146 140 67
160 153 77
140 134 64
152 147 69
144 139 66
147 142 66
147 141 64
145 140 65
148 141 72
149 145 59
150 145 70
148 143 70
143 137 71
152 145 65
138 134 56
157 151 80
145 140 64
141 135 66
150 144 69
145 139 67
146 140 67
144 138 60
151 145 73
135 131 57
150 143 70
144 138 70
144 139 70
146 141 71
176 197 0
177 198 0
169 190 0
172 193 0
179 200 71
183 203 93
180 200 99
180 200 111
183 203 89
182 203 85
183 203 108
185 204 117
188 207 131
181 200 97
180 199 108
182 202 97
188 207 120
177 197 93
179 200 85
178 198 85
182 203 101
180 200 85
178 199 76
178 198 104
176 196 97
181 201 93
181 201 65
176 195 89
178 199 101
177 197 71
182 202 89
181 201 97
179 199 81
176 196 85
177 197 76
179 200 78
177 197 81
175 196 65
180 201 76
178 197 85
177 197 89
171 191 59
179 200 71
177 198 52
177 198 65
181 201 93
179 199 71
179 200 85
176 197 59
178 199 101
173 193 65
177 197 43
178 200 93
178 200 76
176 198 93
173 195 71
176 196 93
177 198 76
179 200 71
173 193 76
177 196 43
177 199 52
175 197 65
173 194 65
180 201 81
177 197 52
175 196 76
176 196 52
178 199 59
175 197 65
176 197 59
177 198 65
172 194 59
178 199 65
175 195 65
176 197 65
176 197 85
174 194 52
176 197 71
176 198 89
173 194 59
178 200 65
177 197 71
175 195 65
173 194 76
178 199 89
175 197 76
174 196 65
177 199 81
173 194 71
176 198 76
174 195 65
176 197 52
177 199 104
173 196 71
172 193 76
171 192 59
174 196 59
176 198 52
172 194 65
176 197 65
172 192 81
173 194 76
172 193 31
175 196 76
173 194 85
173 194 71
174 196 76
176 197 52
177 197 81
175 196 65
175 196 89
175 196 97
178 199 101
174 195 76
174 194 65
175 195 76
172 191 76
177 196 71
178 198 101
175 194 104
170 190 108
174 192 97
179 199 125
177 195 123
166 185 76
164 184 93
158 179 52
150 169 0
162 181 0
151 169 0
158 177 0
158 177 0
163 183 31
164 185 31
162 182 0
165 186 0
173 194 31
173 193 52
171 190 52
182 200 120
174 195 0
171 191 0
170 191 0
173 194 0
173 194 0
172 192 0
172 192 0
169 190 0
165 185 0
171 191 0
174 195 0
174 195 0
172 193 0
176 196 0
131 152 73
61 93 107
61 93 108
60 90 99
59 89 104
60 91 107
62 94 101
61 93 108
62 94 115
59 90 109
61 93 110
61 92 102
60 91 110
58 88 116
58 87 100
63 95 117
62 93 112
61 94 109
61 94 105
61 93 120
60 91 110
59 90 104
61 92 117
62 93 126
58 89 107
62 94 111
62 94 122
61 93 109
61 92 101
62 95 115
62 93 119
62 94 103
63 95 126
63 95 121
61 92 118
62 94 116
60 92 110
62 94 112
62 94 122
62 93 113
63 94 122
60 91 117
59 90 107
63 95 123
63 94 127
61 92 108
61 93 114
62 93 101
61 93 116
60 91 98
61 92 106
60 91 110
62 93 119
63 94 119
60 90 108
61 92 115
61 93 115
60 89 114
60 91 105
61 92 117
61 93 113
61 92 115
60 90 108
60 92 115
63 95 116
61 92 111
61 93 121
57 87 102
61 92 123
61 92 117
60 90 112
62 94 125
60 90 105
61 91 117
58 87 102
60 90 115
56 85 113
57 85 93
59 89 113
55 83 94
60 90 105
56 84 101
56 83 104
57 85 103
56 84 102
53 79 97
55 81 99
55 81 95
54 80 89
114 134 45
170 188 0
172 190 0
172 193 0
168 187 0
169 190 0
168 190 0
168 187 0
173 193 0
174 195 0
170 190 0
173 192 0
172 190 0
173 192 0
168 187 11
110 110 38
99 97 35
85 84 26
79 78 28
92 90 31
76 74 11
90 88 22
82 81 16
76 76 27
98 96 27
84 82 25
91 90 32
103 100 38
94 93 33
96 93 32
96 94 36
107 103 41
107 104 40
98 97 28
107 105 34
122 117 37
102 100 29
120 116 55
112 109 49
118 115 46
112 109 40
125 121 45
122 118 51
123 119 48
121 118 44
125 121 57
127 122 53
127 124 45
136 131 53
117 113 46
130 126 55
140 134 55
123 120 47
126 122 51
124 120 48
132 127 54
138 132 62
134 128 49
133 130 47
135 130 52
141 137 62
137 132 52
139 135 58
140 135 51
144 138 54
136 130 49
139 135 53
137 133 58
137 133 52
136 131 59
143 137 57
141 137 58
133 129 54
146 140 64
141 136 52
145 139 71
140 135 55
147 143 71
139 134 60
141 137 60
140 136 57
151 146 67
150 145 56
149 143 64
141 137 61
151 145 64
141 135 61
150 143 69
139 134 57
148 144 67
146 141 57
154 148 75
144 139 60
142 137 64
146 142 60
153 147 71
148 142 67
145 140 66
136 130 59
149 143 60
150 144 55
150 145 66
147 142 61
148 142 67
158 150 77
149 144 67
147 141 57
149 143 64
151 145 64
150 144 64
151 145 64
159 154 73
147 141 67
145 139 63
149 144 61
147 142 71
147 141 67
144 139 56
149 144 66
145 139 70
154 148 73
148 142 60
152 146 72
145 139 69
150 145 63
149 143 65
148 143 65
146 141 61
145 139 60
151 146 71
144 140 63
142 136 59
148 141 64
151 146 69
149 144 63
147 142 64
153 147 66
145 141 61
144 138 64
144 139 57
150 143 69
150 143 71
148 142 64
152 146 70
148 143 64
149 143 70
146 141 69
148 142 65
150 145 70
139 134 65
144 139 60
145 140 64
152 146 72
148 142 65
149 144 74
146 141 70
174 195 0
174 195 0
173 194 0
176 196 0
176 196 0
180 200 81
182 202 97
182 202 111
183 202 97
184 203 111
181 200 97
182 201 104
189 208 125
184 203 89
181 202 95
184 203 97
182 201 101
179 199 101
184 203 85
183 202 108
183 203 101
179 199 85
182 202 71
184 204 97
178 199 85
180 200 93
181 201 97
181 200 101
182 203 97
176 197 65
178 198 59
183 204 101
173 194 52
179 199 101
177 198 73
179 200 97
178 199 89
179 199 59
181 201 93
179 200 81
177 197 85
180 200 81
177 197 76
176 197 71
174 194 89
177 198 81
178 198 76
180 200 85
175 196 89
177 197 85
176 196 59
176 198 85
180 199 71
176 196 59
177 197 81
169 189 65
175 197 89
177 198 89
176 197 93
176 197 65
170 191 59
174 196 76
177 197 52
179 200 81
178 200 89
175 197 76
179 200 89
178 198 76
173 194 65
176 198 71
177 199 81
175 197 76
179 200 65
177 198 85
176 197 93
177 197 43
173 195 81
176 198 71
172 193 71
178 199 71
177 199 76
172 193 65
176 198 76
177 198 101
178 199 65
179 200 59
175 197 81
178 199 76
175 196 65
176 198 89
170 191 65
172 193 71
174 194 81
177 198 81
177 198 59
179 199 71
174 195 71
171 193 65
176 197 43
173 194 59
172 192 76
175 196 93
178 199 93
173 194 81
174 195 85
174 195 76
168 189 85
169 189 71
172 193 71
172 194 85
171 193 76
174 194 65
174 195 81
173 193 76
175 197 89
163 184 65
173 194 97
172 192 97
173 193 85
168 188 93
176 195 111
172 191 93
179 198 136
175 194 114
170 189 89
165 184 97
165 184 59
149 168 0
153 173 0
149 169 0
157 176 0
163 182 0
159 178 0
155 175 0
160 181 0
156 174 0
167 186 43
168 188 52
171 191 43
177 197 76
173 193 43
173 194 0
168 187 0
173 195 0
170 190 0
174 193 0
170 190 0
172 193 0
167 188 0
173 194 0
171 191 0
168 189 0
174 194 0
167 188 0
171 192 0
172 192 23
87 111 91
62 93 112
62 94 114
59 90 96
61 92 117
62 93 113
61 93 109
64 97 124
59 90 106
62 93 110
61 92 113
61 93 112
61 93 119
62 94 111
60 92 105
60 92 115
63 96 122
62 94 110
66 99 128
59 90 100
61 92 110
60 91 118
62 93 116
61 92 114
63 95 128
61 92 113
61 92 119
61 93 106
59 90 116
63 94 127
60 92 109
63 96 126
64 97 123
63 94 120
61 92 112
62 94 119
63 95 130
63 95 115
64 96 124
58 89 103
62 94 119
61 92 108
62 93 122
61 92 117
58 88 100
62 93 123
61 93 109
62 94 125
62 94 119
62 93 108
59 90 113
62 94 114
60 90 118
60 90 111
60 90 110
61 92 113
61 92 109
60 91 111
59 89 115
59 89 107
62 93 116
61 93 103
58 87 98
62 93 122
56 85 98
59 89 106
59 89 112
57 87 96
60 91 120
59 89 114
58 88 101
60 89 104
54 82 97
58 87 100
60 91 110
56 84 101
58 87 95
61 90 106
58 87 107
57 85 99
58 87 100
61 91 115
53 80 89
56 83 103
56 83 103
51 75 79
52 77 85
68 90 71
167 186 23
171 191 0
170 190 0
168 189 0
172 191 0
169 189 0
170 191 0
170 190 0
166 185 0
172 192 0
169 187 0
171 191 0
171 191 0
167 187 0
172 192 0
152 167 20
105 101 35
86 85 25
89 85 28
78 76 20
86 84 15
96 94 37
89 86 21
89 86 21
97 95 23
98 96 27
93 93 26
78 77 18
92 89 25
101 100 40
108 105 38
106 104 36
109 106 37
108 104 34
99 97 36
111 108 42
95 95 39
108 105 33
117 114 48
126 122 40
120 116 41
124 121 43
118 115 48
118 116 53
121 117 38
112 109 42
120 117 46
113 111 40
137 133 60
124 119 48
128 123 49
131 127 47
136 131 49
137 133 50
133 129 52
132 128 59
133 128 51
136 132 52
135 131 55
125 123 42
142 137 56
139 134 58
148 142 69
137 133 50
128 123 55
142 137 58
141 136 61
140 134 56
137 132 58
150 144 61
148 143 68
137 133 52
143 138 56
142 137 54
146 141 55
151 146 68
143 137 59
152 147 65
144 137 59
143 136 63
146 141 59
147 142 63
147 142 60
145 139 59
142 137 59
139 135 51
148 142 63
148 144 59
145 141 55
133 128 48
150 145 64
159 154 69
144 139 60
147 141 57
139 132 57
152 147 61
138 134 60
152 146 60
141 136 57
150 144 64
150 144 66
151 145 58
156 150 66
148 141 59
152 146 66
157 151 73
146 141 65
144 137 64
149 143 57
150 145 63
148 142 66
148 144 61
145 141 60
147 141 53
145 139 57
142 136 57
144 138 67
148 143 69
145 139 56
153 145 75
156 149 76
149 143 64
151 144 72
143 138 60
152 144 72
142 137 61
149 143 71
142 136 65
149 143 71
144 139 60
147 141 65
157 151 71
144 138 57
147 142 67
155 149 67
144 138 66
150 144 71
150 144 66
140 135 61
147 143 63
145 138 66
138 133 56
142 137 63
145 141 57
147 141 72
145 138 70
145 139 66
140 135 61
149 143 64
143 139 63
151 145 72
139 135 64
145 140 67
150 145 72
149 143 73
142 136 66
176 197 0
178 198 0
177 197 0
174 195 0
172 193 0
172 194 0
174 194 31
187 206 111
183 203 101
182 202 117
183 203 117
178 198 65
182 203 93
184 203 111
183 202 104
184 204 121
185 204 117
182 203 81
187 206 117
177 198 81
184 204 101
181 202 101
182 202 89
185 205 111
184 204 108
176 196 59
178 198 81
181 201 97
177 198 89
177 197 81
177 197 85
179 200 76
181 201 71
177 198 59
178 198 76
180 200 97
179 200 101
179 199 101
176 197 71
175 195 71
179 199 71
178 199 52
178 199 59
181 202 81
178 199 81
180 200 93
177 197 65
176 197 65
177 198 85
177 198 97
177 198 89
180 201 97
177 198 81
176 197 81
175 196 85
178 199 89
170 192 71
176 197 65
176 197 81
175 196 59
172 192 71
177 199 76
176 197 101
175 196 81
173 193 65
176 197 76
177 198 76
174 194 76
173 195 85
175 197 81
178 199 76
175 195 85
175 196 81
178 199 85
176 196 59
176 198 89
174 196 52
174 195 85
170 192 85
172 193 59
173 193 65
177 198 85
175 194 71
176 198 76
174 195 85
179 200 81
173 194 71
172 192 71
172 194 59
174 196 71
176 198 71
172 192 65
171 191 65
174 195 71
173 194 65
173 194 85
174 197 104
171 192 59
174 196 71
171 193 52
172 194 93
173 194 85
175 196 81
173 193 81
172 193 81
171 192 71
175 196 71
176 196 85
172 193 59
173 194 85
173 194 89
173 194 81
171 192 89
177 197 104
174 195 71
170 190 65
177 197 93
172 192 81
170 190 81
172 192 89
174 193 108
172 190 114
172 191 104
169 189 89
167 186 76
164 181 89
148 167 0
143 162 0
157 177 0
154 174 0
159 179 0
163 182 0
156 176 0
161 181 0
157 177 0
162 182 0
166 186 43
172 192 59
170 190 71
175 195 89
172 192 0
171 191 0
169 191 0
172 194 0
170 190 0
172 194 0
173 195 0
168 188 0
170 189 0
173 194 0
173 194 0
173 194 0
174 195 0
167 188 0
174 195 0
175 195 0
151 172 55
61 93 118
59 89 105
60 91 103
63 96 120
57 87 107
64 98 126
59 89 103
61 93 108
59 89 110
62 94 120
61 92 114
60 90 106
59 90 117
59 90 103
59 90 105
60 91 97
59 90 101
61 92 111
61 92 113
61 92 113
60 92 112
60 92 120
61 93 118
63 96 122
59 90 97
61 93 104
60 92 111
62 94 109
61 92 108
60 91 114
64 97 125
62 94 121
62 94 120
61 93 115
62 93 111
60 90 102
60 91 102
61 92 111
62 94 111
59 90 105
62 94 121
62 94 118
62 93 121
61 92 104
60 90 117
60 91 109
62 93 118
60 91 115
60 92 120
59 89 101
60 91 108
64 96 122
62 94 121
62 94 118
57 88 105
61 92 105
55 84 94
63 95 113
61 92 119
58 89 108
60 91 110
61 92 111
61 92 112
60 91 105
62 93 112
60 90 105
59 89 106
60 91 117
56 84 91
59 89 111
60 90 101
58 87 99
57 87 90
58 87 104
59 89 110
56 83 98
58 87 99
59 89 105
54 82 87
50 75 82
53 80 94
54 81 76
55 83 99
53 79 85
49 72 64
52 77 89
152 170 34
173 193 0
163 182 0
165 184 0
167 184 0
165 184 0
168 187 0
167 187 0
170 189 0
165 185 0
167 187 0
171 190 0
170 188 0
172 192 0
174 195 0
170 190 0
172 190 0
129 139 21
88 84 15
108 105 41
91 88 28
90 88 28
93 90 25
93 90 24
86 84 30
85 82 15
90 87 29
86 84 18
95 93 28
96 92 31
85 84 21
97 95 32
110 106 40
102 99 30
102 99 29
102 101 34
97 95 32
112 109 43
112 109 40
115 110 41
110 106 43
111 109 36
110 106 36
112 109 37
109 108 34
127 122 48
120 117 45
132 128 50
120 117 36
119 116 46
129 126 46
119 116 47
113 110 39
136 131 47
123 120 39
123 120 46
133 130 52
123 119 53
138 134 55
136 131 50
136 132 46
135 131 53
132 127 53
141 136 62
138 133 54
138 132 50
128 124 53
143 137 58
137 132 58
140 136 57
135 131 44
144 140 52
154 148 62
144 138 65
147 142 57
139 135 51
136 132 56
144 139 65
136 132 59
149 143 65
147 141 66
140 135 58
143 139 65
145 140 61
145 140 54
154 147 64
145 139 61
145 140 61
139 135 50
145 140 57
139 134 58
139 134 56
152 145 71
147 140 63
152 146 64
151 145 64
149 144 60
145 139 64
145 139 50
148 142 60
143 138 59
152 146 60
160 154 74
143 137 57
146 141 60
143 138 59
149 143 66
147 142 66
149 142 64
149 143 66
146 141 57
139 135 57
149 144 61
146 141 63
143 139 57
147 141 56
151 145 71
150 146 56
141 137 63
147 142 66
151 146 64
142 136 57
147 141 66
151 145 66
151 145 72
146 141 64
152 146 73
153 148 63
145 138 65
137 132 53
147 141 65
139 134 56
141 135 69
147 141 63
141 135 60
149 143 59
150 144 71
146 140 63
153 146 69
145 139 65
146 141 65
145 140 67
147 142 67
143 137 65
149 143 69
144 138 65
146 140 67
144 139 57
146 140 71
153 146 74
148 142 60
141 135 61
124 120 52
148 142 72
145 139 65
146 140 73
151 144 72
178 200 0
169 190 0
175 194 0
175 196 0
174 194 0
177 198 0
177 197 0
178 197 59
181 201 76
180 201 78
180 199 89
178 199 76
180 200 89
180 200 71
183 202 111
189 207 138
185 204 123
183 202 108
183 202 117
180 200 97
179 199 101
178 198 85
180 199 104
179 199 85
180 200 95
184 204 104
177 196 76
180 200 104
181 201 101
179 201 76
179 199 93
182 202 114
180 201 93
178 199 97
181 202 76
177 198 89
179 200 76
179 200 93
175 195 76
177 198 71
178 198 59
177 198 101
180 200 89
179 200 93
177 198 76
179 200 89
178 199 76
179 200 85
174 195 65
177 198 81
176 197 59
177 198 85
180 202 93
179 200 85
178 198 76
176 196 71
178 200 81
174 196 93
176 197 59
178 199 81
172 193 93
176 197 76
176 198 71
175 196 71
178 199 76
176 197 85
174 195 43
178 200 85
178 198 76
178 200 85
178 199 81
172 194 81
174 195 71
174 194 71
177 198 71
178 199 71
178 199 85
176 197 43
172 194 65
172 194 97
176 197 85
174 195 52
179 201 89
177 199 76
176 197 81
176 198 81
169 189 65
174 196 89
175 197 52
175 197 76
177 198 65
172 193 81
171 192 85
172 193 76
173 194 76
174 196 76
179 200 43
172 194 81
173 195 93
170 191 89
172 193 52
178 199 89
172 192 65
175 195 81
174 195 97
172 193 111
173 194 71
174 195 93
174 195 97
174 195 81
173 193 85
173 193 89
173 194 93
169 189 85
168 189 89
168 188 65
173 193 97
179 199 93
174 193 97
169 189 101
178 196 125
168 186 81
157 176 81
173 191 104
164 184 52
152 170 0
154 173 0
150 169 0
163 181 0
152 172 0
162 181 0
162 183 31
164 183 31
168 187 0
168 189 0
168 189 43
171 191 31
173 193 31
182 200 104
173 193 31
169 189 0
173 193 0
177 199 0
171 192 0
174 194 0
164 184 0
171 192 0
168 190 0
172 193 0
175 196 0
167 188 0
172 192 0
175 195 0
174 195 0
172 193 0
172 192 0
176 197 0
115 137 75
62 93 105
59 90 103
58 88 107
61 91 109
58 88 93
58 88 94
59 90 102
59 89 95
61 93 103
61 92 102
60 91 116
62 93 110
62 94 108
62 94 109
61 93 113
62 95 115
59 91 103
60 90 103
60 91 112
62 94 107
63 95 110
62 94 119
60 91 101
62 93 111
60 91 108
61 92 105
61 92 116
60 90 110
63 96 113
63 95 109
60 91 102
63 96 118
58 88 100
63 95 120
60 91 107
60 91 108
62 94 115
62 94 123
60 90 103
61 92 114
60 90 107
61 92 113
58 89 103
60 89 116
61 92 119
61 92 118
63 95 117
61 91 117
66 99 132
61 92 118
59 91 101
58 89 103
61 91 111
61 92 112
61 92 116
60 91 107
59 89 102
59 90 106
61 92 111
59 89 105
59 89 103
59 88 107
57 85 94
58 88 103
60 91 116
60 90 104
58 87 94
59 88 92
57 86 105
60 91 110
59 89 97
56 85 101
58 87 109
58 88 104
55 83 100
57 87 101
56 84 90
56 84 94
56 84 95
56 84 84
53 79 80
53 79 83
54 80 86
51 76 80
102 121 70
166 186 0
166 185 0
166 186 0
168 187 0
172 190 0
170 190 0
166 185 0
170 190 0
171 190 0
167 185 0
166 185 0
171 189 0
171 191 0
166 186 0
166 185 0
168 189 0
171 189 0
167 185 0
116 120 28
96 94 30
93 87 0
87 86 23
94 91 23
95 92 23
93 89 20
75 75 18
81 79 12
93 91 25
86 85 20
99 96 31
100 98 39
101 99 31
103 100 34
98 94 34
111 107 39
102 101 30
107 103 21
108 105 32
113 110 35
112 109 46
110 107 33
114 111 34
116 114 42
123 119 43
118 116 37
114 111 42
127 122 54
121 117 39
117 115 36
121 117 45
131 127 47
119 114 42
120 117 42
133 129 41
124 120 50
126 122 45
132 126 54
129 125 47
133 129 52
133 129 49
132 129 50
127 123 49
128 124 53
134 130 44
142 137 56
145 140 57
132 127 47
135 130 47
130 126 45
149 144 59
139 134 60
134 130 53
134 129 51
138 132 52
147 142 59
143 138 56
140 134 61
144 138 57
150 144 63
146 141 64
144 138 65
141 136 55
137 131 57
130 126 49
134 130 50
144 138 63
140 134 53
137 133 55
141 136 57
151 145 60
145 140 64
146 140 52
148 142 67
144 138 61
145 140 54
143 138 63
147 142 59
149 143 63
148 143 59
152 146 61
147 142 67
150 145 59
144 139 60
141 137 57
146 141 59
156 150 69
146 140 65
150 145 63
149 144 59
138 133 56
141 136 57
157 150 70
149 142 64
148 143 57
152 146 65
146 140 66
151 145 64
139 135 57
145 139 61
144 138 63
144 138 57
148 143 59
157 150 73
146 141 55
143 138 57
155 149 67
148 142 66
151 144 72
148 142 66
148 143 65
153 146 67
145 140 60
150 145 66
141 136 59
140 135 57
143 138 61
137 131 63
146 141 66
152 146 70
152 146 65
152 145 65
143 137 61
145 139 61
157 151 73
143 137 60
144 138 63
143 138 57
143 138 53
149 143 64
147 141 64
144 138 66
144 138 65
146 140 66
153 147 71
140 134 59
145 140 64
145 139 65
177 197 0
176 197 0
173 194 0
175 196 0
172 193 0
180 200 0
177 197 0
174 194 0
179 199 65
182 201 89
183 203 101
181 200 89
181 201 85
184 204 104
180 199 81
182 202 81
183 201 123
185 204 125
185 205 120
183 202 108
182 202 108
177 198 81
182 202 89
183 203 85
178 198 85
179 199 93
180 201 87
177 198 85
181 200 104
180 200 85
177 197 81
181 201 81
179 201 81
181 202 101
182 201 71
178 199 104
176 197 81
175 196 71
177 198 85
175 197 65
181 202 89
180 202 76
176 196 76
177 197 76
176 197 89
179 200 71
178 198 71
182 203 89
177 199 85
177 198 71
179 200 71
180 201 97
177 198 76
177 198 76
179 199 89
177 198 71
181 202 85
177 198 85
178 199 81
179 199 65
179 199 81
172 193 81
174 195 59
178 199 59
175 196 76
176 199 89
172 194 59
179 200 81
176 197 81
174 197 97
181 201 101
173 193 85
179 199 65
174 194 71
176 197 81
175 196 85
173 195 71
176 197 65
176 198 93
176 198 76
174 196 81
174 195 31
179 199 59
174 194 59
176 195 76
180 201 81
178 199 71
174 196 71
174 195 81
176 197 76
173 195 71
171 193 76
175 196 71
170 192 52
176 198 81
173 195 76
169 190 43
176 196 71
178 198 71
174 195 71
168 187 65
172 193 97
178 199 71
176 197 81
169 190 76
174 194 85
168 188 85
176 198 101
177 197 104
173 193 81
173 193 81
172 191 76
176 196 81
172 191 97
173 193 85
168 188 97
171 190 76
174 193 108
170 189 104
183 201 136
168 187 97
162 181 85
165 184 71
167 186 85
159 178 0
148 166 0
155 174 0
156 175 0
158 177 0
149 168 0
155 172 0
162 182 0
162 181 0
157 177 0
172 192 43
168 187 43
172 192 31
181 200 111
177 198 65
173 194 0
174 194 0
169 190 0
169 190 0
168 189 0
169 189 0
171 193 0
168 189 0
171 192 0
173 194 0
166 187 0
168 188 0
170 190 0
167 188 0
167 187 0
169 188 0
166 187 0
163 185 0
162 182 23
72 98 99
61 92 102
57 87 103
62 94 117
59 90 101
60 90 105
54 83 92
59 90 112
61 92 106
59 90 105
59 90 99
60 91 95
60 91 114
59 91 99
59 90 105
58 88 96
60 92 102
59 90 117
63 95 121
59 90 101
62 93 125
62 94 112
64 96 114
58 89 92
58 88 97
60 91 108
60 91 111
59 90 105
62 93 118
62 94 112
63 95 114
60 92 112
62 93 109
62 94 110
63 95 122
62 93 109
60 90 105
57 86 92
59 90 106
62 93 118
60 91 100
60 91 102
60 91 113
60 90 99
62 94 111
63 95 108
62 94 111
61 91 115
59 89 105
58 88 109
62 94 111
60 91 111
61 93 123
58 89 96
62 94 126
60 90 121
58 88 108
61 92 106
62 93 107
57 87 105
57 87 99
60 90 104
59 89 110
59 89 104
57 87 96
60 90 100
59 90 109
57 87 104
59 89 108
58 87 103
58 87 89
60 90 108
60 90 102
55 83 92
57 86 99
55 82 100
56 84 97
56 83 90
52 78 78
56 84 91
54 81 96
55 81 89
52 77 84
81 100 73
160 177 0
167 187 0
157 176 0
169 188 0
165 183 0
158 178 0
167 186 0
168 187 0
165 184 0
169 188 0
168 187 0
168 187 0
164 183 0
166 184 0
167 184 0
166 186 0
168 187 0
173 192 0
167 187 0
159 177 15
109 109 41
97 93 33
83 80 28
89 87 28
85 84 23
96 93 28
91 90 15
92 89 18
98 95 18
96 92 37
91 88 25
94 91 27
96 93 20
93 90 33
102 100 36
104 102 34
102 100 40
118 115 39
108 105 27
113 109 31
105 103 34
108 106 38
122 117 35
107 106 37
108 106 25
124 119 40
108 105 28
114 110 47
117 113 35
119 115 44
130 127 37
120 116 47
127 121 44
122 118 40
122 118 47
125 120 36
129 125 45
124 121 36
129 125 48
133 127 52
131 127 59
129 126 45
128 123 49
137 131 52
132 127 49
137 132 48
136 130 60
138 132 61
136 132 41
134 130 59
136 132 47
133 129 46
141 135 63
133 128 50
140 134 56
137 132 56
133 127 52
140 135 50
142 137 56
144 138 57
143 136 57
142 136 57
147 143 53
146 141 66
143 138 61
145 139 60
150 144 64
140 136 55
145 140 63
152 147 63
142 136 52
140 135 53
142 136 58
145 141 51
139 134 53
147 141 66
134 130 48
143 138 58
147 141 58
154 148 65
153 146 66
149 144 63
145 140 55
143 138 58
152 146 69
144 138 64
149 142 60
142 137 59
150 143 64
157 151 73
140 136 55
148 143 59
147 141 63
145 139 57
140 135 56
150 145 68
146 140 61
138 133 52
152 146 64
140 134 59
152 147 70
147 141 61
145 139 66
140 134 52
148 141 65
144 140 67
151 145 64
136 131 60
152 147 71
146 140 70
143 137 59
146 140 65
153 147 70
149 143 67
148 143 70
146 141 60
145 141 59
151 145 73
139 135 52
144 139 60
145 139 59
141 136 65
144 138 66
144 139 64
154 149 71
145 140 59
152 146 67
136 130 64
146 140 64
141 134 66
131 126 52
142 136 65
148 141 65
137 131 61
149 142 74
144 137 63
144 139 64
147 141 61
174 194 0
174 194 0
175 194 0
173 195 0
176 197 0
176 196 0
175 195 0
177 198 0
178 198 0
172 192 0
178 198 85
182 201 71
182 202 93
184 203 89
183 203 108
181 201 59
182 202 85
183 202 120
182 200 117
185 204 123
182 201 117
182 202 108
180 200 108
182 202 85
182 203 97
185 204 125
182 202 89
179 198 93
180 201 101
181 200 111
177 197 93
181 201 108
176 196 89
179 200 65
177 198 89
178 198 104
178 199 97
178 200 89
180 201 71
180 201 85
174 195 81
177 199 71
172 192 43
174 196 85
178 199 71
173 194 76
171 191 76
178 199 81
176 198 43
175 196 71
176 197 85
178 199 89
178 198 71
174 195 59
176 197 76
177 199 85
171 191 59
177 198 65
177 199 76
176 197 81
177 198 76
176 197 71
177 197 85
174 195 43
176 197 81
176 197 85
180 201 89
176 198 85
177 198 71
177 198 76
178 200 93
176 197 76
174 194 65
174 196 81
174 195 59
174 195 76
173 194 71
175 196 89
173 193 76
173 193 65
171 192 71
176 197 59
172 193 85
170 190 71
175 196 85
173 193 52
175 195 65
173 195 76
172 193 89
170 190 59
174 194 76
171 193 59
170 191 71
175 197 81
173 194 52
173 194 76
172 193 65
173 194 93
173 193 71
173 193 76
175 197 93
179 199 52
171 191 85
171 190 71
169 189 85
173 194 117
169 189 71
174 194 81
170 190 81
172 193 76
174 194 81
170 190 93
170 189 65
168 187 89
166 185 59
170 189 104
175 194 111
173 192 133
179 198 97
176 195 97
166 185 93
165 183 89
157 176 31
154 171 0
154 173 0
155 175 0
159 178 0
156 175 0
159 178 0
155 175 31
160 179 0
162 182 0
163 183 0
170 190 43
169 190 52
169 189 31
180 199 120
176 195 65
175 195 0
174 195 0
169 191 0
169 190 0
169 190 0
169 190 0
169 190 0
171 191 0
170 191 0
169 189 0
171 191 0
166 187 0
169 189 0
168 188 0
168 189 0
166 188 0
172 192 0
173 193 0
165 185 0
168 188 0
148 168 52
59 89 93
60 91 106
57 87 86
61 92 106
61 92 106
58 88 94
60 90 107
61 92 101
56 85 78
59 90 100
59 90 104
58 88 100
61 92 99
61 93 111
61 91 112
60 91 103
58 88 99
62 94 122
60 92 108
61 92 108
54 83 98
62 95 116
61 93 97
59 89 100
64 97 112
61 92 117
60 91 105
60 91 110
59 89 113
59 89 114
57 87 103
61 93 114
58 87 106
60 91 113
60 90 112
62 93 119
62 95 106
62 94 105
59 89 111
63 94 117
62 94 110
59 89 110
62 93 106
62 94 112
61 92 110
62 94 115
64 97 127
62 95 111
58 87 101
58 89 98
56 85 98
59 89 109
59 90 115
60 91 110
57 86 99
59 89 110
59 89 105
57 87 107
59 88 105
60 90 105
60 91 116
62 93 122
58 87 103
58 87 99
58 88 103
58 87 91
57 87 98
56 85 97
60 91 111
60 90 112
58 87 104
56 84 89
58 87 93
59 88 96
54 82 92
55 82 102
58 86 92
54 81 82
55 82 91
53 80 81
50 76 73
57 80 72
137 155 32
157 174 0
165 183 0
158 176 0
162 180 0
168 187 0
157 175 0
166 184 0
164 181 0
160 178 0
169 187 0
171 189 0
167 186 0
166 185 0
165 184 0
167 187 0
169 189 0
167 185 0
169 188 0
167 186 0
170 189 0
157 172 20
105 103 34
92 89 30
83 81 19
89 86 21
94 92 16
96 93 28
94 91 18
89 85 27
82 81 18
90 89 23
98 95 26
87 85 18
91 89 12
102 99 23
91 88 30
101 98 31
109 105 30
109 106 26
104 102 33
108 104 32
121 116 40
113 110 33
110 108 27
105 103 28
112 108 30
112 109 42
116 111 39
118 115 34
119 115 37
121 118 44
126 122 39
114 111 40
125 122 47
125 122 48
121 117 39
140 134 55
128 124 47
138 133 49
132 128 48
126 123 45
136 131 56
126 120 50
134 130 49
141 136 61
129 124 43
144 138 58
138 133 52
126 121 41
133 129 50
140 135 53
134 129 54
134 131 49
140 136 55
144 140 55
144 139 52
143 140 54
142 138 55
138 133 61
146 139 64
147 142 55
148 143 52
136 131 48
141 136 55
138 132 59
138 132 57
145 137 56
143 137 56
139 135 55
143 137 60
150 144 63
138 134 49
148 143 63
147 142 67
142 137 53
144 137 56
147 140 63
146 140 61
150 144 62
142 137 56
137 132 53
140 135 55
145 140 61
149 144 67
149 143 63
141 136 55
150 144 57
149 143 63
146 142 59
147 142 50
149 144 70
148 142 66
153 148 67
150 145 60
142 137 56
138 133 57
148 143 61
134 129 59
154 147 73
146 140 64
151 146 57
135 131 56
150 144 55
149 143 69
145 138 66
146 141 56
148 144 55
150 145 61
134 130 55
151 145 64
147 141 64
139 134 65
145 140 69
146 141 67
140 134 61
151 144 71
147 140 64
155 149 69
145 140 61
153 146 74
136 130 59
143 137 65
141 135 59
138 132 59
156 150 77
147 142 57
153 147 71
147 141 67
148 141 61
146 140 66
137 131 59
140 135 63
144 138 59
146 141 66
142 138 52
141 135 63
130 126 53
142 137 66
177 198 0
175 195 0
169 189 0
176 197 0
173 193 0
176 196 0
172 194 0
175 196 0
174 195 0
172 194 0
175 195 43
182 202 85
179 198 101
183 203 101
176 196 85
184 203 108
181 202 76
178 198 85
183 202 111
187 207 127
180 199 101
184 203 114
187 206 128
185 204 108
186 206 117
182 201 101
179 198 104
182 201 81
182 203 89
177 197 85
179 199 81
178 198 71
181 201 101
177 196 89
175 195 71
177 197 81
178 200 93
182 203 76
180 201 65
180 201 85
179 199 97
181 201 97
178 199 97
177 198 101
176 196 59
175 196 71
174 195 81
177 198 93
174 195 59
179 200 59
177 198 89
177 197 65
177 198 71
172 193 65
180 201 71
174 194 85
176 196 76
171 192 85
176 196 76
171 190 71
174 195 76
171 191 71
175 195 81
175 195 71
177 199 85
175 195 59
172 192 65
177 198 93
172 194 76
177 198 85
172 193 59
176 198 76
178 200 81
174 195 59
178 199 76
173 195 65
175 197 85
179 199 76
180 202 89
172 193 81
179 200 31
175 197 81
177 198 76
172 194 93
172 192 81
176 196 59
174 195 81
175 197 93
175 195 59
173 194 85
176 197 81
177 196 59
176 197 71
176 197 71
171 191 76
174 195 76
175 197 104
173 194 71
173 194 85
168 187 52
175 196 81
172 192 76
167 188 65
170 190 89
175 195 81
170 190 89
173 193 85
175 195 71
171 191 59
168 188 89
170 190 89
173 194 97
174 193 85
176 194 101
170 189 101
172 191 97
179 198 111
173 192 104
166 184 85
167 186 65
159 177 71
152 171 52
153 171 0
155 174 0
150 168 0
152 171 0
154 172 0
162 181 0
161 181 0
161 181 0
155 174 0
161 182 0
165 185 31
166 185 52
169 188 31
177 197 71
173 193 81
171 191 0
165 185 0
169 190 0
173 193 0
163 183 0
165 185 0
168 187 0
173 194 0
168 188 0
163 184 0
169 190 0
170 190 0
172 192 0
167 187 0
170 191 0
167 188 0
167 187 0
164 184 0
169 189 0
160 180 0
169 190 0
167 188 0
133 154 65
59 89 99
62 94 106
61 93 110
58 89 95
63 95 119
60 90 109
58 89 96
60 91 99
60 91 101
62 93 113
57 86 99
58 88 96
59 90 103
60 91 113
59 90 102
59 90 109
60 90 105
59 89 110
62 93 111
60 91 124
62 94 115
61 92 100
60 92 108
60 91 117
61 92 110
61 92 109
59 89 97
60 90 113
60 91 126
63 95 119
61 92 112
62 94 112
62 94 116
62 94 120
61 92 101
61 92 110
59 90 102
60 90 114
58 89 111
62 93 116
62 93 118
61 92 113
63 95 120
63 95 120
58 88 105
59 89 118
63 95 116
61 92 106
59 89 93
58 88 97
59 90 101
60 90 103
59 89 109
58 88 102
59 89 104
59 89 101
61 92 118
60 90 116
61 93 118
61 92 110
58 87 98
60 90 99
60 90 109
58 88 109
59 89 98
57 86 89
58 88 101
59 89 101
57 86 97
55 83 89
56 84 83
57 86 88
57 85 96
55 84 90
56 83 89
53 79 85
53 80 78
53 80 88
50 76 85
50 75 79
121 137 48
155 173 0
159 177 0
160 180 0
162 179 0
161 181 0
156 173 0
166 184 0
158 175 0
162 178 0
164 182 0
165 183 0
163 182 0
169 185 0
165 186 0
164 182 0
166 184 0
165 184 0
165 184 0
163 182 0
171 188 0
164 182 0
168 186 0
149 159 28
97 93 34
92 89 25
93 89 25
107 103 34
97 94 15
99 96 29
102 99 26
98 96 18
97 93 23
96 93 26
95 94 26
95 93 27
97 94 23
99 97 28
102 101 34
117 112 20
114 109 34
105 101 27
116 111 34
106 103 36
114 111 32
110 107 31
113 109 29
113 110 41
125 121 47
118 113 43
122 118 49
104 102 40
116 111 34
125 122 49
115 112 30
130 126 41
125 121 35
126 123 41
126 121 48
121 117 43
130 124 46
120 116 32
127 122 42
125 121 47
130 124 53
133 128 51
129 124 46
136 131 53
145 140 67
130 125 42
128 125 43
137 133 52
132 128 50
132 126 46
142 137 56
140 134 52
134 129 50
134 128 51
137 131 52
141 136 60
144 139 52
140 134 50
138 134 52
139 133 52
136 131 50
137 132 55
144 138 59
138 133 57
147 142 59
143 138 53
139 135 52
140 134 52
138 133 48
143 138 57
143 138 61
144 140 48
142 136 67
152 144 69
154 148 65
146 141 56
148 142 61
153 146 65
150 144 66
149 145 61
145 139 61
152 146 61
130 126 43
135 130 50
147 142 64
141 135 60
149 143 59
146 140 56
144 139 64
147 142 59
141 135 53
147 141 56
143 137 59
146 141 61
145 138 64
144 139 66
141 136 64
146 141 61
150 145 66
151 145 73
145 140 60
146 141 64
144 139 61
149 142 64
149 144 63
138 132 52
144 137 59
141 137 59
144 138 60
135 131 59
146 141 59
153 147 67
147 142 59
146 141 55
142 136 63
148 143 75
150 145 65
138 132 57
148 143 65
140 136 59
143 138 65
153 148 66
141 136 59
142 135 61
143 138 60
141 136 60
142 137 55
144 139 59
139 133 59
140 134 63
149 143 66
142 137 50
137 132 55
142 136 65
143 137 65
147 141 71
173 193 0
177 197 0
174 195 0
176 197 0
175 196 0
174 195 0
177 198 0
172 192 0
173 194 0
171 191 0
177 197 0
178 198 31
181 201 89
182 201 97
186 205 108
177 198 85
181 200 71
179 199 93
177 199 76
176 196 71
183 203 101
186 205 123
182 201 111
180 199 111
183 202 114
180 199 97
181 201 104
184 204 111
183 203 111
183 203 93
178 199 93
177 197 85
180 200 89
181 202 76
176 196 89
181 201 101
175 195 76
179 199 81
182 203 111
180 201 89
178 199 81
175 195 85
176 197 59
177 198 85
176 198 89
178 199 76
179 200 52
176 197 71
178 199 71
179 199 81
176 197 97
174 195 65
179 200 71
179 201 76
171 192 89
175 196 85
175 195 81
175 196 71
178 198 81
175 196 71
177 197 93
175 196 59
176 196 43
176 198 71
175 195 71
178 200 76
175 197 71
179 199 71
174 195 71
179 202 101
171 191 76
176 197 71
173 194 65
174 195 76
176 198 89
176 195 65
171 191 81
175 196 89
178 198 65
172 191 71
176 197 89
171 192 71
177 198 81
174 196 89
173 194 71
178 200 89
176 198 81
172 193 76
177 199 89
172 193 71
173 193 71
172 193 85
173 192 0
172 192 71
172 193 52
174 195 104
173 194 76
175 195 59
179 199 85
177 196 52
174 195 89
175 194 71
167 187 59
168 187 65
171 191 65
174 193 81
169 187 81
179 198 93
167 187 65
175 195 101
176 195 97
178 197 101
163 182 97
173 191 108
175 192 120
172 191 108
172 191 93
176 196 93
169 189 76
165 184 76
160 178 0
153 171 0
161 180 0
147 166 0
161 180 0
158 177 0
162 182 0
156 176 0
165 184 0
163 183 0
166 186 0
168 188 0
172 192 76
168 188 65
174 194 59
169 188 76
170 190 0
171 192 0
176 197 0
171 192 0
168 188 0
166 186 0
167 188 0
169 190 0
169 189 0
171 193 0
169 189 0
172 192 0
164 185 0
169 190 0
168 188 0
171 192 0
167 189 0
162 183 0
168 188 0
165 186 0
166 187 0
169 190 0
165 185 0
170 191 0
119 140 81
58 89 98
59 91 96
55 85 82
58 87 94
58 88 95
57 87 84
59 90 102
59 90 87
59 89 98
61 91 114
59 89 103
60 91 106
59 89 109
61 93 111
58 87 117
59 89 97
62 94 110
60 91 111
58 88 90
59 90 96
60 90 99
60 92 97
59 89 100
62 94 109
61 93 112
59 90 113
61 92 104
63 95 122
57 87 96
59 90 104
60 91 109
61 92 103
59 90 108
60 90 104
63 95 106
59 90 101
59 89 102
60 91 100
60 92 103
60 92 103
58 87 93
58 88 96
63 94 110
58 88 101
59 90 105
58 89 103
62 94 116
59 89 106
59 90 101
63 96 116
58 88 101
59 89 104
61 91 104
59 90 104
57 86 106
60 90 103
57 86 100
56 86 91
59 89 99
56 84 94
63 95 117
58 87 111
59 88 95
56 85 96
56 85 97
55 83 90
54 82 94
57 85 95
58 87 112
58 86 94
59 89 111
54 81 91
52 78 82
54 82 84
54 81 99
55 82 101
53 79 76
51 76 84
102 117 41
158 175 0
161 180 0
169 188 0
160 178 0
156 173 0
170 187 0
167 186 0
156 173 0
162 179 0
160 177 0
155 172 0
162 181 0
164 181 0
153 169 0
159 175 0
169 186 0
162 179 0
158 176 0
165 184 0
165 184 0
172 190 0
160 177 0
166 183 0
168 186 0
133 144 0
101 96 31
88 84 31
98 94 23
96 93 34
85 81 23
86 83 20
109 105 30
101 97 23
91 90 24
96 93 23
107 102 31
103 100 30
101 98 37
114 109 38
96 93 25
110 106 26
92 89 37
101 99 36
106 103 23
102 98 30
113 109 28
106 101 34
119 115 33
120 115 46
117 113 38
117 114 37
109 104 37
117 115 42
124 120 33
116 113 34
123 118 45
123 119 46
121 117 46
124 120 36
133 127 54
134 128 51
115 110 45
127 122 46
133 129 44
137 130 57
135 129 52
123 119 53
137 133 56
128 123 58
128 123 41
131 126 49
135 129 48
133 128 50
134 130 46
140 135 60
133 128 49
131 126 44
138 132 48
143 136 50
142 137 55
132 128 39
145 141 50
139 133 48
139 133 55
140 135 50
134 129 48
140 136 52
145 138 59
147 142 48
145 139 53
141 135 57
144 138 52
136 130 55
142 137 52
142 138 45
147 141 60
136 132 48
146 140 56
143 138 53
144 136 53
144 139 56
145 138 53
141 135 48
151 145 63
140 136 60
143 138 57
148 142 57
150 145 53
143 137 63
148 142 66
148 143 60
140 134 59
147 142 59
149 142 61
134 130 52
143 137 57
136 131 59
145 139 53
144 138 70
146 141 63
139 135 50
147 142 59
145 139 52
142 136 63
142 137 57
141 136 60
143 139 53
149 143 59
142 136 55
136 131 52
151 145 63
146 141 52
152 146 69
140 135 52
139 134 65
142 135 59
152 146 64
141 135 57
146 140 63
146 141 69
143 137 61
136 131 53
138 133 57
148 143 69
144 138 59
143 138 64
146 140 60
147 141 63
136 130 61
148 142 63
150 144 66
140 134 57
145 139 57
140 135 61
144 138 70
137 132 57
141 136 59
146 141 60
145 139 66
145 140 60
176 198 0
173 194 0
174 195 0
177 198 0
176 197 0
175 195 0
177 198 0
173 193 0
177 198 0
179 198 0
178 198 0
173 193 0
175 195 0
174 194 52
183 202 97
179 199 76
182 201 89
183 203 93
184 204 111
181 201 81
180 200 85
181 200 93
184 203 117
182 202 111
188 207 125
181 201 108
184 204 125
179 199 101
187 207 123
180 201 85
184 205 114
180 199 108
181 202 76
178 199 89
178 198 97
179 199 97
175 195 71
178 198 81
179 199 97
182 202 89
177 197 65
175 194 65
177 197 81
178 199 93
179 200 97
179 200 71
174 194 71
176 197 76
174 194 81
178 200 65
179 201 85
173 194 59
179 199 89
180 201 76
181 201 89
177 198 81
177 199 76
173 192 81
178 198 71
179 200 76
177 197 89
179 199 85
179 200 59
175 196 71
175 196 65
176 197 81
171 193 52
172 192 85
177 199 59
173 194 104
176 197 65
179 200 85
178 198 76
176 198 85
177 198 89
177 197 85
177 197 52
175 196 76
176 196 76
179 200 93
176 197 101
173 194 89
174 195 81
179 199 76
173 194 59
172 193 76
174 196 81
176 197 97
177 197 81
173 193 71
175 196 76
178 198 52
175 196 93
175 197 71
173 192 52
177 197 59
171 191 76
170 190 81
173 192 59
174 193 81
176 197 81
168 188 71
177 198 85
171 191 71
169 189 81
172 192 93
170 188 85
173 192 97
165 184 65
173 192 93
176 195 117
161 180 93
172 190 101
172 188 108
172 190 111
170 189 43
169 188 97
167 185 93
158 175 59
151 170 0
154 171 0
156 175 0
163 181 0
152 172 0
162 180 0
157 175 0
155 173 0
154 173 0
163 182 0
170 189 0
170 189 31
165 183 65
164 184 52
169 188 43
176 195 97
171 191 0
166 187 0
164 185 0
168 189 0
169 190 0
166 187 0
160 180 0
166 187 0
172 193 0
172 192 0
167 189 0
165 185 0
171 191 0
164 184 0
169 188 0
165 185 0
163 185 0
170 190 0
162 182 0
165 186 0
168 189 0
166 185 0
167 187 0
155 174 0
164 185 0
158 178 0
101 123 87
61 92 102
57 87 94
58 89 83
60 91 98
62 94 108
56 86 99
62 94 114
58 89 92
59 89 103
59 89 106
62 94 101
59 89 98
59 90 115
58 88 105
60 91 96
60 91 116
60 91 97
61 93 125
60 90 105
62 94 118
58 89 105
61 92 111
61 92 105
60 90 102
58 88 99
60 91 113
56 86 95
60 91 106
60 91 103
59 89 91
58 88 100
62 94 112
62 94 112
60 91 97
57 87 105
60 91 105
60 91 106
58 89 100
59 89 102
60 91 105
59 89 109
59 90 106
62 94 108
57 87 96
61 92 101
60 90 112
61 92 113
60 91 109
60 91 103
62 93 115
61 92 106
58 87 107
59 89 108
61 91 109
54 82 104
61 92 101
57 86 101
57 86 105
59 89 104
57 86 98
58 87 98
58 87 93
55 82 98
57 86 92
57 87 93
57 86 93
56 84 88
59 89 113
54 81 100
56 85 94
54 80 91
55 82 99
56 83 86
54 81 84
59 88 94
49 73 79
102 120 62
155 174 0
147 164 0
159 178 0
152 169 0
157 176 0
162 179 0
154 173 0
160 179 0
162 180 0
163 180 0
157 174 0
156 175 0
165 182 0
155 171 0
161 177 0
162 180 0
160 178 0
160 177 0
158 175 0
156 170 0
158 174 0
163 181 0
165 182 0
163 180 0
158 175 0
165 182 0
129 138 28
97 92 30
97 93 25
104 100 28
88 85 21
102 96 20
86 82 21
91 87 27
94 89 28
96 93 30
99 97 26
104 100 20
91 88 35
103 99 23
104 100 33
109 106 35
106 102 41
106 102 21
99 96 31
102 99 27
116 113 34
100 97 31
115 112 32
114 110 34
108 106 28
104 100 32
112 109 31
108 104 37
109 103 37
117 114 32
122 119 50
123 118 34
128 124 49
126 122 31
137 132 48
122 118 48
127 122 33
125 120 41
122 118 42
128 124 50
115 110 30
136 130 43
137 132 50
131 125 36
128 123 43
132 127 49
139 133 50
129 124 31
138 134 46
133 128 53
144 140 57
139 133 52
140 134 44
136 131 48
143 138 50
137 132 52
143 138 61
136 131 52
130 124 41
132 128 46
133 127 45
141 135 42
144 138 57
143 136 55
138 133 48
144 139 60
142 137 43
144 138 53
136 131 53
137 133 46
146 140 63
140 133 62
147 141 61
138 133 48
143 138 52
155 149 61
148 143 55
140 134 50
147 140 61
148 141 59
140 135 50
142 137 59
138 133 53
140 134 48
137 132 59
146 140 60
141 135 56
142 136 60
146 140 66
144 139 55
134 131 55
145 140 60
141 135 65
156 150 67
147 142 63
140 133 52
145 140 53
145 139 59
146 141 52
146 140 53
138 131 53
137 131 57
136 130 57
137 131 57
142 138 66
129 125 53
144 138 57
136 131 53
144 139 65
141 138 59
145 139 61
140 135 60
144 139 56
136 131 46
145 139 53
146 140 57
139 133 53
142 137 60
148 142 61
150 144 73
139 134 57
139 133 63
146 141 59
145 139 57
140 136 56
140 135 63
146 139 64
150 145 69
144 138 55
144 137 67
136 131 56
142 137 61
144 139 61
142 136 64
138 133 50
173 194 0
172 193 0
175 195 0
175 197 0
176 197 0
173 194 0
176 197 0
175 196 0
176 196 0
175 196 0
173 194 0
175 196 0
174 195 0
178 198 0
175 197 0
181 201 93
183 203 111
176 196 81
180 200 97
186 206 108
177 196 76
176 196 89
183 203 93
176 195 97
181 200 104
182 200 123
186 204 133
187 206 120
186 205 125
183 203 108
181 199 120
181 201 97
177 197 97
180 201 93
180 200 89
178 199 89
181 200 101
173 193 85
177 197 89
180 200 85
177 197 65
180 200 81
178 198 71
177 197 81
178 199 76
176 197 65
180 200 71
179 199 101
174 194 76
177 198 85
174 194 43
181 200 93
179 200 89
174 194 76
178 200 97
179 199 89
180 201 81
175 195 76
176 198 76
180 200 71
178 200 93
174 194 52
174 195 71
176 197 101
171 192 81
176 197 65
175 197 81
179 200 101
176 198 104
178 200 81
179 201 89
179 199 65
175 195 93
176 195 81
172 192 76
178 199 76
176 196 89
170 191 85
173 193 65
178 198 89
174 195 76
175 196 76
171 191 59
171 190 71
172 193 81
175 196 81
178 199 89
172 192 65
174 193 71
176 196 81
173 193 93
177 196 81
174 194 104
170 191 76
175 194 81
173 192 85
178 198 81
174 194 89
170 189 76
178 197 59
176 197 104
170 189 71
170 189 71
175 194 89
176 196 104
171 191 85
174 193 71
167 186 97
173 194 120
175 194 104
174 192 111
181 200 111
173 192 101
163 182 71
170 189 71
166 185 97
167 185 71
158 177 43
145 164 0
161 181 0
158 178 0
161 179 0
158 177 0
160 180 0
157 176 0
156 175 31
157 175 0
167 186 0
161 181 0
167 185 43
167 186 52
178 197 71
167 186 59
171 190 104
174 194 0
170 190 0
165 186 0
171 191 0
167 187 0
167 187 0
172 193 0
169 188 0
172 194 0
168 189 0
170 189 0
161 182 0
166 187 0
170 191 0
163 183 0
160 181 0
166 186 0
163 182 0
167 187 0
164 185 0
165 185 0
167 187 0
163 182 0
163 183 0
159 179 0
164 184 0
161 181 0
156 175 31
80 103 80
57 87 97
58 88 98
56 85 99
58 89 100
58 89 92
59 90 96
60 91 105
59 89 107
57 87 97
56 86 90
59 89 112
59 89 104
60 91 103
58 88 90
61 92 109
61 93 109
59 89 101
60 90 113
58 88 97
59 91 95
59 90 105
61 92 101
57 86 90
61 91 115
62 94 108
59 90 94
61 93 109
61 92 108
60 91 101
61 93 98
58 87 111
62 93 109
60 91 103
61 92 101
61 92 108
61 92 112
58 88 104
60 91 98
63 94 117
60 90 107
56 86 102
57 87 98
58 88 98
56 86 83
61 92 108
58 89 98
57 87 88
58 87 91
59 90 109
61 93 107
61 92 109
59 90 95
58 87 85
54 82 84
59 90 103
57 86 103
61 92 98
62 94 108
55 83 79
57 86 90
57 86 101
58 87 93
54 82 93
57 85 94
58 87 99
57 86 93
57 85 86
56 84 85
56 84 98
54 81 87
56 84 100
54 80 64
54 82 77
53 79 84
86 105 71
149 167 23
151 166 0
154 173 0
147 165 0
155 171 0
156 175 0
157 175 0
153 170 0
157 173 0
152 168 0
152 168 0
162 180 0
159 178 0
150 168 0
159 176 0
152 167 0
159 176 0
164 180 0
161 176 0
160 178 0
157 171 0
160 176 0
159 176 0
160 177 0
164 180 0
160 175 0
164 181 0
163 179 0
128 135 22
97 93 28
97 92 28
102 97 35
99 96 21
91 88 25
88 84 19
84 80 21
99 95 27
91 88 23
95 93 31
98 93 18
99 96 25
107 102 20
86 83 20
99 97 25
101 99 35
108 104 27
102 98 25
119 114 31
113 108 34
126 120 44
110 107 23
110 107 38
120 115 39
118 113 34
119 115 39
116 112 35
120 115 43
116 111 36
120 115 44
137 129 34
123 119 37
133 128 41
128 124 35
125 121 45
126 120 46
129 124 45
134 129 49
129 125 46
142 136 52
136 130 54
134 128 44
130 126 50
132 127 46
135 130 46
139 133 53
140 133 57
133 128 47
132 127 50
117 113 32
131 126 52
123 120 37
135 129 49
139 135 53
139 133 63
132 128 45
143 138 57
134 130 52
145 139 55
133 129 41
132 128 39
136 131 50
144 138 64
143 137 53
138 132 46
137 132 46
143 137 58
145 138 61
146 141 52
142 138 52
144 136 59
139 133 57
140 136 56
135 131 44
143 136 59
142 136 55
137 132 48
147 140 59
140 134 47
140 134 57
139 134 59
141 135 46
139 133 56
148 142 64
150 145 65
140 134 55
143 138 53
140 135 53
145 139 60
146 140 57
141 135 60
148 142 64
143 138 57
141 134 60
147 142 59
152 147 63
138 133 46
146 140 50
137 131 56
137 132 59
146 140 61
145 138 56
135 129 52
128 123 36
149 144 60
146 140 59
143 137 46
142 136 55
145 139 61
142 136 60
143 138 60
146 141 56
144 139 59
139 133 59
139 133 50
153 147 70
128 124 46
144 139 55
133 128 55
141 136 56
143 137 57
148 142 64
150 144 69
135 131 48
140 134 65
146 140 63
135 130 53
136 131 60
131 126 52
136 130 61
150 145 69
144 138 66
143 137 67
176 197 0
173 194 0
174 194 0
178 199 0
174 194 0
177 196 0
174 194 0
176 197 0
173 192 0
173 195 0
176 197 0
177 199 0
171 191 0
175 195 0
177 197 0
175 196 0
175 195 71
176 197 59
177 197 43
178 198 65
180 201 89
181 201 85
179 199 93
176 196 81
176 196 76
182 202 85
188 206 125
185 204 117
182 200 117
183 203 111
174 193 89
183 203 108
180 200 81
176 195 93
182 202 111
181 201 104
178 198 89
180 200 85
178 197 85
183 203 97
176 196 81
175 196 81
178 198 89
178 198 89
184 204 93
179 200 93
181 201 93
177 198 97
178 198 76
176 196 89
172 194 93
179 199 59
176 195 59
178 199 65
182 201 85
180 201 97
175 195 71
171 192 76
178 199 81
176 196 59
178 199 93
177 197 76
174 194 52
176 197 59
170 191 81
176 197 93
176 196 71
175 195 59
181 201 85
174 194 85
177 199 104
178 200 76
178 198 93
173 193 89
170 191 85
177 197 59
174 194 97
177 199 101
177 197 52
179 199 93
174 195 89
171 191 76
172 191 89
172 192 76
176 197 76
178 199 76
177 198 81
170 190 59
175 195 81
176 197 81
176 196 71
170 190 65
176 196 71
179 198 59
176 195 65
173 193 85
170 189 65
175 195 93
171 191 97
176 196 89
173 193 104
174 194 81
175 195 89
169 189 81
169 188 97
174 193 89
172 191 76
174 193 97
179 197 123
179 196 125
174 192 97
173 192 97
167 186 93
175 192 104
169 188 81
165 184 76
161 179 0
153 171 0
148 167 0
153 171 0
155 174 0
155 174 0
167 185 0
161 180 0
156 175 0
159 178 0
153 173 0
162 181 31
166 185 31
170 188 59
176 196 65
169 189 52
175 195 85
174 194 0
165 185 0
168 188 0
172 192 0
171 191 0
168 188 0
166 187 0
167 187 0
162 183 0
163 183 0
168 189 0
169 189 0
161 181 0
164 183 0
165 185 0
164 184 0
161 181 0
165 185 0
162 182 0
165 185 0
155 175 0
164 184 0
151 171 0
164 183 0
162 181 0
159 178 0
160 181 0
160 180 0
160 179 0
154 175 23
90 113 85
54 83 72
58 89 100
57 87 92
59 90 96
57 86 84
58 87 96
59 89 104
58 88 104
57 87 88
58 88 95
60 91 100
60 92 103
58 88 94
59 89 107
60 91 107
59 89 96
59 90 103
58 89 92
58 89 106
61 92 108
58 88 92
59 90 105
59 88 103
58 88 92
60 91 95
61 92 109
62 93 113
63 96 117
59 89 91
60 90 115
57 87 95
58 88 103
60 91 108
59 90 106
61 92 119
57 86 103
59 89 101
57 86 105
60 92 110
57 87 102
62 94 104
59 90 100
60 90 97
58 88 103
60 91 100
59 89 102
59 90 100
59 90 106
56 85 99
58 88 98
61 92 103
60 91 100
59 89 99
60 90 107
58 88 91
53 81 88
58 88 100
59 90 97
59 89 112
60 91 112
60 91 113
56 85 93
59 89 97
56 85 83
57 86 91
55 83 86
54 80 83
52 78 79
54 81 88
51 77 82
51 76 75
55 83 83
84 104 60
145 160 31
147 162 0
153 171 0
149 167 0
155 171 0
155 171 0
146 164 0
154 171 0
152 168 0
146 161 0
151 167 0
147 163 0
149 165 0
152 168 0
157 173 0
153 167 0
158 175 0
159 175 0
151 168 0
157 175 0
158 174 0
159 175 0
158 174 0
162 179 0
154 170 0
156 170 0
166 183 0
157 173 0
168 186 0
154 169 0
127 135 35
87 82 25
81 78 23
96 91 31
93 89 25
97 93 23
98 93 5
93 88 18
103 98 25
93 91 30
91 87 15
102 98 30
90 88 18
88 85 23
97 93 25
114 108 32
107 104 25
112 108 33
112 108 28
112 108 31
99 95 30
109 107 25
118 114 26
124 120 33
114 109 33
115 111 40
115 111 34
117 113 36
118 114 31
117 113 36
121 116 44
114 108 30
132 127 45
114 110 44
120 114 43
121 117 43
128 123 50
120 117 39
126 121 25
123 119 41
135 131 52
132 127 43
127 123 43
136 130 42
130 126 43
139 133 54
139 133 52
133 128 55
137 132 41
132 127 39
133 128 43
132 128 48
131 126 48
134 128 41
133 127 45
131 125 50
140 134 45
127 122 46
143 137 60
126 122 31
147 142 58
131 127 42
137 133 35
141 135 57
136 130 49
136 131 52
130 126 37
139 134 46
139 133 58
141 135 46
134 129 50
141 136 50
143 138 60
133 128 48
143 137 50
147 142 59
145 139 56
146 140 52
141 136 62
142 136 55
148 142 56
142 137 53
155 149 64
145 139 55
146 141 52
144 138 59
143 138 55
145 139 53
146 140 55
144 140 53
145 140 50
136 131 53
137 132 55
144 139 56
149 143 64
139 133 56
141 135 50
139 134 52
145 139 61
141 135 60
141 135 57
143 139 56
152 145 64
139 134 63
142 137 59
140 134 59
149 142 57
132 128 55
145 139 60
142 137 57
138 132 61
137 131 55
147 140 65
152 146 72
145 140 69
146 141 60
148 142 56
144 138 61
138 132 50
145 139 57
142 137 61
136 131 59
150 144 65
146 140 63
148 142 66
148 142 63
141 135 53
145 140 61
133 129 53
151 144 63
135 129 53
129 126 59
131 127 57
178 198 0
173 193 0
178 199 0
174 195 0
177 197 0
172 194 0
175 195 0
172 192 0
172 193 0
174 195 0
173 194 0
178 199 0
173 193 0
172 192 0
172 192 0
171 191 0
177 198 0
177 197 0
174 194 52
181 200 104
178 198 71
178 199 76
183 203 97
179 199 89
182 202 89
177 197 85
179 199 76
182 201 114
183 202 104
182 202 108
183 203 97
181 200 111
185 205 123
180 199 81
182 202 76
178 198 93
181 202 89
178 198 108
181 201 104
179 198 76
179 200 93
183 204 101
176 197 65
176 197 93
177 198 81
177 197 89
175 195 81
180 199 85
179 199 93
175 196 59
179 199 71
170 189 71
176 197 89
177 197 89
174 194 101
177 197 52
177 198 89
176 196 108
179 200 93
176 196 81
178 199 104
180 199 65
173 193 85
174 195 76
178 199 93
176 197 97
173 194 89
174 195 65
180 201 89
178 199 71
180 200 89
175 196 81
177 197 59
178 197 71
173 194 81
176 195 71
177 198 85
178 198 76
176 197 59
175 195 81
175 195 71
176 196 43
181 201 93
174 194 71
174 194 71
176 196 85
173 194 71
178 197 71
176 195 76
173 193 81
173 194 97
176 195 81
174 193 76
180 199 97
174 194 93
176 196 93
175 194 81
179 199 89
174 194 76
173 192 76
174 193 89
171 190 71
168 187 76
174 194 101
176 195 97
170 188 81
173 191 104
174 193 111
178 197 114
170 188 85
171 191 71
175 193 104
167 187 97
166 184 71
162 180 31
157 176 0
159 178 0
161 179 0
152 170 0
154 171 0
160 179 0
147 165 0
159 178 0
160 178 31
157 176 0
163 182 0
160 179 0
170 189 31
164 182 43
168 187 52
176 194 81
177 196 104
165 184 0
170 191 0
176 196 0
164 184 0
170 191 0
168 188 0
164 184 0
169 189 0
164 183 0
171 191 0
163 183 0
165 186 0
163 183 0
168 188 0
170 190 0
159 178 0
168 187 0
158 179 0
168 188 0
166 187 0
161 180 0
166 186 0
167 188 0
156 175 0
165 185 0
160 179 0
158 177 0
163 182 0
157 176 0
154 173 0
154 174 0
150 169 2
91 114 93
61 93 106
57 86 81
60 91 110
61 93 103
56 85 90
56 85 97
57 88 98
61 93 106
56 85 89
59 89 101
59 89 94
57 87 94
59 89 95
61 92 113
58 88 109
58 88 95
58 88 102
57 87 95
59 90 100
61 93 118
60 90 106
58 88 97
60 91 117
57 87 98
60 91 109
59 90 104
59 90 111
59 90 95
60 91 103
56 86 102
57 86 101
61 92 110
60 91 104
62 94 101
59 90 108
57 87 106
58 87 109
60 91 103
61 91 116
58 88 97
57 86 101
62 93 118
57 86 101
60 91 100
58 89 111
58 88 100
59 90 97
58 88 100
59 90 117
55 83 92
62 92 103
57 85 94
57 85 96
58 88 113
60 90 109
56 84 92
59 88 105
56 85 88
54 82 92
52 78 83
52 80 83
58 87 90
58 88 101
54 81 89
52 78 80
53 80 79
54 81 84
53 79 69
51 78 91
52 78 82
70 88 48
153 170 23
149 165 0
147 165 0
141 158 0
150 165 0
146 164 0
153 169 0
154 170 0
149 165 0
151 166 0
156 173 0
142 158 0
155 171 0
149 167 0
153 168 0
153 168 0
156 172 0
149 163 0
157 174 0
153 170 0
158 173 0
148 163 0
148 164 0
150 165 0
155 169 0
151 166 0
159 176 0
160 174 0
159 175 0
163 180 0
159 172 0
159 173 0
130 134 34
89 82 31
98 93 28
104 98 36
82 80 20
95 91 26
111 107 34
86 82 15
91 88 20
99 96 21
96 93 32
94 90 23
97 95 23
107 103 28
100 96 25
111 108 25
104 100 18
99 96 28
101 98 15
117 113 32
100 98 31
109 105 35
120 116 31
105 101 25
118 114 21
120 114 30
120 116 42
121 117 28
123 120 33
125 120 43
114 110 36
117 114 41
126 122 36
118 115 36
124 121 42
131 127 41
135 128 49
128 125 40
126 121 41
126 122 42
130 124 45
123 119 39
132 127 47
132 127 39
124 121 39
133 127 52
136 131 47
139 133 54
136 130 52
119 115 46
134 129 45
133 129 47
138 134 43
127 123 48
129 125 46
132 126 39
135 130 53
131 125 39
143 137 56
134 130 45
137 132 51
139 134 54
140 133 59
134 130 41
133 128 50
134 129 50
141 135 46
130 125 46
144 139 48
134 129 48
138 134 48
134 128 48
141 136 55
138 131 52
141 136 56
146 140 61
137 131 48
143 137 63
142 136 50
142 137 56
136 130 34
137 134 46
143 137 57
139 133 39
142 136 56
134 129 46
141 136 57
146 141 59
141 133 56
146 139 59
150 144 62
146 140 60
143 136 57
142 138 53
135 130 55
138 133 46
136 130 53
135 130 52
140 135 59
140 135 55
137 131 57
145 140 57
146 140 60
145 140 63
142 136 61
135 131 48
149 143 61
140 135 53
146 141 57
152 146 64
142 136 57
140 134 61
147 140 63
136 130 64
137 133 56
145 139 60
139 134 55
133 129 55
135 129 53
142 135 66
135 130 53
129 124 45
139 133 55
131 125 63
142 137 63
139 134 59
126 121 45
129 125 41
145 138 60
142 136 67
135 130 61
147 141 61
173 194 0
173 192 0
177 198 0
179 200 0
176 196 0
176 196 0
175 196 0
175 195 0
173 193 0
174 195 0
172 192 0
175 194 0
175 196 0
174 195 0
178 199 0
175 195 0
174 194 0
175 196 0
172 192 0
173 194 43
179 199 93
174 194 65
177 197 59
178 198 85
182 201 120
174 194 71
178 198 76
181 201 89
178 197 76
182 201 85
181 200 101
188 206 133
184 204 128
183 202 104
180 199 104
182 201 101
182 201 114
174 194 93
181 201 114
181 200 93
179 198 104
173 193 71
177 198 85
179 200 97
182 202 97
176 196 93
176 196 85
180 201 104
178 199 81
175 195 85
179 200 89
178 198 81
181 202 104
176 196 76
181 201 93
176 196 59
177 198 89
174 195 85
174 196 101
175 195 89
174 195 71
182 204 101
179 198 93
175 196 76
178 199 93
172 192 81
175 195 71
176 196 104
175 196 76
177 197 85
176 196 85
173 194 89
176 196 65
175 195 101
176 196 85
170 190 65
178 198 101
176 195 81
172 193 65
172 191 81
174 193 89
178 199 108
173 193 89
176 196 65
173 192 52
177 197 76
175 194 71
178 198 85
173 193 97
173 193 59
178 197 85
172 191 85
168 187 93
169 188 65
179 199 85
177 196 89
173 192 81
178 198 93
171 190 101
180 199 104
172 190 81
171 189 111
174 193 104
173 192 128
175 193 114
177 194 117
178 196 120
172 191 81
169 188 93
172 190 81
163 183 76
168 187 65
168 186 52
165 184 0
155 173 0
154 173 0
161 179 0
157 174 0
159 177 0
154 174 0
157 176 0
159 177 0
154 172 0
161 180 31
158 177 0
161 181 0
161 180 43
174 193 71
169 189 43
167 185 71
172 190 76
164 183 0
165 184 0
164 184 0
170 191 0
160 179 0
165 186 0
163 183 0
164 185 0
157 178 0
165 185 0
166 186 0
166 185 0
158 178 0
170 189 0
166 186 0
167 187 0
168 189 0
161 181 0
160 180 0
162 181 0
164 182 0
161 181 0
163 183 0
164 185 0
159 180 0
155 175 0
160 180 0
159 179 0
162 182 0
163 182 0
163 183 0
160 179 0
153 172 0
147 167 31
78 101 74
58 88 89
59 90 92
55 85 94
58 88 90
57 87 74
56 86 95
57 87 96
57 87 102
58 88 109
59 90 104
60 90 107
59 89 114
59 89 88
59 89 107
58 88 93
58 88 101
57 87 109
59 91 98
63 95 109
60 92 101
61 93 108
61 92 114
59 90 96
60 91 100
62 94 112
57 87 91
55 84 93
56 85 92
61 93 107
57 86 96
59 88 109
59 90 103
55 84 100
60 91 108
60 90 101
57 87 98
59 90 98
58 88 98
59 89 99
57 86 101
62 94 101
59 90 108
58 89 107
59 91 87
55 83 101
56 85 99
57 86 97
58 87 89
56 85 94
56 85 89
57 87 97
55 84 77
60 91 102
55 82 94
58 86 95
56 85 98
58 87 93
57 85 101
56 85 78
55 84 93
57 87 93
54 82 86
56 85 88
51 77 82
53 80 79
51 76 65
49 74 60
50 75 72
84 101 66
136 152 0
148 164 0
146 161 0
141 157 0
153 170 0
146 161 0
139 156 0
146 160 0
144 157 0
153 168 0
152 168 0
145 159 0
150 163 0
147 162 0
153 170 0
150 165 0
156 174 0
150 165 0
152 166 0
142 158 0
148 163 0
156 172 0
155 171 0
156 172 0
158 174 0
153 167 0
151 165 0
148 163 0
155 169 0
160 175 0
143 157 0
150 167 0
157 170 0
160 173 0
126 130 25
87 81 15
100 94 23
89 82 28
96 92 26
93 88 30
106 101 25
95 91 15
103 99 25
93 88 25
87 83 18
102 97 20
87 83 5
104 99 25
100 96 30
102 97 25
108 105 26
106 103 25
110 106 32
115 110 35
110 106 20
107 102 28
109 106 26
113 109 25
116 110 34
108 105 34
119 115 28
111 106 30
124 119 28
122 118 35
121 115 34
114 110 34
134 131 44
114 110 34
135 128 43
130 123 50
121 116 41
126 122 31
121 114 48
126 121 45
125 121 25
126 120 39
142 137 57
122 118 39
125 120 43
136 131 46
137 133 47
133 127 49
138 132 50
129 124 41
130 126 43
132 128 45
124 118 26
129 124 39
131 127 34
133 128 43
135 127 48
132 127 47
134 130 39
132 127 50
139 133 58
129 124 50
137 131 50
130 126 41
149 143 57
139 134 50
136 131 48
131 127 46
139 134 53
139 132 52
137 131 46
141 136 60
139 134 52
132 127 43
137 131 45
143 137 52
138 132 45
139 132 52
141 137 46
136 130 48
130 126 48
148 140 57
148 143 59
135 130 41
129 124 45
139 135 48
144 138 68
136 130 50
132 127 45
142 137 56
143 137 59
140 135 46
150 144 57
137 132 57
143 138 61
137 132 57
133 128 53
150 142 64
136 129 59
139 133 53
142 136 56
136 132 46
142 136 63
133 127 53
147 141 66
140 134 53
140 135 45
134 129 52
141 136 48
138 132 50
144 139 60
148 143 60
139 134 59
143 137 63
141 135 61
137 131 56
141 137 55
142 136 53
146 140 59
135 130 55
140 134 64
141 135 56
138 132 53
139 134 56
137 130 48
149 143 64
136 132 53
141 136 53
138 132 53
137 132 55
131 125 64
179 199 31
175 195 0
171 192 31
177 197 0
174 194 0
172 193 0
179 199 0
179 200 0
172 193 0
175 195 0
177 197 0
175 196 0
171 192 0
176 195 0
173 193 0
178 198 0
175 197 0
176 197 0
175 197 0
174 194 0
171 191 0
176 197 43
182 201 76
175 195 76
173 193 65
179 198 97
184 204 108
178 198 93
178 198 97
179 199 85
175 195 76
178 197 76
175 196 101
184 203 125
181 200 108
186 206 120
184 203 128
183 202 111
186 206 120
178 198 76
181 201 108
175 194 101
183 203 97
181 202 89
180 200 89
176 196 89
182 202 111
182 203 93
176 195 85
172 192 111
176 196 93
176 197 93
178 198 65
180 200 81
177 197 97
172 191 65
177 198 85
177 197 97
180 200 108
178 198 85
178 197 81
176 196 81
180 199 43
173 194 76
179 199 85
176 196 59
179 200 85
178 197 71
179 200 89
176 196 81
175 195 71
180 200 71
183 203 101
173 193 65
172 192 65
177 197 93
172 189 76
173 193 76
176 196 85
171 191 93
175 196 85
170 190 76
174 193 81
176 195 104
175 195 81
174 193 76
173 193 93
171 190 85
175 194 59
174 193 89
175 194 93
171 190 101
175 193 93
172 191 97
175 195 89
172 189 93
173 192 81
176 195 76
179 198 93
177 196 89
176 195 85
175 192 97
174 192 111
175 194 108
176 194 104
174 193 101
172 191 43
170 189 89
178 196 89
176 194 81
163 182 43
160 179 0
161 179 0
162 180 0
160 178 0
158 176 0
159 178 0
160 179 0
154 174 0
162 181 0
160 178 0
165 185 0
167 187 0
163 184 0
163 183 0
168 187 43
170 189 52
170 188 59
171 190 52
174 193 76
167 186 0
172 192 0
166 186 0
166 185 0
162 181 0
166 186 0
163 183 0
166 186 0
164 184 0
168 186 0
167 187 0
169 190 0
151 171 0
164 184 0
165 184 0
163 183 0
164 184 0
157 176 0
161 180 0
168 187 0
161 180 0
157 177 0
164 183 0
159 180 0
154 173 0
151 170 0
157 176 0
159 180 0
156 176 0
158 177 0
153 171 0
151 170 0
155 175 0
162 181 0
150 170 0
150 170 0
103 125 73
60 91 90
57 86 95
59 90 87
51 79 78
56 85 90
58 88 99
59 90 86
58 89 95
55 84 87
61 92 115
57 87 96
57 87 92
59 89 104
60 91 103
59 89 98
55 82 99
58 88 94
61 92 106
57 86 98
57 85 97
61 92 118
58 88 101
61 92 109
58 88 99
56 85 93
61 92 109
59 90 104
55 84 89
61 92 110
60 91 114
60 91 99
58 87 97
63 95 114
57 86 92
60 91 105
56 86 93
57 86 94
59 89 100
59 88 112
58 87 86
57 86 100
56 85 98
59 90 106
61 92 111
59 89 98
57 86 94
57 85 98
62 93 114
56 85 83
57 86 108
52 79 86
53 81 91
58 87 99
59 89 105
55 82 96
54 80 86
53 80 90
59 88 111
55 82 104
54 83 70
57 85 101
55 83 79
51 77 84
54 81 85
53 79 80
52 79 84
94 111 62
137 151 8
139 155 0
140 155 0
133 149 0
148 164 0
142 157 0
143 159 0
137 153 0
141 156 0
143 158 0
150 166 0
144 159 0
148 164 0
145 160 0
142 157 0
140 154 0
139 154 0
148 161 0
155 170 0
139 152 0
145 160 0
149 164 0
147 162 0
148 160 0
149 162 0
150 164 0
154 168 0
143 158 0
148 163 0
144 157 0
151 164 0
152 165 0
150 164 0
153 165 0
145 157 0
153 167 0
140 149 0
109 103 30
100 96 34
98 93 25
88 83 15
95 88 30
93 89 21
94 92 0
99 94 30
103 98 28
93 90 15
105 101 26
100 94 25
96 93 2
109 106 26
103 99 25
99 95 32
105 102 25
115 111 30
108 105 26
101 97 23
118 114 28
110 107 34
125 119 40
118 115 35
131 125 41
109 107 25
114 110 31
126 122 47
115 110 30
126 121 40
121 117 28
128 123 41
128 124 41
126 121 37
128 123 46
123 118 30
125 122 41
126 122 37
126 121 41
129 123 34
136 131 50
123 119 28
123 117 41
129 124 49
132 127 45
127 121 39
138 134 55
135 130 46
134 129 28
134 127 36
130 125 46
130 125 44
136 130 40
134 130 45
127 122 42
132 127 37
133 127 41
134 130 36
122 118 39
139 135 44
130 125 39
138 133 48
139 133 57
137 132 40
139 134 43
133 128 48
128 124 46
140 134 48
135 130 48
136 133 41
138 132 45
133 128 44
142 137 50
144 138 58
138 133 48
144 138 47
147 142 61
129 125 31
135 129 46
142 135 53
143 136 51
139 134 59
147 142 50
137 134 50
137 131 48
141 135 55
137 131 55
138 134 50
145 138 56
136 129 46
135 130 43
135 130 55
132 127 45
137 132 52
136 131 48
137 132 55
136 131 50
142 137 60
139 134 55
133 128 46
149 141 65
137 131 48
122 118 50
146 140 63
143 137 60
138 133 57
131 126 50
143 137 61
146 139 59
144 139 59
139 135 57
140 136 57
132 126 48
147 140 66
135 130 50
135 129 59
140 134 59
133 129 50
133 128 55
139 134 50
141 135 59
137 131 52
136 132 53
143 136 56
146 140 63
132 127 53
138 133 53
134 129 55
140 136 60
174 194 0
174 194 0
178 199 0
168 189 0
179 199 0
177 197 0
177 196 31
176 197 0
175 196 0
178 199 0
173 194 0
173 194 0
175 194 0
173 193 0
177 196 0
175 195 0
176 196 0
173 193 0
175 195 0
174 194 0
170 190 0
173 193 0
175 195 0
176 196 43
182 201 111
174 193 71
175 196 59
184 203 97
177 198 93
180 199 108
179 199 89
182 202 108
176 196 59
177 198 65
181 200 97
179 198 97
183 201 120
181 201 108
182 202 104
176 195 85
179 198 117
179 198 111
176 197 97
177 196 89
177 197 85
179 198 111
177 196 97
175 194 85
178 197 101
181 201 89
179 200 111
179 200 101
178 198 89
180 200 104
182 201 81
179 199 65
176 196 76
179 199 85
177 197 76
178 199 85
174 193 59
177 196 71
177 196 104
175 196 85
175 195 85
177 197 71
181 201 114
174 194 93
178 198 85
178 198 101
176 196 85
172 192 76
176 196 65
178 198 89
178 200 111
176 195 52
180 200 81
178 198 101
178 197 81
176 195 85
176 195 85
179 198 108
174 194 97
177 195 76
175 194 71
173 192 85
178 198 93
179 197 101
174 193 43
177 196 89
178 197 71
177 196 81
175 193 89
177 194 97
177 196 97
178 197 81
177 195 97
172 189 89
174 191 111
169 187 104
176 193 101
179 197 128
179 196 123
170 188 71
172 191 81
167 185 93
172 191 81
164 183 71
157 176 52
158 177 0
155 173 0
162 181 0
148 167 0
163 182 0
162 180 0
161 180 0
159 177 0
162 180 0
164 183 0
164 182 0
164 184 0
159 178 0
159 178 0
159 177 0
168 187 52
162 181 31
172 191 52
172 191 76
170 189 71
168 187 0
168 187 0
164 184 0
168 187 0
165 185 0
162 181 0
160 179 0
164 183 0
165 185 0
164 184 0
168 188 0
163 182 0
163 184 0
157 178 0
160 180 0
156 176 0
162 181 0
166 186 0
158 179 0
161 180 0
161 180 0
170 189 0
164 184 0
154 173 0
159 178 0
150 170 0
157 176 0
153 172 0
156 175 0
154 173 0
152 171 0
149 169 0
153 172 0
153 172 0
148 167 0
144 162 0
151 169 0
142 160 0
111 131 53
56 85 91
54 82 68
58 88 92
58 87 95
57 88 87
59 89 99
58 89 92
58 88 91
56 85 92
57 86 103
55 84 94
57 86 85
57 86 86
56 86 88
57 86 98
60 91 101
59 89 103
60 91 106
59 90 97
57 86 85
58 88 99
56 85 90
59 89 94
57 87 100
57 87 94
56 85 100
59 89 94
58 88 98
58 88 102
58 88 94
55 84 99
59 89 92
58 88 97
56 85 95
58 88 112
59 89 102
56 86 89
58 88 95
59 89 101
57 86 89
56 85 90
58 88 100
56 85 94
56 85 94
55 84 98
60 89 108
59 89 98
53 81 84
60 91 105
58 88 110
58 86 104
55 83 93
55 82 88
56 85 81
54 81 86
56 84 90
57 85 101
53 81 86
53 81 69
54 80 92
50 75 69
52 79 76
51 77 68
52 79 72
102 118 50
132 145 0
131 146 0
142 155 0
138 154 0
133 149 0
148 164 0
140 156 0
138 153 0
125 139 0
146 160 0
151 167 0
142 157 0
134 145 0
150 166 0
137 151 0
141 157 0
147 161 0
144 158 0
146 160 0
149 164 0
148 163 0
147 162 0
146 159 0
146 160 0
143 154 0
136 148 0
145 159 0
150 162 0
140 151 0
155 168 0
144 153 0
149 162 0
142 152 0
146 158 0
143 153 0
147 161 0
149 160 0
144 154 0
139 147 23
100 95 28
99 93 31
96 90 11
107 102 26
93 89 0
84 79 15
101 96 32
99 96 21
104 99 11
103 98 18
95 91 25
100 96 15
109 104 26
105 100 20
94 90 23
93 90 23
107 105 31
117 113 34
120 114 34
119 116 39
121 116 35
117 113 30
116 111 39
112 108 32
108 106 23
117 114 40
103 100 20
119 115 31
114 111 40
115 112 31
121 116 25
125 121 36
130 124 41
121 117 36
117 112 28
121 116 41
118 113 42
122 117 39
130 125 45
113 109 34
114 109 43
122 117 42
128 124 40
134 129 42
130 125 41
122 118 37
132 127 46
126 121 28
138 132 50
138 133 45
130 125 41
135 130 44
130 123 35
118 113 34
134 128 42
124 119 41
134 129 47
133 129 50
136 130 48
136 130 45
143 137 48
140 133 56
137 131 50
137 131 53
132 128 46
135 132 45
139 134 41
138 134 39
148 143 57
138 133 46
138 133 41
141 136 50
145 140 43
144 138 52
133 129 48
144 139 59
130 124 46
142 137 56
148 143 55
141 135 53
144 138 57
140 135 46
148 141 57
128 124 48
132 127 53
139 133 59
137 132 56
132 127 39
139 134 41
135 129 50
146 139 60
144 137 57
141 134 60
130 124 46
143 137 53
138 132 57
137 131 53
149 143 61
136 132 52
143 137 59
135 128 50
147 140 60
127 122 48
131 126 50
134 129 56
134 128 55
141 137 50
142 136 53
139 133 59
131 125 43
144 139 63
146 139 65
134 129 56
141 136 50
139 133 60
134 129 52
144 138 63
143 137 57
142 137 57
141 136 61
143 136 59
137 132 60
138 131 56
146 141 66
136 130 59
136 130 48
124 119 48
144 138 66
174 194 0
176 198 0
174 194 31
173 194 31
177 197 0
173 194 0
175 195 0
174 195 0
177 197 0
176 196 0
177 197 0
178 199 0
172 192 0
175 196 0
170 190 0
176 196 0
172 192 0
176 197 0
174 195 0
176 196 0
176 197 0
171 192 0
177 198 0
172 191 0
175 194 0
177 197 52
179 199 52
179 199 101
180 200 71
177 196 59
183 202 111
179 198 108
179 198 85
177 197 71
176 196 52
183 203 97
185 204 104
183 202 111
188 206 123
182 201 101
182 201 108
181 200 114
188 208 123
179 198 101
184 202 114
182 202 108
182 201 97
177 198 81
180 200 114
180 200 76
173 192 97
184 203 108
179 198 101
180 199 101
179 199 104
179 199 71
178 198 89
177 196 89
177 196 81
177 197 81
179 200 85
180 199 85
177 197 93
177 196 85
168 187 59
177 197 71
181 201 81
180 199 81
179 199 108
170 190 85
175 194 85
178 197 93
173 193 101
180 201 101
177 196 85
174 193 59
177 196 59
179 198 65
180 200 111
177 197 81
180 199 89
179 199 93
180 200 97
179 198 76
175 194 114
176 195 97
178 197 97
173 191 93
173 192 85
175 194 114
174 192 97
173 192 97
179 197 97
176 194 81
177 195 101
177 195 117
166 184 101
173 190 120
180 198 117
172 191 89
176 194 101
172 191 89
173 192 85
173 192 85
167 185 85
168 187 71
166 185 59
164 183 0
167 186 0
152 170 0
156 174 0
157 175 0
160 177 0
156 175 0
155 172 0
164 183 0
160 179 0
169 189 0
161 179 0
159 178 0
157 175 0
160 179 31
172 190 65
164 183 0
170 188 52
167 187 31
171 191 85
171 190 65
174 194 0
174 193 0
164 183 0
163 182 0
168 186 0
164 183 0
162 181 0
159 179 0
161 180 0
164 184 0
166 186 0
161 179 0
155 175 0
165 185 0
157 177 0
160 180 0
164 183 0
162 180 0
157 177 0
161 182 0
153 171 0
163 183 0
158 177 0
148 166 0
159 178 0
162 182 0
152 172 0
149 168 0
155 174 0
163 182 0
151 171 0
158 176 0
145 165 0
149 167 0
140 158 0
148 166 0
152 169 0
156 174 0
144 162 0
149 167 0
115 134 43
65 91 81
53 80 82
57 87 84
57 87 90
55 83 93
55 83 87
55 83 87
56 85 96
57 86 90
60 90 94
60 91 100
57 87 87
53 81 80
58 88 97
59 89 98
58 88 89
57 88 91
57 87 88
59 88 101
57 87 96
57 87 85
60 91 88
59 89 110
56 86 89
59 90 102
60 91 116
63 95 112
61 92 110
59 89 105
55 84 76
60 91 105
57 86 84
57 86 99
58 87 98
56 85 78
61 91 86
58 88 90
58 88 89
57 87 92
55 85 97
59 89 98
60 90 85
56 85 93
54 82 91
59 89 94
55 84 91
56 84 93
57 86 99
57 85 94
57 86 79
55 84 89
57 86 89
54 82 85
55 83 88
58 87 97
56 84 93
55 82 93
52 77 81
55 82 92
50 76 83
51 77 65
54 77 71
118 131 31
130 145 0
133 147 0
135 148 0
135 150 0
135 148 0
130 145 0
136 149 0
136 150 0
140 156 0
138 152 0
145 161 0
141 156 0
142 158 0
136 150 0
139 153 0
139 154 0
143 156 0
138 153 0
138 152 0
152 168 0
140 154 0
139 153 0
134 145 0
139 150 0
144 156 0
136 146 0
143 156 0
147 160 0
147 157 0
137 147 0
144 155 0
144 156 0
150 161 0
145 154 0
150 160 0
140 149 0
146 157 0
157 167 0
145 153 0
148 158 0
127 136 0
106 108 28
84 78 20
88 84 25
87 82 25
106 99 25
88 82 22
98 93 26
93 88 15
102 95 18
95 92 18
100 95 15
111 104 26
96 91 26
101 97 5
112 108 32
104 99 25
101 95 15
99 95 25
105 100 20
109 105 38
102 98 26
109 107 25
114 108 25
113 109 26
123 118 36
112 107 25
122 117 36
113 107 28
120 116 37
103 100 23
124 119 37
117 112 35
127 122 47
117 113 31
127 120 37
129 124 31
123 118 31
130 125 42
122 117 28
125 120 41
127 121 31
134 127 36
118 113 41
130 126 39
134 128 35
130 125 39
122 117 45
131 127 41
135 129 50
125 120 42
127 122 45
129 123 34
126 121 47
132 128 46
124 118 43
137 131 43
126 121 43
132 126 39
124 120 39
132 127 39
133 128 36
139 134 54
118 114 28
132 126 39
133 128 45
131 125 41
146 140 52
129 124 45
145 140 48
138 133 52
131 127 32
139 135 52
136 130 55
138 132 48
133 128 45
136 131 52
130 125 50
138 132 45
139 132 50
140 134 63
129 124 41
135 130 53
140 135 55
137 131 48
142 135 46
141 135 61
130 125 46
134 129 48
138 132 48
125 119 43
141 136 56
137 132 46
141 135 61
144 138 57
144 137 56
133 128 41
140 134 57
132 127 43
131 127 48
142 135 64
133 129 45
139 132 50
144 138 59
138 131 55
139 133 52
134 129 52
137 132 52
136 129 55
131 125 52
140 135 55
125 120 46
145 139 53
132 126 56
146 140 65
140 135 52
134 128 52
134 128 52
147 141 67
137 132 50
130 124 56
142 136 59
131 127 50
131 126 57
136 129 57
135 131 61
133 128 46
145 138 63
173 194 0
174 194 0
174 195 0
173 193 0
176 197 0
177 198 0
176 196 0
176 196 0
178 199 0
173 194 0
170 191 0
175 196 0
175 194 0
176 197 0
176 196 0
176 196 0
175 195 0
174 194 0
174 193 0
177 198 0
171 191 0
177 198 0
171 191 0
166 186 0
172 192 0
172 192 0
174 194 0
176 196 31
177 197 52
176 196 76
181 201 85
178 199 65
179 199 71
179 199 97
177 196 97
180 199 71
178 197 59
177 197 65
177 197 89
178 197 85
181 201 104
180 200 76
183 201 101
188 206 117
182 201 114
184 203 128
184 203 108
180 199 108
177 196 104
183 202 114
185 204 125
181 199 101
178 198 76
179 199 108
183 202 120
178 196 101
175 195 85
181 199 104
180 200 101
178 198 85
185 205 123
182 202 97
178 198 93
178 197 85
178 197 97
176 195 101
179 199 93
174 193 85
173 192 97
181 200 81
180 199 85
180 200 85
175 194 76
176 195 81
176 195 81
179 198 101
179 198 97
180 198 81
177 196 101
172 190 89
179 196 76
175 193 81
179 198 111
182 200 93
181 199 108
177 196 97
176 194 89
182 201 89
175 193 108
176 194 104
175 195 101
171 192 97
180 198 117
176 195 120
170 187 97
182 200 120
175 193 108
167 186 59
171 191 65
168 187 81
167 185 85
172 191 89
169 188 65
169 188 65
158 176 31
149 170 0
168 187 0
156 175 0
165 182 0
157 176 0
162 180 0
156 174 0
161 180 0
166 185 0
151 168 0
157 175 0
162 181 0
161 180 0
159 178 0
158 177 0
162 180 0
170 189 59
160 178 59
169 189 43
169 188 31
173 191 101
167 187 31
171 190 0
161 180 0
168 187 0
160 178 0
173 192 0
165 184 0
167 187 0
158 178 0
160 179 0
160 179 0
160 179 0
164 183 0
158 177 0
170 190 0
157 175 0
158 178 0
159 178 0
151 171 0
166 186 0
152 171 0
156 175 0
155 174 0
163 182 0
163 181 0
153 172 0
159 178 0
155 174 0
157 175 0
154 172 0
152 171 0
160 179 0
153 172 0
147 166 0
150 168 0
145 162 0
140 158 0
133 150 0
146 163 0
146 164 0
142 161 0
137 155 0
139 156 0
135 152 23
75 98 72
56 86 90
55 84 87
56 85 72
58 88 94
57 87 87
58 88 101
54 82 86
58 88 87
58 89 88
59 90 91
58 88 92
57 87 85
56 85 77
55 83 89
61 92 111
56 86 100
56 85 86
55 84 79
56 85 78
53 80 80
58 88 89
55 85 86
57 87 95
56 86 85
57 87 94
60 91 98
56 85 88
59 90 102
55 85 92
54 83 90
59 90 99
59 90 110
57 87 91
56 86 98
56 85 88
54 82 97
56 85 95
58 87 94
57 86 89
58 87 101
57 87 99
56 86 88
54 81 86
57 86 86
53 81 84
57 85 97
57 86 94
54 83 75
55 83 88
55 83 84
57 84 90
54 81 94
52 80 84
55 83 88
55 83 74
53 79 76
53 80 82
49 74 65
71 89 69
119 136 37
123 137 0
130 143 0
127 140 0
121 134 0
138 152 0
130 143 0
133 145 0
128 143 0
144 158 0
140 153 0
137 152 0
141 156 0
127 142 0
141 155 0
136 151 0
145 159 0
146 161 0
130 143 0
148 162 0
145 158 0
137 148 0
145 158 0
148 162 0
138 150 0
135 147 0
137 148 0
133 144 0
129 140 0
138 148 0
140 152 0
141 151 0
137 147 0
135 144 0
141 151 0
139 149 0
135 147 0
158 171 0
142 150 0
143 151 0
144 154 0
145 155 0
144 153 0
141 149 0
110 110 21
102 96 40
97 90 15
85 80 20
98 92 25
99 95 20
95 90 16
98 94 18
96 92 25
91 87 15
101 95 28
107 103 28
96 92 25
100 93 20
109 103 28
97 94 25
110 106 18
112 107 23
115 110 30
115 109 31
111 106 28
110 105 31
113 107 37
115 111 25
120 114 25
116 112 30
108 106 25
124 118 27
116 111 28
119 113 34
124 118 32
118 114 34
126 121 45
122 117 28
130 125 40
128 121 34
126 121 45
125 120 34
122 116 36
122 117 32
130 125 47
131 127 31
128 122 48
127 122 35
129 123 34
127 121 46
123 118 32
130 126 36
128 124 39
120 114 37
131 125 40
127 121 44
133 128 31
141 134 52
133 128 34
128 124 39
138 132 31
129 123 49
134 129 39
129 125 39
134 129 47
139 132 41
129 125 48
131 126 43
131 125 47
126 121 46
141 136 46
140 136 50
138 132 52
136 131 52
132 127 43
132 127 48
139 133 48
137 131 45
141 136 48
132 126 48
138 133 46
132 128 41
143 137 50
138 132 50
141 135 60
139 133 52
131 125 46
142 136 48
137 132 48
138 133 53
134 130 56
142 136 48
143 138 55
138 132 52
143 137 59
136 130 50
130 125 48
131 125 45
134 128 53
141 136 46
135 129 52
134 129 48
138 134 50
136 131 43
134 129 48
137 130 52
135 130 52
147 141 59
149 143 63
136 132 50
140 134 52
138 131 55
132 127 53
136 130 59
131 125 50
140 134 52
134 129 53
133 128 36
134 129 53
137 131 52
144 138 53
124 119 45
139 134 61
136 131 56
142 135 67
133 128 57
132 126 45
141 136 50
128 121 53
131 125 45
171 191 0
168 187 0
176 196 43
173 194 0
175 195 0
176 195 31
177 198 0
171 191 0
175 195 0
169 190 0
174 194 0
177 196 0
178 199 0
175 196 0
177 198 0
178 198 0
174 193 0
176 197 0
175 196 0
175 196 0
174 195 0
177 198 0
175 196 0
176 197 0
175 197 0
172 191 0
169 190 0
176 196 0
176 196 0
170 191 0
174 193 59
176 194 71
171 192 59
179 198 81
178 198 85
175 195 85
177 197 71
177 197 89
178 196 93
178 198 81
171 190 59
176 195 71
178 197 76
183 202 93
183 201 117
185 203 117
187 205 125
183 201 123
182 201 117
183 202 117
182 201 101
179 197 104
180 200 93
179 198 104
178 197 97
184 203 123
176 194 85
175 194 101
177 196 97
177 196 89
179 198 108
178 197 108
180 199 104
177 197 85
183 201 104
177 196 104
176 195 71
180 200 97
172 191 85
177 195 97
181 200 93
178 197 97
177 197 93
184 201 89
180 200 123
179 198 93
177 196 104
178 196 97
183 202 111
182 200 117
175 193 85
174 192 71
172 190 89
172 191 97
177 195 81
185 203 108
182 201 111
176 195 97
169 188 97
179 197 125
176 195 114
179 195 117
181 199 104
174 192 85
167 186 89
171 190 81
167 186 76
173 190 93
168 187 85
172 190 89
160 178 76
164 182 59
167 185 0
159 176 0
164 183 0
163 181 0
155 173 0
159 178 0
149 167 0
163 181 0
164 182 0
168 186 0
166 183 0
166 185 0
160 179 0
162 181 0
168 187 0
167 186 0
166 185 0
161 178 43
167 187 71
166 186 59
167 186 65
169 188 59
175 193 81
164 183 0
166 185 0
167 185 0
160 179 0
162 180 0
168 187 0
165 184 0
172 191 0
156 175 0
162 181 0
164 184 0
165 184 0
168 188 0
162 181 0
162 182 0
162 181 0
155 174 0
161 180 0
155 175 0
161 180 0
158 177 0
161 179 0
150 169 0
156 177 0
154 173 0
160 180 0
154 173 0
142 162 0
152 171 0
154 173 0
142 160 0
142 161 0
152 171 0
158 177 0
155 174 0
141 158 0
142 160 0
150 169 0
141 160 0
147 165 0
145 162 0
144 162 0
135 153 0
134 151 0
132 150 0
138 154 0
100 118 43
57 83 88
54 83 71
53 82 72
55 85 87
53 81 91
53 81 79
53 82 71
54 83 77
55 84 87
55 83 86
57 86 76
56 85 99
59 89 100
57 87 100
54 82 82
57 88 72
58 88 93
59 89 104
54 83 78
56 86 89
57 85 92
54 82 96
56 85 90
57 87 92
56 84 88
53 80 90
57 86 88
54 82 85
58 88 101
58 88 100
56 85 96
55 84 83
57 86 94
54 83 91
56 85 90
51 77 82
54 82 81
55 84 90
59 89 90
52 80 73
55 83 96
58 88 109
56 86 90
52 79 70
53 81 69
56 85 89
55 82 83
53 80 88
55 83 77
54 81 90
54 82 84
52 78 72
51 78 72
51 76 83
46 70 69
55 80 77
90 105 37
130 143 0
123 136 0
116 130 0
125 138 0
118 132 0
130 143 0
128 140 0
130 144 0
134 147 0
126 139 0
134 146 0
120 135 0
134 148 0
134 145 0
135 147 0
144 159 0
145 161 0
133 145 0
132 143 0
127 137 0
136 150 0
132 145 0
145 157 0
142 155 0
140 152 0
133 144 0
133 144 0
131 141 0
133 145 0
123 134 0
140 151 0
150 161 0
150 160 0
144 153 0
145 157 0
137 148 0
128 139 0
139 148 0
139 148 0
142 151 0
140 150 0
139 147 0
133 144 0
147 157 0
142 149 0
147 156 0
118 123 20
91 89 26
91 85 15
83 79 28
64 61 11
85 82 23
91 87 0
93 87 15
89 86 11
98 96 20
101 96 26
102 98 23
109 106 18
112 106 37
106 99 0
98 94 18
102 95 23
117 110 35
112 108 20
113 107 20
108 102 0
107 103 20
122 116 32
112 106 26
112 107 34
116 111 23
96 94 30
119 114 28
108 104 18
117 112 23
112 108 35
118 112 32
115 111 31
122 117 34
117 113 26
113 109 21
110 106 25
118 112 41
126 123 36
124 120 43
123 118 30
135 131 39
123 117 30
120 115 31
124 118 41
135 127 45
130 125 31
122 117 34
132 127 46
125 120 36
133 128 39
128 123 36
127 122 46
138 132 40
125 118 41
133 128 41
140 132 47
137 132 43
139 133 45
139 133 49
137 131 50
121 117 30
132 127 46
142 137 45
132 126 53
138 131 52
137 132 46
134 129 43
136 129 50
140 135 50
136 130 39
137 132 48
140 133 46
133 127 43
130 126 36
133 126 48
141 134 53
128 122 39
142 136 53
141 135 55
138 132 50
135 131 41
146 141 60
135 129 45
138 132 45
135 129 46
133 127 43
132 127 45
131 126 48
135 129 50
141 135 48
131 127 41
132 127 57
139 134 50
140 134 56
140 135 56
134 128 48
132 127 50
133 128 57
139 133 56
143 138 56
146 140 53
145 140 61
136 130 57
137 131 48
130 125 52
136 131 55
137 131 53
144 138 55
124 118 46
131 127 48
134 129 50
140 134 56
138 133 57
142 136 66
135 129 53
142 135 57
141 136 56
127 122 52
136 129 59
141 135 52
133 128 53
144 138 64
137 132 50
142 137 50
176 197 0
171 191 0
177 198 43
178 199 0
175 193 0
175 196 0
176 196 0
175 194 0
173 193 0
175 196 0
177 197 0
174 194 0
174 196 0
178 198 0
176 197 0
174 194 0
172 193 0
178 199 0
176 196 0
176 196 0
169 189 0
170 191 0
172 192 0
171 192 0
171 192 0
173 193 0
172 192 0
173 193 0
173 194 0
175 195 0
172 191 0
173 194 0
177 197 0
176 196 52
176 195 59
178 198 76
182 201 101
182 202 81
181 201 76
176 196 65
174 194 76
182 200 93
181 200 93
184 203 93
175 194 59
182 201 97
179 198 85
180 199 85
181 199 89
180 199 108
184 203 117
181 200 104
182 201 104
176 195 93
180 198 93
178 197 89
182 201 97
183 202 97
183 202 108
175 193 108
181 199 111
179 198 85
182 200 120
174 191 89
177 196 104
176 195 93
175 193 93
182 200 104
177 196 89
177 195 89
179 198 104
179 197 108
177 195 111
182 201 114
182 201 111
182 200 108
181 201 111
177 195 108
175 192 108
179 196 93
175 193 76
176 195 97
176 194 125
182 199 111
172 189 111
177 195 97
178 197 111
174 192 97
178 196 104
170 188 76
175 195 85
169 189 59
172 190 81
177 195 97
171 189 89
171 189 93
175 193 52
170 188 85
173 191 71
163 183 31
164 183 0
163 181 0
166 186 0
164 182 0
163 182 0
164 182 0
164 181 0
168 186 0
157 175 0
162 181 0
157 175 0
167 185 0
160 178 0
157 174 0
162 180 0
161 180 0
160 178 31
162 180 31
166 185 43
165 183 52
164 183 59
167 186 31
174 193 65
172 190 59
170 188 0
167 187 0
167 186 0
160 179 0
164 183 0
168 187 0
164 183 0
162 181 0
170 189 0
166 186 0
156 175 0
164 182 0
160 180 0
158 176 0
162 182 0
164 184 0
159 179 0
163 181 0
160 180 0
152 171 0
157 175 0
160 178 0
150 169 0
163 181 0
155 175 0
151 169 0
155 174 0
148 166 0
156 176 0
153 173 0
155 174 0
145 163 0
154 172 0
151 169 0
148 166 0
147 165 0
143 161 0
134 151 0
138 155 0
129 146 0
134 152 0
144 162 0
139 156 0
137 154 0
140 158 0
131 147 0
129 145 0
129 146 0
122 138 31
85 105 65
51 77 74
52 79 79
56 86 72
56 85 84
52 79 80
54 83 77
53 82 85
56 85 89
55 83 90
58 88 85
55 84 81
52 80 72
53 81 84
55 84 82
56 85 71
55 84 96
56 85 88
54 82 94
58 88 96
57 86 84
55 83 89
55 84 73
58 88 92
55 83 90
56 86 86
58 88 99
52 79 84
53 81 85
55 84 81
58 87 100
54 82 72
56 86 88
55 84 92
57 86 88
55 85 82
55 83 86
54 82 86
49 76 80
52 79 87
54 82 86
55 83 99
54 82 103
55 83 74
60 91 91
54 82 89
53 80 80
54 81 83
52 78 81
53 80 81
51 76 71
51 76 75
46 69 67
70 84 57
123 137 0
112 125 0
129 141 0
128 141 0
119 130 0
114 125 0
124 136 0
118 129 0
118 131 0
117 130 0
125 139 0
127 141 0
126 140 0
122 134 0
137 149 0
132 146 0
128 141 0
130 144 0
141 154 0
138 150 0
136 150 0
139 151 0
134 148 0
129 141 0
133 145 0
132 145 0
136 149 0
122 133 0
142 154 0
135 146 0
132 143 0
140 151 0
130 141 0
141 153 0
140 150 0
136 147 0
144 154 0
143 154 0
133 142 0
141 152 0
138 145 0
132 137 0
137 144 0
143 152 0
134 142 0
130 137 0
138 147 0
131 136 0
139 146 0
134 138 15
97 94 30
86 82 20
91 87 20
94 89 15
94 90 0
89 84 15
93 89 11
87 82 15
95 89 15
105 101 25
102 95 15
100 93 15
107 104 15
104 101 18
101 97 28
97 92 15
104 100 28
113 107 36
117 110 25
112 107 37
114 108 25
109 104 31
114 109 26
107 103 25
121 113 35
110 105 23
121 116 25
117 113 36
115 109 28
120 113 31
123 117 31
123 118 31
118 115 25
122 117 34
118 115 35
129 122 31
127 122 25
128 124 39
129 122 23
126 120 32
126 121 39
130 125 41
128 124 39
127 123 31
127 122 34
130 124 36
117 111 31
135 130 40
133 127 31
127 120 41
135 129 34
122 116 37
128 122 45
132 126 45
131 127 41
126 122 34
136 132 46
137 130 45
135 129 48
135 129 46
129 123 41
133 127 43
139 133 48
143 137 50
140 133 50
132 127 44
142 136 55
132 126 50
126 121 41
139 132 47
135 130 43
138 132 45
140 135 53
133 127 48
130 124 41
144 139 48
138 131 52
137 129 55
126 120 48
137 131 43
142 136 49
141 134 50
140 133 52
132 127 45
137 130 55
136 131 55
130 125 53
132 126 46
123 118 39
137 131 45
136 130 48
128 124 48
143 137 44
130 123 50
139 131 53
131 125 53
138 133 46
130 124 45
136 131 52
134 129 43
137 129 59
129 123 52
148 141 55
138 132 46
133 127 50
137 131 55
138 133 50
136 130 52
130 125 52
134 129 56
145 138 55
135 129 48
141 134 63
137 132 56
134 129 50
137 131 46
133 128 57
134 130 52
135 128 55
134 128 61
130 124 56
133 128 57
143 137 60
173 194 0
172 192 0
177 198 0
178 198 31
179 200 0
174 195 0
175 196 0
171 192 0
176 197 0
172 192 0
177 198 0
173 193 0
173 193 0
173 193 0
176 196 0
177 198 0
178 198 0
173 194 0
171 191 0
178 198 0
173 193 0
177 197 0
174 194 0
177 198 0
175 197 0
169 189 0
173 193 0
167 187 0
177 196 0
173 194 0
173 192 0
170 191 0
174 194 0
172 192 0
172 192 0
169 189 0
176 195 52
181 200 65
178 197 71
179 199 93
179 198 101
174 194 81
184 203 104
178 198 81
178 197 71
183 202 108
176 195 59
178 196 101
173 193 76
179 197 76
174 193 52
177 196 81
179 198 111
178 195 85
183 202 101
178 197 104
181 200 114
187 205 117
185 204 123
182 200 117
179 197 101
183 202 131
184 202 120
186 205 128
184 202 133
177 194 101
182 201 114
179 197 111
179 197 97
176 195 81
182 201 128
179 198 111
179 197 89
176 194 108
179 198 111
182 200 117
177 197 104
179 197 89
180 198 104
181 199 117
179 198 114
176 195 89
172 191 97
170 189 81
173 190 76
170 189 76
176 196 97
174 193 97
171 188 97
172 190 65
171 190 52
171 190 89
173 192 65
175 194 65
172 191 59
168 186 43
166 185 0
155 175 0
161 179 0
158 176 0
159 177 0
163 181 0
170 187 0
162 180 0
161 179 0
167 185 0
168 186 0
166 185 0
155 172 0
165 184 0
161 179 0
162 181 0
167 185 0
163 181 0
168 186 0
163 180 0
169 188 31
167 185 59
159 177 52
172 191 31
177 196 59
171 189 93
166 185 0
166 186 0
165 184 0
162 182 0
158 178 0
163 181 0
164 183 0
156 174 0
160 179 0
164 183 0
169 188 0
153 173 0
167 187 0
159 178 0
164 181 0
161 179 0
163 181 0
158 177 0
153 171 0
162 181 0
155 173 0
158 176 0
157 176 0
163 181 0
161 181 0
159 178 0
160 178 0
151 170 0
161 179 0
152 171 0
158 177 0
153 172 0
150 170 0
140 158 0
154 173 0
140 157 0
143 161 0
146 164 0
140 157 0
147 165 0
146 165 0
141 160 0
139 156 0
132 149 0
118 135 0
137 155 0
133 150 0
126 142 0
135 151 0
132 148 0
121 136 0
125 138 0
116 132 38
61 85 56
53 81 87
53 81 77
53 81 74
56 85 95
55 84 91
51 77 85
54 82 77
53 81 85
61 92 105
56 85 97
57 87 93
53 81 80
57 87 96
56 85 89
55 85 91
56 85 93
56 85 83
55 84 89
55 84 85
56 85 102
55 84 85
53 81 86
55 83 87
56 85 80
57 86 96
57 87 104
53 80 77
55 83 88
59 89 92
55 84 95
54 82 86
53 81 80
54 82 88
53 80 79
55 84 89
52 79 92
52 78 78
56 84 91
57 86 89
55 83 92
53 80 77
51 77 70
53 80 85
50 77 65
53 78 75
49 74 80
54 80 82
49 75 76
66 86 72
94 110 37
114 127 0
105 117 0
116 127 0
104 116 0
121 133 0
119 131 0
123 135 0
122 135 0
113 126 0
128 141 0
127 139 0
124 136 0
116 128 0
135 150 0
127 141 0
126 139 0
120 132 0
134 149 0
134 149 0
140 154 0
129 140 0
126 139 0
132 144 0
133 146 0
133 144 0
134 143 0
136 149 0
132 143 0
136 147 0
130 141 0
133 143 0
137 148 0
139 150 0
141 151 0
134 144 0
134 142 0
118 128 0
134 142 0
128 135 0
133 141 0
132 139 0
127 134 0
133 140 0
137 143 0
141 149 0
124 130 0
130 136 0
133 141 0
138 142 0
125 131 0
128 133 0
128 135 0
110 112 0
74 70 15
87 80 23
71 65 15
93 85 20
92 85 15
106 101 0
104 98 0
101 95 0
96 91 0
103 97 27
101 96 15
107 99 26
107 103 20
102 99 26
104 100 23
98 93 20
101 97 25
110 105 20
109 105 32
93 89 20
107 102 25
111 105 25
109 105 18
115 109 20
117 112 34
121 116 35
125 119 28
129 123 34
119 113 31
115 112 32
113 108 15
118 112 28
131 125 34
121 116 36
117 113 31
125 119 31
131 127 47
128 123 46
127 122 39
136 129 41
116 112 34
129 124 28
119 115 31
123 117 31
125 119 41
120 115 34
130 123 36
136 129 45
130 123 43
131 124 41
128 123 43
131 125 41
130 125 45
129 124 31
117 112 28
137 133 46
125 119 39
126 121 35
120 115 39
127 122 32
136 131 39
128 122 48
132 127 45
141 136 41
133 127 46
144 137 48
136 129 46
134 129 43
126 120 46
116 111 39
127 121 39
141 135 53
131 126 52
138 133 39
136 129 50
132 126 45
131 126 46
137 132 43
133 126 43
136 131 46
139 133 61
125 121 46
136 131 45
126 122 39
137 131 43
136 131 34
131 127 50
135 130 50
124 119 43
140 133 50
146 140 66
137 132 55
133 128 55
138 131 52
134 127 46
129 124 50
142 135 59
136 131 53
141 134 50
135 129 56
137 131 52
135 128 57
138 132 56
128 124 53
136 130 50
131 126 55
133 128 50
135 129 52
132 126 48
140 133 59
130 126 45
136 129 55
134 129 43
129 123 50
140 134 57
126 121 41
136 131 48
127 122 46
141 135 55
137 132 53
133 126 60
175 196 0
173 193 0
177 198 31
176 195 0
174 195 0
175 195 0
172 193 0
174 194 0
175 195 0
174 195 0
173 193 0
176 196 0
172 192 0
174 194 0
173 193 0
179 199 0
176 197 0
170 191 0
177 197 0
175 195 0
175 195 0
175 195 0
172 191 0
176 196 0
173 193 0
173 193 0
170 190 0
168 188 0
172 192 0
174 196 0
172 191 0
171 191 0
171 191 0
174 194 0
173 193 0
176 195 0
171 192 0
173 193 0
175 194 0
169 188 31
172 193 43
173 192 71
176 195 71
176 196 65
180 199 97
178 198 81
181 200 71
182 201 97
178 197 89
177 196 52
176 194 89
181 200 89
182 202 93
182 201 93
184 203 89
174 193 89
180 199 76
179 199 89
175 195 65
174 193 81
181 199 89
182 201 97
174 191 81
179 197 93
177 197 76
178 197 89
179 197 85
181 199 97
177 196 97
182 201 120
177 196 71
178 196 101
176 194 101
174 191 71
180 199 108
174 193 85
171 189 81
173 192 76
172 191 93
175 193 76
175 194 81
175 193 81
175 194 104
175 194 108
171 189 85
175 193 81
170 189 81
171 191 76
172 190 81
166 183 71
171 189 85
161 180 52
163 181 0
164 183 0
163 182 0
169 188 0
162 181 0
161 180 0
168 186 0
158 177 0
163 180 0
159 179 0
160 178 0
166 186 0
163 182 0
166 185 0
159 178 0
159 176 31
158 175 0
161 178 0
157 176 0
173 191 0
164 183 0
164 182 0
167 184 0
167 185 59
169 187 71
170 189 59
164 182 0
174 193 81
160 178 59
170 188 0
163 183 0
161 180 0
169 188 0
160 179 0
163 182 0
167 187 0
164 182 0
164 183 0
164 183 0
166 184 0
161 179 0
162 179 0
147 165 0
153 171 0
156 175 0
148 168 0
161 180 0
142 160 0
154 173 0
156 174 0
161 179 0
161 180 0
152 170 0
162 181 0
159 178 0
158 177 0
147 164 0
151 170 0
141 160 0
150 168 0
152 171 0
151 170 0
146 163 0
138 156 0
150 169 0
150 167 0
146 164 0
150 168 0
131 147 0
137 155 0
152 169 0
145 163 0
144 161 0
134 151 0
142 159 0
143 160 0
124 140 0
131 147 0
126 141 0
124 140 0
115 130 0
112 128 0
125 140 0
116 131 0
81 98 45
63 86 72
55 84 89
53 81 65
50 77 77
55 84 88
50 77 75
54 81 91
55 84 85
51 78 76
55 83 92
53 81 74
53 80 84
56 85 90
54 82 76
57 88 94
56 85 82
58 89 93
50 76 59
51 78 83
55 84 86
52 79 72
55 83 90
54 83 73
56 84 94
57 86 96
53 81 78
56 84 88
55 83 91
54 82 85
54 81 85
55 83 91
56 84 93
48 74 71
52 79 84
55 83 83
55 83 81
52 80 83
53 80 80
51 78 70
50 75 64
50 76 65
51 77 82
48 73 69
53 80 76
47 71 71
53 74 70
90 101 0
99 110 23
117 128 0
105 117 0
117 128 0
112 124 0
114 125 0
111 124 0
115 127 0
115 127 0
125 138 0
119 131 0
124 138 0
117 129 0
125 136 0
121 134 0
130 143 0
135 147 0
124 136 0
136 149 0
118 128 0
129 141 0
126 137 0
132 146 0
131 143 0
132 144 0
134 145 0
126 138 0
125 135 0
134 145 0
125 135 0
128 139 0
130 141 0
133 145 0
134 146 0
131 140 0
130 139 0
132 142 0
134 141 0
125 134 0
130 140 0
129 138 0
129 140 0
137 147 0
121 126 0
131 139 0
137 147 0
125 131 0
138 144 0
138 144 0
137 145 0
129 135 0
134 140 0
123 128 0
123 128 0
132 137 0
106 109 15
96 95 20
80 75 20
88 82 0
96 90 25
91 84 0
96 91 23
108 101 20
91 86 15
108 102 28
105 100 21
96 92 18
100 95 28
96 90 23
96 92 25
103 96 28
105 100 0
101 96 26
106 100 15
120 116 37
105 102 15
102 96 26
108 102 28
118 112 25
115 111 28
118 112 25
122 117 31
118 113 39
119 115 28
115 109 25
106 101 20
113 109 34
120 115 37
111 107 32
130 124 30
128 122 34
125 119 25
123 117 28
131 125 39
125 119 41
126 121 34
116 111 34
124 119 31
124 118 39
122 116 41
121 115 31
129 122 35
127 123 31
129 123 39
123 117 31
133 128 45
130 124 43
131 125 43
135 130 53
136 130 43
125 122 34
128 123 40
128 123 34
135 128 43
131 126 41
132 127 45
120 116 35
139 133 45
120 114 31
132 126 43
132 126 43
133 128 48
138 133 46
138 132 46
131 125 41
133 127 36
127 121 34
132 127 46
135 129 39
141 136 46
131 126 43
120 115 34
148 142 60
138 133 45
138 132 50
128 122 43
133 128 48
141 135 56
134 129 43
135 127 50
130 126 46
131 126 41
145 138 56
136 129 59
138 133 43
137 131 52
127 123 45
143 138 52
133 127 43
141 135 57
122 118 39
137 131 45
137 132 48
136 130 50
137 131 48
136 130 46
140 134 48
144 137 61
139 133 56
140 135 50
139 133 52
135 130 52
133 128 41
128 123 48
134 129 57
126 119 39
137 131 50
134 129 36
129 123 50
136 129 46
130 125 50
141 135 61
130 126 43
130 123 46
138 133 52
127 121 45
178 199 0
173 194 0
174 194 0
177 198 0
178 198 0
174 194 31
179 200 0
173 193 0
178 199 0
170 190 0
175 196 0
175 195 31
177 198 0
173 193 0
173 194 0
173 193 31
173 192 0
173 194 0
176 197 0
173 192 0
172 192 0
171 191 0
175 196 0
173 192 0
175 195 0
176 196 0
174 194 0
172 192 0
175 195 0
175 195 0
177 197 0
172 191 0
172 192 0
171 191 0
176 197 0
175 195 0
173 192 0
173 192 0
171 191 0
173 192 0
176 195 0
174 192 0
174 193 0
173 192 0
173 193 31
178 197 52
179 197 65
174 195 65
173 192 76
180 198 89
176 195 97
173 192 76
180 199 71
177 197 81
177 197 85
180 199 97
178 197 93
182 201 85
175 193 97
177 197 81
182 200 85
179 199 81
179 197 93
180 199 76
177 195 76
181 199 101
182 202 76
173 192 59
179 197 81
178 197 76
180 199 97
171 190 97
177 195 93
175 194 81
182 201 111
175 194 89
178 196 93
173 192 97
173 191 59
171 190 89
173 191 89
175 192 108
174 191 81
176 194 89
172 191 65
169 186 81
166 185 52
162 180 71
171 190 31
170 190 0
169 188 0
166 184 0
158 177 0
171 190 0
173 190 0
165 184 0
159 177 0
162 180 0
173 192 0
166 184 0
166 186 0
164 182 0
161 180 0
159 177 0
161 180 0
163 181 0
158 177 0
160 177 0
161 180 0
165 183 31
164 181 31
155 173 0
162 180 43
159 177 43
172 189 65
171 189 52
163 181 31
175 194 81
166 185 76
159 177 31
156 175 0
159 177 0
169 188 0
159 177 0
168 186 0
163 182 0
163 181 0
159 178 0
162 182 0
164 184 0
166 185 0
165 184 0
162 181 0
168 187 0
162 181 0
158 176 0
166 184 0
161 179 0
152 170 0
148 167 0
146 166 0
158 177 0
150 168 0
162 180 0
154 172 0
149 168 0
157 177 0
154 172 0
147 165 0
154 172 0
159 176 0
148 167 0
155 174 0
147 165 0
147 165 0
148 166 0
147 165 0
142 160 0
132 150 0
147 166 0
148 166 0
138 155 0
136 153 0
129 145 0
124 141 0
136 153 0
143 159 0
141 158 0
121 137 0
137 153 0
129 145 0
134 149 0
127 142 0
121 136 0
110 125 0
124 139 0
114 127 0
115 128 0
100 115 10
58 82 76
53 81 67
53 81 84
57 86 89
54 82 85
53 81 82
53 81 76
54 83 84
55 84 86
51 78 79
53 82 84
54 83 84
56 84 96
54 82 76
54 82 83
55 84 91
52 79 77
57 86 98
56 85 90
54 81 76
54 83 89
54 83 86
55 83 89
56 84 88
52 80 76
52 79 72
52 79 82
53 80 71
53 81 82
52 79 74
53 81 90
53 81 78
53 80 86
50 76 77
51 78 83
49 75 71
48 73 57
51 77 73
49 74 72
49 75 66
49 73 68
68 86 71
89 101 47
92 104 0
110 123 0
103 115 0
106 116 0
106 117 0
101 113 0
96 109 0
112 122 0
95 108 0
114 125 0
114 126 0
121 132 0
112 125 0
116 127 0
110 121 0
120 132 0
113 124 0
124 137 0
118 130 0
121 132 0
124 134 0
139 151 0
122 134 0
109 119 0
115 127 0
133 145 0
130 140 0
131 141 0
127 139 0
130 144 0
134 145 0
136 146 0
133 143 0
133 146 0
137 149 0
133 145 0
134 147 0
123 133 0
141 152 0
117 126 0
132 140 0
119 127 0
134 142 0
131 141 0
135 144 0
121 126 0
129 135 0
121 130 0
133 139 0
124 129 0
129 135 0
139 146 0
117 123 0
125 132 0
136 142 0
118 121 0
122 128 0
126 129 0
125 128 0
102 102 5
97 92 25
92 87 20
86 80 15
99 92 20
91 86 15
96 89 31
99 93 25
97 92 15
100 96 26
89 84 16
101 96 0
101 96 25
112 106 25
106 99 23
111 105 34
99 94 32
109 105 25
111 105 20
108 102 30
111 107 0
117 111 25
113 107 32
115 109 28
114 108 26
115 109 34
116 110 28
118 111 25
106 100 25
113 107 18
110 105 28
121 116 30
110 106 28
124 118 34
121 115 34
126 120 31
120 116 30
122 116 36
121 117 28
136 132 43
122 116 31
117 111 15
135 129 37
113 109 25
126 121 35
124 118 31
131 126 35
122 117 31
120 116 20
137 130 40
131 126 43
120 115 31
128 122 41
128 123 25
114 110 28
120 113 42
128 123 43
131 126 34
132 128 45
131 127 39
122 117 31
129 125 41
136 131 43
131 124 50
137 131 48
133 125 48
126 119 45
129 123 41
134 128 48
131 125 43
127 121 45
135 129 45
130 123 43
131 126 43
127 120 48
124 118 39
134 127 41
134 127 45
139 133 56
127 121 45
133 128 39
134 128 53
136 131 45
132 127 43
135 131 41
131 126 44
134 129 46
136 130 46
130 124 50
133 127 43
137 130 52
134 128 46
134 129 43
129 124 46
141 134 55
135 129 50
142 136 57
130 125 41
129 124 45
137 132 53
135 130 46
129 124 41
139 134 53
134 130 52
132 126 50
126 121 50
136 131 57
133 128 46
136 130 45
136 132 59
126 120 45
133 128 53
129 124 53
136 130 61
141 135 57
123 117 43
135 130 50
124 119 43
139 133 65
178 199 59
178 198 0
176 196 0
174 195 0
178 199 0
176 196 31
174 195 0
170 191 31
171 193 0
178 197 0
179 200 0
174 194 31
176 195 0
176 197 0
175 196 0
177 197 31
167 186 0
178 198 0
179 198 0
175 196 0
173 193 0
176 196 0
174 194 0
175 196 0
172 191 0
172 193 0
175 195 0
176 196 0
172 192 0
174 194 0
171 191 0
169 189 0
172 191 0
178 197 0
174 194 0
174 194 0
172 193 0
171 190 31
178 197 0
173 191 0
175 195 0
172 192 0
175 194 0
174 193 0
173 193 0
172 191 0
173 192 0
174 195 0
174 193 43
176 195 52
177 196 65
172 191 59
177 196 81
177 196 81
179 197 71
181 200 89
173 192 81
178 196 71
180 198 89
175 194 89
180 200 93
180 199 93
179 197 81
180 199 81
179 198 85
175 195 81
181 200 85
174 193 71
175 193 85
176 194 81
182 201 89
174 193 89
178 197 93
176 195 76
174 193 71
176 194 93
177 195 71
174 193 65
171 190 52
177 196 71
171 191 43
170 188 65
164 182 31
166 185 0
170 189 0
161 179 0
165 184 0
164 182 0
170 188 0
166 184 0
170 188 0
166 184 0
167 186 0
159 177 0
169 188 0
165 184 0
165 182 0
167 185 0
157 176 0
171 189 0
169 187 0
160 178 0
158 176 0
168 187 0
164 182 0
171 190 0
163 182 0
153 170 0
163 181 0
167 185 0
167 186 59
164 181 43
161 178 43
166 183 59
164 182 31
173 191 71
173 191 104
168 187 52
160 178 0
170 189 0
161 178 0
164 182 0
162 180 0
167 185 0
162 179 0
157 175 0
164 182 0
165 183 0
164 182 0
158 176 0
162 181 0
165 183 0
162 179 0
154 173 0
156 177 0
153 172 0
159 177 0
154 172 0
158 177 0
147 165 0
149 167 0
154 172 0
151 170 0
152 171 0
157 177 0
155 173 0
163 181 0
149 168 0
145 164 0
149 166 0
146 165 0
153 172 0
147 166 0
152 170 0
148 166 0
146 164 0
146 164 0
143 161 0
137 154 0
131 148 0
135 153 0
140 155 0
142 159 0
132 148 0
143 159 0
136 152 0
134 150 0
119 135 0
132 147 0
126 142 0
126 142 0
123 139 0
129 145 0
133 149 0
122 137 0
111 124 0
125 139 0
119 132 0
119 133 0
102 116 0
100 115 43
69 88 75
50 76 76
52 79 74
53 81 75
51 78 77
52 79 71
51 78 74
49 75 77
51 78 76
51 78 88
50 77 64
50 77 82
51 78 63
51 77 80
51 79 76
54 82 75
54 81 79
50 76 76
51 78 63
52 80 68
52 79 82
56 85 101
52 80 92
52 79 90
53 80 93
53 81 80
53 80 90
52 79 79
52 79 86
52 79 79
53 80 84
48 73 59
50 77 76
46 70 63
48 73 72
50 77 62
54 78 64
74 88 38
91 101 0
93 102 0
106 116 0
104 115 0
102 114 0
108 117 0
114 125 0
107 119 0
111 122 0
118 128 0
112 122 0
118 129 0
113 124 0
120 130 0
117 126 0
117 128 0
114 124 0
115 126 0
117 127 0
118 130 0
130 143 0
131 145 0
123 136 0
128 141 0
123 135 0
125 136 0
121 133 0
130 142 0
137 149 0
120 131 0
134 146 0
135 148 0
130 139 0
124 134 0
120 129 0
127 138 0
144 155 0
131 143 0
134 146 0
130 140 0
129 140 0
119 124 0
133 143 0
128 135 0
130 138 0
139 150 0
129 139 0
131 141 0
118 125 0
124 131 0
114 120 0
122 131 0
123 130 0
129 136 0
117 122 0
129 133 0
131 138 0
127 132 0
130 135 0
127 131 0
120 125 0
130 135 0
128 132 0
123 127 0
109 107 25
69 65 15
86 80 20
88 83 0
84 79 0
98 92 34
100 95 28
95 88 20
99 94 23
97 92 18
104 96 20
96 90 23
112 104 20
104 97 20
99 95 15
94 87 23
110 106 26
110 102 15
109 101 23
111 105 26
107 103 20
117 111 34
92 87 15
108 104 28
115 110 20
114 110 20
118 112 32
125 120 35
123 118 15
116 110 31
120 115 25
117 113 25
120 115 31
128 123 36
119 114 28
124 118 28
129 123 28
118 113 28
125 119 36
127 120 36
126 121 28
121 115 40
133 127 37
123 118 34
120 113 36
113 108 36
132 127 45
126 121 36
121 115 28
131 125 36
121 116 31
131 125 36
121 116 43
126 120 36
134 129 36
130 124 34
132 126 36
132 125 28
130 123 34
121 115 43
128 123 41
122 117 34
127 123 45
129 124 36
138 134 48
140 133 45
126 121 28
129 124 43
131 124 46
130 125 43
140 135 46
133 128 45
135 130 45
133 128 36
136 129 45
126 120 43
132 126 43
127 120 41
138 131 50
138 132 48
125 120 34
140 133 50
135 130 46
136 130 53
139 132 46
128 121 43
145 139 53
134 127 50
134 127 52
142 134 56
130 125 41
131 126 46
132 125 53
128 123 45
137 131 53
127 123 55
139 133 52
129 123 50
135 129 55
139 132 48
134 128 52
141 135 55
131 126 52
133 127 60
131 126 39
119 113 50
124 118 48
134 128 46
130 125 48
133 127 46
132 126 46
138 132 48
136 131 53
130 124 56
135 129 52
133 127 48
136 130 46
173 192 52
177 196 59
174 194 31
179 199 31
173 192 0
174 195 0
171 190 31
175 195 31
179 199 0
176 197 0
175 195 0
176 197 0
176 196 0
169 190 0
170 191 0
176 195 0
174 194 0
173 194 0
178 199 0
172 192 0
173 193 0
173 193 0
176 196 0
171 189 0
170 190 0
173 193 0
172 192 0
176 196 0
174 194 0
178 199 0
174 194 0
168 189 0
174 193 0
178 198 0
174 193 0
172 191 0
170 190 0
175 194 0
166 186 0
172 191 0
173 193 0
174 194 0
175 195 0
173 193 0
175 195 0
174 193 0
175 194 0
166 186 0
171 189 0
170 189 0
169 189 0
174 194 0
172 192 0
174 194 0
176 195 0
170 189 0
173 193 31
174 193 31
178 197 59
172 191 31
170 188 31
171 190 43
170 189 65
174 193 71
168 187 59
177 195 52
175 194 59
175 195 59
170 190 59
174 193 59
169 188 59
168 186 59
177 196 52
173 192 31
167 186 43
170 189 31
178 196 31
165 184 0
169 189 0
169 187 0
174 193 0
162 180 0
167 186 0
165 183 0
166 185 0
167 185 0
167 185 0
162 181 0
171 190 0
171 190 0
168 188 0
163 181 0
166 185 0
159 177 0
170 189 0
161 179 0
161 180 0
168 187 0
165 185 0
168 186 0
159 177 0
163 181 0
174 193 0
164 182 0
164 182 0
158 175 0
168 187 0
162 179 0
161 180 31
150 167 43
173 191 76
159 177 52
166 185 43
168 187 31
167 186 85
169 187 71
161 179 0
164 183 0
158 177 0
159 177 0
170 187 0
161 179 0
160 176 0
162 180 0
162 181 0
160 178 0
163 180 0
157 176 0
165 183 0
168 187 0
160 178 0
150 169 0
160 178 0
159 177 0
157 175 0
153 172 0
153 172 0
153 170 0
150 168 0
154 173 0
154 174 0
156 175 0
163 181 0
147 165 0
152 170 0
157 177 0
156 175 0
159 177 0
156 175 0
154 173 0
148 166 0
142 159 0
156 174 0
149 168 0
146 163 0
127 144 0
136 154 0
139 157 0
147 164 0
143 160 0
138 155 0
141 158 0
140 158 0
138 155 0
134 150 0
125 141 0
118 134 0
117 133 0
132 147 0
128 145 0
132 147 0
131 146 0
128 144 0
124 139 0
117 131 0
112 125 0
112 126 0
99 110 0
103 116 0
99 114 0
102 113 0
102 116 0
96 109 31
90 104 38
58 76 51
47 73 67
52 78 82
52 79 75
50 76 71
54 83 72
50 77 78
53 80 85
50 77 78
50 75 74
53 80 74
51 78 67
47 72 66
54 81 84
54 82 88
54 82 90
54 82 86
48 72 70
54 82 95
51 78 86
51 77 76
50 76 77
51 77 71
49 74 78
50 76 68
50 76 74
50 77 81
54 81 89
48 73 69
52 79 74
43 66 52
69 84 48
70 81 32
104 113 27
104 113 0
89 99 0
94 103 0
100 112 0
89 98 0
108 118 0
104 115 0
117 128 0
107 119 0
111 121 0
91 104 0
99 108 0
105 117 0
117 128 0
117 127 0
114 126 0
116 127 0
112 123 0
122 134 0
117 129 0
111 122 0
120 131 0
116 127 0
127 137 0
130 140 0
126 138 0
119 130 0
125 137 0
126 139 0
121 132 0
136 149 0
132 145 0
125 137 0
126 138 0
136 146 0
125 135 0
138 150 0
126 136 0
134 145 0
131 141 0
127 133 0
126 134 0
125 134 0
122 129 0
122 129 0
125 132 0
131 139 0
119 127 0
131 139 0
120 127 0
144 151 0
121 130 0
112 118 0
130 138 0
127 135 0
118 127 0
123 128 0
118 120 0
110 114 0
122 127 0
125 130 0
116 119 0
110 114 0
120 126 0
123 128 0
124 128 0
113 114 15
87 83 0
81 75 15
90 86 20
93 87 20
92 86 25
98 93 20
87 80 15
87 81 15
99 94 0
110 103 23
101 97 0
94 89 18
89 85 11
86 81 11
113 107 28
105 97 20
119 111 20
109 102 18
112 107 20
112 108 25
118 110 31
100 96 23
114 106 0
123 115 28
110 104 25
122 115 44
118 111 25
122 116 31
103 98 20
110 106 31
115 109 31
115 109 0
110 107 28
123 117 26
125 119 25
116 112 34
116 110 40
124 118 25
121 116 37
123 118 34
124 119 34
133 127 39
118 113 32
123 118 31
131 126 40
128 123 41
129 124 41
124 118 31
117 111 25
113 110 28
129 122 31
131 125 31
130 124 39
128 121 41
128 122 43
129 124 46
127 121 34
128 122 41
127 121 44
126 121 40
131 126 45
129 124 45
120 113 20
132 125 41
127 121 41
133 129 43
122 118 36
142 134 43
128 123 41
132 126 36
127 121 46
133 127 43
129 123 50
124 118 36
136 129 46
131 124 56
140 134 45
125 120 43
128 124 43
120 116 28
120 115 39
133 128 46
126 121 36
128 122 36
136 129 48
132 125 55
132 127 43
130 124 45
131 125 50
134 128 48
130 124 46
130 125 43
144 139 53
124 118 36
136 129 52
126 120 41
121 117 43
136 130 57
131 126 48
128 122 52
130 123 48
138 132 50
128 122 41
135 129 53
128 122 46
135 128 53
131 125 48
130 125 55
138 133 53
123 116 50
133 127 56
129 124 53
131 126 43
136 129 53
136 129 53
173 195 0
178 199 71
176 196 52
177 198 43
175 196 0
175 196 0
172 192 0
171 192 0
177 197 0
174 194 0
175 196 0
176 196 0
177 197 0
175 196 0
177 198 0
168 188 0
168 188 0
177 198 0
176 197 0
175 195 43
173 191 31
174 194 31
175 195 0
177 197 0
174 194 0
173 192 0
171 191 0
175 195 0
176 196 0
174 193 0
172 191 0
176 194 0
174 193 0
172 191 0
172 192 0
173 192 0
173 193 0
172 192 0
175 195 0
175 193 0
173 192 0
176 195 0
172 193 0
177 197 0
167 187 0
171 190 0
176 195 0
169 190 0
173 193 0
172 192 0
170 189 0
164 182 0
174 194 0
173 193 0
170 190 0
172 193 0
173 192 0
172 191 0
174 194 0
174 193 0
168 186 0
174 193 0
174 193 0
169 188 0
172 192 0
160 179 0
170 189 0
174 192 0
174 192 0
171 191 0
169 188 0
173 191 0
171 190 0
169 187 0
168 187 0
167 185 0
171 190 0
162 180 0
167 186 0
167 185 0
166 184 0
171 190 0
171 190 0
169 189 0
165 183 0
167 185 0
166 184 0
164 183 0
160 178 0
164 182 0
174 192 0
165 184 0
167 185 0
165 183 0
154 171 0
163 181 0
160 179 0
172 190 0
164 183 0
169 187 0
169 187 0
162 180 0
163 182 0
174 193 31
166 184 0
160 178 0
166 185 0
172 190 43
166 185 52
157 175 31
165 183 43
163 181 31
172 190 81
169 187 76
168 186 0
163 182 0
168 187 0
160 178 0
168 187 0
163 181 0
162 181 0
162 180 0
159 178 0
165 184 0
160 178 0
164 184 0
150 169 0
161 180 0
161 180 0
157 176 0
156 176 0
165 184 0
156 174 0
152 171 0
159 177 0
151 170 0
156 175 0
162 181 0
154 173 0
150 169 0
158 177 0
141 159 0
151 169 0
151 168 0
152 171 0
151 168 0
156 175 0
148 167 0
148 166 0
146 164 0
146 165 0
148 167 0
148 166 0
139 157 0
142 160 0
154 173 0
155 173 0
136 153 0
144 161 0
144 161 0
130 147 0
133 150 0
122 139 0
134 151 0
126 142 0
125 142 0
118 134 0
140 158 0
119 134 0
133 149 0
123 137 0
127 143 0
119 134 0
128 143 0
112 126 0
125 138 0
120 135 0
111 127 0
109 123 0
101 114 0
109 123 0
101 113 0
102 113 0
90 100 0
106 119 0
82 94 23
75 88 43
52 69 31
60 79 33
51 74 65
44 68 34
47 72 54
45 70 72
47 72 65
52 78 81
52 80 81
52 78 74
47 73 70
48 74 73
47 72 50
46 70 57
50 75 71
47 73 63
47 72 61
49 75 72
49 74 78
50 76 71
44 66 54
48 73 56
50 75 77
46 69 67
46 67 60
69 83 57
75 87 31
88 97 0
93 103 0
74 83 0
78 89 0
98 107 0
91 100 0
100 111 0
96 106 0
87 98 0
96 106 0
101 113 0
109 119 0
111 122 0
113 124 0
111 124 0
98 107 0
101 113 0
117 129 0
114 123 0
117 128 0
109 121 0
117 128 0
120 131 0
112 123 0
112 125 0
129 140 0
123 135 0
120 132 0
120 132 0
136 149 0
122 133 0
113 125 0
124 135 0
124 137 0
129 140 0
133 144 0
126 139 0
126 137 0
132 144 0
128 139 0
132 142 0
117 126 0
121 133 0
124 135 0
127 136 0
128 139 0
132 143 0
125 134 0
123 132 0
119 128 0
132 142 0
120 128 0
123 129 0
129 136 0
131 138 0
126 133 0
120 129 0
117 119 0
115 121 0
125 130 0
124 129 0
130 135 0
127 128 0
118 125 0
118 121 0
126 133 0
119 122 0
120 122 0
116 119 0
121 123 0
126 130 0
117 122 0
97 95 15
81 74 15
96 88 15
92 84 20
82 78 25
99 92 15
89 82 15
99 92 15
88 84 15
96 91 20
102 96 31
97 92 0
101 96 11
107 100 25
101 95 15
99 93 15
116 110 25
109 100 28
111 105 30
116 109 34
101 95 20
111 104 15
102 96 20
114 108 25
100 96 26
109 105 15
124 118 37
109 103 25
106 99 31
107 101 28
110 104 26
117 111 20
110 104 34
122 116 35
118 110 37
119 113 34
124 118 36
117 110 36
124 118 25
125 120 28
121 115 28
128 123 25
134 128 54
114 109 36
131 126 43
128 124 28
125 119 31
129 124 31
126 120 34
121 116 20
129 124 42
129 124 34
134 128 41
126 120 34
121 117 28
121 116 31
130 124 43
121 115 31
124 118 35
128 123 43
135 130 39
128 122 43
140 133 43
131 126 39
126 120 39
137 130 48
133 129 40
128 123 41
141 135 49
130 124 39
135 129 46
131 125 45
121 116 45
131 126 34
134 128 46
135 130 46
123 118 41
137 131 50
130 125 39
133 127 52
134 129 50
133 126 46
131 126 43
135 129 50
122 116 45
132 126 41
134 128 45
130 123 46
132 127 50
132 126 52
124 119 43
122 117 45
135 128 48
132 126 48
130 126 45
127 121 53
127 123 45
129 124 46
135 129 52
120 115 50
141 135 57
125 119 46
124 118 36
130 125 57
132 126 53
126 121 50
124 118 43
136 129 52
132 126 60
133 127 45
127 121 50
132 126 56
141 135 56
123 117 45
171 191 31
175 197 0
176 196 52
181 201 76
177 196 65
175 195 31
176 196 0
172 193 31
175 196 0
174 195 0
173 193 0
177 197 0
176 197 0
176 197 0
172 191 0
173 193 31
177 197 0
175 195 0
180 199 0
173 193 0
174 195 0
173 192 0
175 195 0
176 196 0
174 194 0
175 195 0
178 198 0
178 198 0
174 193 0
170 190 0
176 196 0
174 192 0
177 196 0
175 195 0
172 192 0
173 193 0
176 196 0
171 190 0
172 192 0
174 194 0
175 194 0
171 190 0
177 196 0
171 191 0
170 189 0
176 195 0
165 184 0
173 192 0
174 192 0
173 192 0
169 188 0
173 191 0
171 190 0
170 189 0
177 197 0
173 192 0
172 192 0
168 187 0
174 193 0
173 192 0
164 183 0
175 194 0
169 190 0
164 182 0
168 187 0
167 185 0
169 188 0
168 187 0
164 182 0
169 188 0
168 187 0
173 192 0
176 195 0
165 184 0
170 188 0
163 182 0
166 184 0
165 183 0
165 184 0
168 185 0
159 177 0
166 185 0
170 188 0
167 186 0
162 180 0
171 189 0
169 188 0
171 189 0
164 183 0
168 185 0
159 178 0
165 184 0
164 182 0
164 182 0
162 180 0
161 179 31
166 184 0
168 185 0
168 186 31
163 181 0
168 187 31
161 179 0
161 178 0
165 184 0
166 184 0
172 190 65
165 183 52
161 180 31
172 190 31
173 191 52
173 191 85
168 186 59
166 185 0
168 187 0
157 175 0
165 183 0
164 184 0
166 184 0
165 184 0
164 182 0
163 181 0
163 181 0
165 185 0
160 179 0
161 180 0
164 182 0
163 181 0
161 180 0
164 183 0
157 175 0
158 177 0
161 180 0
163 182 0
158 176 0
157 175 0
163 180 0
155 174 0
150 167 0
159 177 0
146 164 0
148 167 0
156 175 0
154 173 0
157 176 0
144 163 0
157 176 0
158 177 0
148 166 0
139 157 0
156 175 0
153 172 0
158 177 0
146 164 0
139 158 0
139 157 0
141 159 0
140 157 0
145 162 0
143 161 0
144 161 0
137 153 0
147 163 0
144 161 0
127 144 0
123 139 0
126 142 0
133 150 0
136 153 0
122 137 0
118 134 0
125 140 0
117 133 0
110 125 0
114 129 0
125 140 0
108 121 0
123 138 0
126 140 0
103 117 0
110 123 0
102 115 0
99 113 0
100 112 0
107 119 0
101 113 0
95 107 0
103 114 0
85 96 0
90 101 0
84 95 23
87 98 31
81 94 43
63 79 49
61 77 56
57 76 65
49 72 67
45 69 53
44 67 43
46 71 70
46 71 59
45 68 59
41 62 53
50 75 74
54 75 68
55 74 62
59 77 57
60 75 31
64 76 43
80 93 31
73 83 0
89 99 23
85 94 0
90 99 0
85 93 0
93 103 0
91 103 0
82 92 0
79 89 0
98 109 0
95 104 0
88 95 0
96 107 0
89 99 0
97 109 0
99 108 0
109 120 0
106 116 0
99 108 0
118 130 0
104 114 0
112 122 0
112 124 0
118 131 0
128 139 0
125 138 0
122 133 0
119 131 0
101 113 0
136 147 0
115 127 0
116 128 0
119 132 0
131 143 0
129 140 0
126 139 0
130 141 0
120 130 0
128 139 0
128 138 0
116 126 0
128 141 0
129 139 0
114 123 0
124 134 0
122 134 0
135 144 0
131 140 0
132 142 0
128 140 0
123 133 0
130 139 0
121 130 0
129 137 0
121 132 0
128 137 0
125 133 0
126 133 0
122 130 0
109 116 0
122 130 0
124 129 0
115 120 0
126 131 0
109 115 0
115 121 0
124 129 0
122 128 0
103 104 0
126 128 0
122 127 0
124 129 0
127 130 0
122 125 0
122 123 0
114 115 0
111 112 0
107 107 0
110 111 0
106 105 0
89 83 20
99 92 15
89 81 15
86 80 15
101 95 15
112 105 20
101 95 15
99 92 23
98 92 23
102 97 15
111 106 20
96 91 15
110 105 18
111 104 15
117 110 20
93 87 0
108 100 15
96 90 20
105 99 23
104 98 30
103 97 25
108 102 25
118 112 20
108 103 11
117 112 42
121 112 25
114 108 31
111 106 20
121 115 31
116 111 15
111 105 20
109 105 31
112 106 25
116 111 20
106 100 23
119 114 28
126 119 36
126 120 39
122 116 28
117 113 28
126 120 41
112 108 28
115 110 31
132 127 36
124 119 39
123 116 46
125 119 35
128 122 28
117 112 31
118 113 20
123 118 36
135 128 36
124 118 34
125 119 43
128 121 41
122 118 34
126 121 25
125 119 34
126 121 41
126 119 41
129 122 39
129 123 41
127 122 36
129 123 34
127 120 43
127 122 36
135 129 50
126 119 41
121 117 28
133 128 41
135 128 48
133 126 39
122 117 39
135 130 50
123 117 36
133 128 41
119 115 39
132 125 45
120 115 41
131 125 46
130 124 48
133 128 36
133 129 45
126 120 41
130 124 48
126 122 43
125 119 46
132 128 41
132 126 46
132 125 43
130 122 55
122 116 34
124 119 46
134 127 48
128 122 48
120 114 36
137 132 45
125 118 45
125 119 46
130 124 48
123 119 36
127 121 43
133 127 48
119 114 50
109 103 34
133 128 48
121 116 48
134 127 53
131 125 46
123 116 48
114 108 31
175 196 31
177 197 0
179 200 31
176 196 59
180 198 31
178 198 43
178 199 31
177 197 65
175 195 31
174 194 0
179 200 31
176 197 0
175 196 0
177 197 0
177 197 0
173 193 0
176 196 0
177 197 31
176 195 0
176 196 0
173 193 0
178 198 0
177 198 0
176 196 31
174 193 31
175 194 0
170 189 0
173 193 31
176 197 0
177 197 0
178 198 0
179 199 0
174 193 0
173 192 0
171 190 0
174 195 0
175 194 0
176 196 0
173 193 0
173 193 0
171 190 0
175 194 0
175 194 0
173 192 0
173 192 0
175 194 0
178 197 0
168 188 0
170 188 0
169 188 0
174 193 0
169 188 0
175 194 0
174 193 0
177 196 0
175 196 0
172 192 0
175 194 0
178 197 0
177 196 0
172 191 0
176 193 0
179 198 0
175 193 0
173 192 0
172 190 0
175 194 0
164 182 0
174 192 0
164 183 0
168 188 0
171 190 0
172 192 0
169 187 0
168 186 0
171 189 0
170 188 0
164 184 0
169 187 0
168 186 0
166 184 0
168 187 0
163 181 0
168 186 0
170 189 0
170 188 0
166 184 0
169 187 0
170 189 0
175 193 0
171 190 0
170 187 0
167 186 0
170 189 0
166 183 0
164 182 0
167 183 0
169 188 0
164 182 0
166 184 0
170 188 0
171 189 0
163 182 31
163 181 52
163 181 43
165 183 31
164 183 43
171 189 81
168 185 85
172 190 65
162 182 31
168 187 0
161 179 0
162 182 0
159 178 0
164 183 0
155 172 0
160 179 0
166 185 0
163 182 0
166 184 0
155 174 0
165 183 0
159 176 0
164 182 0
162 181 0
160 179 0
161 179 0
163 182 0
165 184 0
153 171 0
159 177 0
158 177 0
145 162 0
165 183 0
161 180 0
146 165 0
155 174 0
142 160 0
155 174 0
155 173 0
156 173 0
156 174 0
151 170 0
157 175 0
153 171 0
151 170 0
156 174 0
139 156 0
147 165 0
143 160 0
143 160 0
143 160 0
144 161 0
139 156 0
138 156 0
132 149 0
133 150 0
128 144 0
137 153 0
148 165 0
137 154 0
138 154 0
139 155 0
131 147 0
137 154 0
122 138 0
142 158 0
118 133 0
119 134 0
127 144 0
124 139 0
134 150 0
125 141 0
114 129 0
110 125 0
122 136 0
116 129 0
118 132 0
113 125 0
103 115 0
95 107 0
103 116 0
99 111 0
110 122 0
95 105 0
98 109 0
93 106 0
93 104 0
96 107 0
87 98 0
76 86 0
109 121 0
78 88 0
96 104 0
68 77 0
92 101 0
91 101 0
89 98 0
99 110 0
62 72 23
78 87 0
76 84 23
79 87 0
82 91 0
84 92 0
83 92 0
67 76 0
89 100 0
76 85 0
88 98 0
88 97 0
84 93 0
74 83 0
77 88 0
98 108 0
92 102 0
97 108 0
102 113 0
102 113 0
98 110 0
81 92 0
96 106 0
101 110 0
101 112 0
101 111 0
107 119 0
98 109 0
97 107 0
114 126 0
109 120 0
99 110 0
111 122 0
110 120 0
106 120 0
115 128 0
113 125 0
127 138 0
131 144 0
125 138 0
124 136 0
114 126 0
128 141 0
129 142 0
128 141 0
118 130 0
130 141 0
123 134 0
120 133 0
134 147 0
137 149 0
128 138 0
132 145 0
136 147 0
122 132 0
123 135 0
129 140 0
132 142 0
123 133 0
116 123 0
136 146 0
130 141 0
130 139 0
124 134 0
124 134 0
117 128 0
120 129 0
118 124 0
116 125 0
129 135 0
126 135 0
119 127 0
116 119 0
129 138 0
120 126 0
125 133 0
116 119 0
120 123 0
117 120 0
122 128 0
115 119 0
109 111 0
121 125 0
105 106 0
110 110 0
110 114 0
112 115 0
106 106 0
116 119 0
105 103 0
97 96 0
92 85 15
88 81 20
85 78 15
85 79 11
96 87 15
99 92 25
96 88 20
88 83 15
111 104 25
101 92 21
105 98 15
100 93 20
98 91 15
108 101 25
109 103 0
110 104 23
104 99 25
93 87 20
106 99 31
101 95 25
118 110 20
105 99 0
124 117 36
109 103 25
111 104 23
109 102 25
113 107 25
118 113 30
123 116 34
107 100 20
119 114 31
99 90 20
113 106 26
121 115 43
122 114 28
118 111 36
113 107 28
121 117 31
112 105 15
115 110 25
120 115 28
119 114 20
115 109 30
121 115 25
122 117 28
122 115 34
129 123 36
113 107 31
126 120 32
133 127 43
132 126 43
116 111 31
127 123 45
129 122 41
125 119 41
123 118 34
129 123 50
127 120 39
121 116 36
128 120 43
133 127 45
124 119 36
119 113 28
129 123 41
133 126 46
128 122 50
123 117 39
124 119 41
127 123 41
123 117 45
132 127 42
137 130 41
129 123 39
124 119 39
132 125 46
124 118 46
129 124 36
128 123 46
119 114 31
124 118 39
130 125 43
130 124 43
128 122 41
129 124 36
139 132 53
119 114 36
135 128 56
133 127 61
132 128 52
121 114 41
128 123 41
130 124 46
123 117 45
131 124 50
131 126 39
132 126 46
128 121 50
123 117 46
125 119 39
126 119 56
126 120 50
134 129 53
128 121 45
125 120 48
127 120 43
108 104 34
123 117 43
134 128 48
119 114 46
180 201 52
176 197 0
174 195 43
181 202 59
177 197 71
172 193 43
174 194 43
174 195 0
176 196 65
176 195 59
178 196 52
177 197 0
175 195 0
179 199 0
172 192 0
177 197 0
174 194 0
175 195 0
174 194 0
180 199 0
174 193 0
171 190 0
176 196 31
173 192 0
176 196 0
175 194 0
178 198 31
176 196 43
172 193 0
178 198 0
179 198 0
175 195 0
175 196 0
177 195 0
175 195 0
173 193 0
175 194 0
173 192 0
180 199 0
174 193 0
173 192 0
173 192 0
172 192 0
174 194 0
172 193 0
172 192 0
174 192 0
176 194 0
175 194 0
165 183 0
173 192 0
174 194 0
173 193 0
168 188 0
174 193 0
172 191 0
177 196 0
169 188 0
175 195 0
172 191 0
172 191 0
172 191 0
167 186 0
175 194 0
175 194 0
168 187 0
170 188 0
176 194 0
176 194 0
172 191 0
171 190 0
171 190 0
166 185 0
173 192 0
165 182 0
168 187 0
170 188 0
168 185 0
168 186 0
172 191 0
168 186 0
165 183 0
172 191 0
164 182 0
164 184 0
160 179 0
172 190 0
169 188 0
169 187 0
158 175 0
160 178 0
159 178 0
164 182 0
170 188 0
163 181 0
164 181 31
164 182 0
174 194 0
159 177 0
169 187 0
164 183 43
165 183 43
166 185 52
164 183 43
167 186 43
171 189 52
175 192 76
167 184 59
166 184 0
159 179 0
155 172 0
156 175 0
163 181 0
169 187 0
161 179 0
158 176 0
161 178 0
162 180 0
165 183 0
165 183 0
162 181 0
161 180 0
163 181 0
164 182 0
162 182 0
158 176 0
170 190 0
157 174 0
150 168 0
163 183 0
166 185 0
159 177 0
157 176 0
153 171 0
151 170 0
156 175 0
156 174 0
156 176 0
152 170 0
155 173 0
148 166 0
147 165 0
160 178 0
143 160 0
136 154 0
155 174 0
158 177 0
156 174 0
153 172 0
148 166 0
150 169 0
154 172 0
150 168 0
140 158 0
145 164 0
135 153 0
143 160 0
138 156 0
130 147 0
141 158 0
141 158 0
133 149 0
139 156 0
133 149 0
133 150 0
139 156 0
130 146 0
128 144 0
134 150 0
129 145 0
134 149 0
116 131 0
113 129 0
120 136 0
118 132 0
110 123 0
121 136 0
113 128 0
123 138 0
118 131 0
109 123 0
100 112 0
106 120 0
103 116 0
108 120 0
92 105 0
97 109 0
108 122 0
97 109 0
107 119 0
92 104 0
78 88 0
87 98 0
90 101 0
92 102 0
83 94 0
84 94 0
80 91 0
92 101 0
93 102 0
85 94 0
87 97 0
92 102 0
99 110 0
92 103 0
84 94 0
96 104 0
96 107 0
89 98 0
89 100 0
81 91 0
89 99 0
90 100 0
93 104 0
93 104 0
74 87 0
80 89 0
89 101 0
106 117 0
95 106 0
114 125 0
105 114 0
112 124 0
108 120 0
99 108 0
117 129 0
116 126 0
104 114 0
114 125 0
119 130 0
125 134 0
121 133 0
110 122 0
98 111 0
117 130 0
116 126 0
110 123 0
116 126 0
108 119 0
117 128 0
127 139 0
125 136 0
118 128 0
124 137 0
125 136 0
125 135 0
121 133 0
107 117 0
121 132 0
131 143 0
124 134 0
128 140 0
135 146 0
136 148 0
127 136 0
122 134 0
116 126 0
125 135 0
131 141 0
124 133 0
131 140 0
120 130 0
135 144 0
125 136 0
126 133 0
122 130 0
100 105 0
123 132 0
118 123 0
123 131 0
127 133 0
123 129 0
122 128 0
129 138 0
122 129 0
118 123 0
117 122 0
115 118 0
108 112 0
119 126 0
117 121 0
111 115 0
118 124 0
119 122 0
118 121 0
110 112 0
107 107 0
117 119 0
100 100 0
115 116 0
107 108 0
107 107 0
98 96 15
87 83 15
84 78 20
95 86 15
92 87 0
91 84 15
91 83 0
75 69 11
93 86 15
98 91 20
90 83 20
105 99 15
101 93 15
103 95 25
114 107 15
98 93 20
106 101 28
115 110 15
106 100 15
112 104 23
111 106 28
110 103 5
112 105 25
122 116 23
117 112 25
108 101 23
112 105 20
120 113 25
113 105 20
113 107 25
120 114 28
128 119 34
116 111 20
111 106 20
115 108 31
117 112 31
126 119 39
122 114 34
123 115 31
119 113 28
125 118 36
117 110 31
127 122 28
119 113 35
122 118 34
124 118 30
121 115 34
118 113 25
117 111 34
121 114 25
120 115 34
118 110 20
130 123 41
131 125 41
124 118 44
121 117 45
132 125 41
116 109 36
123 117 28
122 115 39
119 113 36
129 122 25
119 113 36
133 128 39
129 123 45
111 104 28
125 120 36
127 121 41
131 126 43
130 123 43
126 119 43
136 128 46
126 121 46
132 126 46
128 123 36
125 119 41
132 126 41
131 125 41
125 119 43
127 120 41
131 125 34
128 124 43
130 123 50
129 124 45
127 121 43
127 121 48
128 122 36
135 130 55
114 109 31
126 120 48
132 124 50
125 120 43
113 110 36
121 116 39
131 124 53
127 121 55
126 119 43
131 124 50
136 131 59
121 115 45
118 112 28
120 115 46
132 125 57
133 126 48
128 122 55
117 111 36
127 121 39
129 122 55
178 198 52
174 194 31
179 200 43
177 197 0
177 197 52
180 200 59
177 197 31
175 196 43
177 197 59
179 199 31
177 197 43
174 194 65
176 195 52
172 192 0
177 198 31
175 194 0
171 191 0
177 197 0
175 194 0
177 197 0
174 193 0
166 187 0
174 194 0
177 197 0
177 197 0
171 190 0
172 191 0
177 197 0
171 191 0
175 194 0
171 191 0
175 194 0
178 198 0
173 193 0
174 193 0
176 196 0
173 193 0
180 200 0
173 192 0
178 198 0
175 195 0
173 192 0
174 193 0
174 194 0
174 194 0
177 197 0
171 191 0
174 193 0
169 188 0
173 192 0
177 196 0
173 191 0
177 195 0
170 188 0
170 189 0
171 190 0
168 187 0
171 189 0
171 190 0
177 196 0
174 192 0
175 194 0
168 187 0
174 191 0
170 189 0
170 189 0
170 187 0
174 193 0
173 191 0
171 190 0
173 192 0
172 191 0
164 182 0
168 187 0
172 190 0
170 188 0
169 186 0
170 189 0
172 190 0
172 189 0
169 188 0
163 182 0
169 188 0
171 189 0
169 187 0
170 188 0
168 186 0
167 187 0
169 187 31
169 188 0
165 183 0
166 185 0
167 185 0
170 188 0
172 191 31
168 184 0
164 183 31
172 190 31
169 187 71
166 185 43
166 184 59
175 193 59
162 181 52
176 193 85
167 185 71
165 183 59
168 186 43
163 180 0
164 183 0
168 186 0
162 180 0
167 186 0
164 182 0
160 178 0
160 178 0
166 185 0
164 182 0
165 183 0
167 184 0
163 181 0
163 182 0
163 182 0
161 179 0
156 174 0
153 172 0
161 180 0
159 177 0
161 179 0
151 170 0
162 180 0
157 175 0
158 177 0
153 171 0
152 169 0
152 170 0
151 170 0
152 170 0
150 168 0
153 170 0
150 168 0
151 170 0
152 170 0
149 167 0
156 174 0
150 168 0
157 175 0
152 171 0
151 170 0
152 170 0
153 172 0
139 157 0
148 165 0
145 163 0
145 164 0
147 166 0
137 155 0
144 162 0
136 153 0
138 155 0
141 159 0
132 149 0
142 158 0
132 150 0
146 163 0
131 147 0
141 158 0
124 139 0
123 138 0
123 137 0
124 141 0
124 140 0
109 126 0
126 141 0
130 146 0
113 128 0
128 143 0
108 124 0
105 119 0
112 126 0
117 131 0
107 121 0
113 128 0
92 105 0
109 122 0
108 121 0
112 126 0
116 127 0
102 114 0
101 114 0
99 111 0
95 107 0
95 108 0
103 116 0
83 94 0
82 92 0
101 111 0
105 115 0
95 107 0
92 103 0
82 94 0
91 101 0
86 99 0
91 102 0
87 97 0
86 96 0
92 102 0
87 97 0
92 103 0
92 102 0
94 102 0
85 95 0
101 113 0
99 110 0
108 119 0
107 118 0
111 123 0
101 112 0
93 104 0
101 112 0
109 120 0
100 110 0
93 105 0
106 119 0
103 115 0
117 128 0
105 116 0
115 125 0
110 121 0
103 115 0
113 128 0
113 126 0
128 141 0
118 130 0
118 131 0
112 122 0
120 132 0
111 123 0
113 125 0
116 126 0
120 132 0
115 126 0
126 138 0
126 140 0
128 140 0
117 129 0
120 132 0
119 133 0
127 138 0
126 139 0
123 134 0
133 146 0
132 142 0
131 144 0
133 146 0
124 134 0
127 138 0
121 133 0
122 131 0
123 134 0
135 145 0
140 149 0
119 130 0
119 128 0
131 143 0
119 126 0
131 141 0
134 144 0
113 122 0
127 136 0
126 136 0
121 128 0
126 130 0
125 131 0
127 132 0
125 131 0
124 128 0
114 118 0
113 119 0
128 134 0
111 115 0
120 124 0
121 126 0
118 124 0
115 119 0
121 124 0
96 99 0
105 108 0
115 117 0
110 111 0
116 117 0
108 111 0
112 114 0
93 94 0
120 122 0
96 94 0
88 82 0
82 74 15
95 88 20
95 87 15
97 86 0
90 84 20
98 91 20
90 83 15
103 96 28
107 98 1
101 95 25
99 91 15
115 108 25
103 96 15
106 100 25
116 108 25
119 113 25
94 89 25
110 103 25
113 106 25
109 104 25
98 92 0
117 112 0
115 107 20
114 106 31
112 105 20
113 105 25
108 102 20
110 105 28
106 100 25
114 108 25
111 106 28
114 107 36
119 113 28
112 107 15
119 113 25
119 114 23
120 114 34
120 113 25
118 112 25
120 114 34
121 114 36
109 103 25
123 116 39
125 118 48
124 117 39
127 122 34
117 109 28
120 114 34
116 111 36
118 113 31
109 103 28
119 112 28
126 119 43
127 120 31
139 131 41
107 103 20
124 117 28
123 117 23
117 112 28
133 126 45
138 131 36
124 118 34
128 121 43
131 124 45
121 116 31
132 125 43
120 114 36
119 112 41
136 129 45
131 126 45
124 117 48
133 126 55
123 117 36
125 118 46
121 115 39
130 122 50
126 120 48
124 118 46
131 125 39
122 116 45
128 122 52
132 125 48
129 123 52
124 118 39
122 116 43
132 126 41
125 118 50
128 121 34
127 122 43
112 107 39
131 126 45
126 120 41
130 123 50
127 121 50
128 122 48
126 120 39
129 121 46
129 124 41
135 128 50
124 119 41
113 106 45
131 125 61
119 113 41
127 122 55
180 200 108
174 194 59
176 197 65
175 196 31
177 197 31
176 197 43
176 196 52
176 196 52
176 195 52
174 194 52
175 195 59
179 199 65
174 195 52
180 200 65
171 191 43
174 193 0
174 195 43
175 195 0
175 195 31
173 194 0
173 193 0
177 196 0
172 192 0
172 192 0
175 194 0
172 192 0
171 190 31
175 195 31
175 194 0
170 188 0
177 196 0
172 191 0
165 184 0
171 191 0
177 196 0
172 192 0
172 191 0
176 195 0
172 192 0
177 196 0
174 194 0
180 200 0
164 182 0
171 190 0
175 195 0
175 195 0
175 193 0
171 190 0
174 193 0
173 193 0
173 193 0
175 194 0
173 193 0
180 199 0
172 191 0
173 192 0
172 191 0
174 192 0
172 191 0
169 188 0
170 189 0
167 187 0
167 186 0
173 191 0
177 196 0
171 190 0
172 190 0
171 189 0
174 192 0
172 190 0
171 189 0
173 192 0
171 189 0
168 186 0
168 187 0
167 185 0
167 186 0
167 185 0
169 185 0
161 179 0
169 187 0
160 177 0
172 191 0
167 185 0
168 187 0
169 187 0
167 185 0
166 184 0
166 183 0
171 189 0
170 189 0
165 184 0
169 188 0
167 185 0
162 179 0
168 185 52
169 187 59
165 183 0
170 189 59
171 191 65
169 186 43
169 187 65
171 190 81
171 189 65
164 182 0
169 187 0
161 179 0
166 184 0
162 180 0
170 189 0
159 179 0
168 186 0
167 186 0
154 171 0
164 183 0
159 178 0
160 176 0
160 178 0
158 175 0
159 179 0
165 184 0
158 176 0
160 178 0
158 176 0
154 172 0
155 173 0
162 180 0
148 167 0
159 178 0
162 180 0
158 178 0
160 179 0
160 178 0
155 173 0
150 168 0
146 164 0
154 172 0
153 171 0
151 169 0
158 177 0
151 169 0
155 173 0
148 166 0
155 174 0
155 174 0
144 162 0
149 167 0
152 171 0
147 165 0
148 166 0
134 151 0
147 165 0
146 164 0
140 159 0
152 169 0
147 165 0
145 162 0
140 157 0
132 150 0
133 150 0
142 159 0
126 144 0
132 148 0
142 158 0
141 158 0
121 138 0
140 157 0
135 152 0
134 151 0
124 141 0
127 142 0
119 134 0
131 146 0
114 130 0
125 141 0
125 141 0
120 136 0
116 131 0
124 140 0
113 127 0
113 126 0
109 124 0
112 126 0
111 125 0
106 120 0
96 111 0
104 116 0
104 117 0
111 124 0
101 115 0
103 117 0
98 109 0
105 117 0
102 113 0
86 99 0
105 117 0
97 111 0
99 111 0
98 109 0
99 110 0
102 113 0
93 103 0
92 104 0
99 110 0
99 110 0
89 99 0
93 104 0
94 106 0
103 115 0
98 109 0
94 106 0
90 101 0
96 107 0
110 119 0
98 107 0
96 106 0
106 119 0
108 120 0
101 112 0
101 112 0
114 126 0
119 132 0
121 132 0
114 126 0
101 112 0
119 131 0
116 128 0
112 124 0
105 117 0
109 121 0
115 127 0
113 126 0
122 134 0
106 119 0
117 128 0
118 131 0
123 133 0
124 136 0
120 133 0
124 137 0
118 130 0
131 144 0
117 129 0
135 148 0
112 123 0
110 121 0
112 123 0
120 131 0
126 138 0
118 129 0
121 133 0
131 143 0
127 139 0
121 132 0
131 143 0
135 144 0
123 135 0
130 142 0
128 139 0
127 136 0
126 134 0
129 141 0
117 126 0
130 140 0
123 131 0
121 131 0
120 128 0
123 134 0
131 139 0
127 134 0
118 125 0
116 125 0
130 136 0
117 124 0
128 135 0
117 121 0
127 133 0
118 122 0
133 139 0
131 136 0
113 118 0
124 131 0
123 128 0
124 128 0
117 119 0
114 113 0
117 121 0
123 124 0
112 114 0
107 108 0
110 111 0
112 115 0
100 101 0
104 104 0
101 100 0
96 96 0
98 93 25
90 86 15
80 75 0
80 73 0
77 71 0
101 95 25
99 90 26
100 93 31
90 83 15
90 84 15
99 91 0
100 94 15
98 91 0
98 92 0
104 98 15
108 101 15
113 107 28
109 103 34
96 88 28
112 105 25
106 99 25
112 104 25
104 98 25
109 101 28
107 101 20
116 108 25
119 113 31
112 107 28
122 115 43
113 105 20
113 105 31
118 109 36
117 110 20
110 103 25
120 113 28
121 115 28
113 106 41
109 104 31
117 111 34
117 111 28
117 112 34
121 116 20
122 114 25
116 109 28
128 121 36
105 99 39
115 110 28
126 119 31
125 117 20
132 125 36
126 121 41
126 120 28
130 126 46
125 119 28
113 108 28
122 117 28
127 122 31
130 123 39
123 117 31
117 112 28
122 116 34
125 118 31
116 110 28
131 124 31
129 122 45
128 122 20
126 120 39
134 126 36
122 116 43
117 112 28
128 123 46
127 121 45
115 110 31
114 107 28
110 105 31
119 113 39
124 118 34
123 119 39
138 133 43
128 123 43
127 121 48
136 130 50
125 119 39
117 111 31
131 125 48
133 126 39
124 119 34
122 116 31
137 130 55
118 111 36
114 109 39
125 118 46
117 111 45
116 111 36
124 119 53
139 136 46
131 125 36
121 116 45
121 116 43
127 120 52
128 123 48
126 120 46
115 107 48
126 121 46
183 202 104
192 209 148
188 207 120
180 200 76
172 192 43
178 199 59
178 198 52
179 199 43
179 200 43
180 200 65
180 200 71
175 195 71
182 201 65
178 198 52
176 196 76
179 198 52
172 192 59
174 192 43
174 193 59
175 196 0
176 196 52
174 194 0
177 196 0
175 195 0
176 195 31
177 197 0
171 190 0
175 195 0
176 196 0
173 192 0
174 193 0
177 196 0
174 193 0
173 192 0
178 197 0
175 195 0
177 197 0
178 197 0
173 192 0
173 194 0
172 190 31
175 194 0
174 193 0
169 187 0
178 197 0
169 189 0
176 195 0
174 193 0
174 193 0
170 188 0
175 194 0
177 196 0
171 189 0
177 196 0
173 193 0
174 192 0
170 189 0
175 193 0
173 192 0
168 187 0
169 187 31
171 190 0
175 192 0
172 191 0
171 190 0
177 195 0
168 186 0
167 186 0
171 190 0
172 191 0
173 191 0
169 187 31
166 184 0
169 187 0
173 190 0
176 193 31
170 188 0
172 190 0
170 188 0
160 178 0
172 191 0
167 186 0
171 189 31
169 187 0
167 184 0
168 187 31
164 183 0
168 187 0
169 187 0
165 185 0
164 183 52
166 185 52
166 183 43
167 186 59
171 189 59
165 183 0
170 189 31
166 184 31
171 189 52
167 184 81
163 182 65
164 182 31
162 180 0
163 182 0
174 191 0
167 185 0
166 184 0
164 183 0
154 173 0
163 182 0
161 178 0
162 181 0
169 188 0
159 177 0
165 183 0
162 181 0
166 184 0
154 172 0
161 179 0
155 174 0
164 183 0
162 181 0
160 178 0
155 172 0
160 179 0
149 167 0
158 176 0
161 179 0
151 170 0
160 179 0
158 177 0
152 170 0
150 168 0
153 173 0
154 173 0
144 161 0
141 158 0
159 176 0
158 176 0
144 163 0
145 164 0
148 167 0
151 169 0
152 172 0
144 162 0
152 170 0
152 171 0
145 164 0
150 170 0
146 164 0
144 162 0
148 165 0
141 159 0
138 156 0
143 161 0
141 159 0
149 166 0
145 164 0
136 153 0
143 161 0
141 159 0
142 159 0
131 148 0
138 154 0
143 159 0
121 138 0
139 155 0
140 156 0
131 147 0
134 151 0
123 139 0
119 135 0
129 145 0
140 156 0
132 147 0
116 129 0
113 127 0
117 133 0
126 141 0
116 130 0
117 131 0
111 125 0
105 119 0
107 121 0
106 120 0
105 118 0
119 132 0
106 120 0
102 114 0
110 124 0
96 109 0
106 120 0
99 113 0
103 115 0
110 123 0
109 122 0
93 106 0
102 116 0
107 119 0
108 120 0
101 112 0
95 107 0
104 117 0
96 108 0
99 109 0
101 113 0
100 112 0
103 115 0
109 120 0
100 111 0
103 115 0
108 119 0
104 115 0
86 96 0
100 112 0
96 108 0
101 115 0
106 117 0
89 102 0
113 125 0
119 130 0
114 126 0
112 123 0
116 127 0
105 117 0
110 122 0
106 117 0
114 127 0
111 122 0
123 135 0
120 133 0
115 130 0
108 117 0
113 123 0
126 140 0
120 133 0
116 130 0
111 122 0
130 142 0
123 135 0
112 125 0
124 135 0
125 137 0
126 140 0
117 131 0
123 133 0
133 145 0
123 133 0
120 132 0
127 139 0
137 149 0
129 138 0
124 138 0
134 144 0
137 149 0
126 136 0
118 129 0
126 136 0
127 137 0
129 138 0
128 137 0
124 135 0
130 139 0
134 143 0
130 141 0
116 124 0
132 139 0
132 138 0
129 138 0
125 136 0
127 136 0
110 117 0
124 132 0
135 145 0
121 128 0
124 129 0
127 134 0
130 135 0
120 125 0
122 129 0
117 124 0
113 118 0
114 119 0
137 141 0
120 125 0
119 122 0
113 117 0
106 109 0
111 114 0
105 109 0
119 120 0
103 104 0
112 112 0
105 106 0
109 111 0
115 113 0
117 118 0
102 101 0
107 106 0
98 98 0
85 81 0
95 86 15
87 81 25
89 80 20
95 88 25
99 91 25
94 87 15
90 84 15
100 94 15
97 91 20
96 90 20
112 104 15
103 96 28
99 91 25
99 93 20
112 105 25
105 96 20
115 107 28
99 92 20
117 109 34
117 110 28
106 100 28
114 107 30
111 104 25
114 108 28
105 98 25
115 109 25
110 104 20
126 118 20
114 109 20
120 112 39
113 106 15
122 116 34
111 105 28
118 113 20
110 104 25
117 111 15
121 116 31
113 107 36
121 114 36
123 118 28
116 111 15
132 126 39
110 104 25
118 110 31
121 114 36
117 113 34
123 116 36
127 120 43
127 121 36
117 111 36
126 120 36
123 115 43
128 123 28
129 124 36
124 116 34
127 119 43
125 118 34
121 116 20
113 108 20
129 123 41
123 115 43
118 112 34
116 110 34
122 115 34
130 123 39
117 111 34
132 124 45
124 118 39
116 111 36
138 131 48
128 121 46
130 124 48
142 136 48
125 119 39
125 118 41
135 129 48
129 122 50
120 113 31
121 116 39
119 112 28
126 119 50
127 120 41
139 131 52
128 122 45
121 114 46
126 119 50
123 119 41
127 122 46
111 106 39
122 116 41
117 111 36
128 123 43
120 112 50
114 110 45
116 109 43
128 122 52
127 121 46
120 115 52
127 131 34
177 197 0
177 197 43
185 204 97
187 205 131
188 206 141
182 201 85
182 202 65
174 194 59
178 198 52
177 198 0
178 199 43
177 197 43
178 198 52
175 196 0
176 197 52
178 198 31
177 197 31
178 198 59
172 192 43
178 197 52
181 201 65
182 201 71
174 193 0
174 194 43
176 196 0
177 196 0
175 195 0
173 194 0
174 194 0
176 196 0
175 194 0
178 196 0
176 194 0
178 198 0
175 194 31
178 198 0
174 193 0
176 196 0
173 192 0
173 192 0
172 190 0
171 190 0
171 189 0
175 194 0
176 196 0
174 193 0
174 193 0
175 194 0
165 184 0
172 190 0
177 195 0
179 199 0
170 190 0
170 190 0
174 191 0
178 196 0
177 195 0
175 194 0
173 191 0
172 189 0
168 187 0
167 184 0
171 190 0
176 195 0
169 188 0
173 191 0
168 185 0
174 193 31
171 191 0
172 190 0
170 188 0
170 189 0
163 180 0
175 192 31
170 186 0
168 186 0
172 191 0
168 187 0
172 189 0
169 187 0
168 186 0
168 186 0
164 182 0
168 185 0
165 183 0
166 185 31
171 187 0
162 180 52
168 186 52
170 188 43
175 192 76
165 183 65
165 183 65
166 185 59
170 188 52
166 183 43
180 198 93
172 190 59
167 185 52
164 181 0
165 184 0
168 187 0
158 174 0
165 183 0
164 182 0
159 176 0
163 181 0
159 177 0
161 180 0
161 180 0
164 183 0
165 184 0
161 179 0
162 181 0
161 179 0
160 178 0
158 176 0
158 176 0
157 175 0
164 183 0
161 180 0
160 178 0
163 181 0
161 178 0
159 177 0
160 179 0
160 180 0
160 178 0
162 180 0
156 174 0
161 180 0
151 170 0
150 169 0
155 173 0
153 173 0
161 179 0
162 181 0
146 164 0
149 168 0
150 168 0
151 170 0
154 171 0
154 173 0
163 182 0
153 172 0
151 170 0
159 178 0
147 165 0
155 174 0
147 165 0
138 156 0
142 159 0
147 166 0
147 165 0
152 171 0
142 161 0
146 165 0
143 161 0
144 162 0
142 160 0
140 158 0
142 159 0
140 156 0
131 149 0
132 150 0
133 150 0
138 153 0
138 155 0
138 154 0
136 151 0
129 145 0
118 135 0
123 139 0
129 145 0
126 140 0
123 139 0
128 144 0
123 138 0
120 136 0
120 136 0
133 147 0
111 127 0
125 139 0
116 131 0
121 134 0
108 123 0
120 133 0
109 123 0
110 124 0
117 131 0
111 123 0
101 114 0
104 118 0
108 122 0
112 125 0
111 125 0
113 125 0
84 98 0
110 123 0
109 122 0
97 109 0
90 103 0
113 125 0
104 115 0
102 114 0
114 127 0
106 119 0
96 108 0
105 116 0
102 114 0
111 122 0
104 117 0
101 112 0
103 115 0
94 105 0
98 110 0
119 133 0
123 136 0
117 130 0
101 114 0
102 116 0
120 134 0
110 122 0
115 129 0
108 120 0
111 122 0
117 128 0
110 124 0
123 135 0
129 142 0
115 130 0
128 142 0
124 135 0
122 137 0
127 138 0
125 136 0
117 129 0
121 134 0
123 135 0
132 144 0
123 134 0
137 151 0
132 146 0
134 147 0
133 145 0
130 142 0
129 142 0
133 146 0
129 142 0
130 142 0
136 150 0
133 146 0
130 143 0
142 155 0
133 145 0
137 150 0
136 148 0
131 142 0
123 134 0
116 124 0
133 143 0
133 145 0
121 129 0
130 140 0
127 135 0
119 128 0
131 140 0
126 137 0
133 143 0
131 140 0
123 134 0
125 134 0
127 133 0
132 139 0
124 130 0
133 143 0
123 131 0
127 135 0
120 126 0
113 119 0
122 126 0
128 135 0
123 129 0
122 126 0
127 130 0
119 124 0
132 137 0
121 124 0
119 121 0
123 125 0
116 119 0
112 115 0
104 106 0
115 116 0
107 108 0
114 112 0
112 113 0
93 92 0
92 87 0
106 105 0
104 103 0
105 102 0
82 77 0
81 73 0
87 80 0
88 80 0
92 84 15
96 87 18
100 95 11
86 79 0
106 96 20
93 86 15
96 87 20
106 98 20
94 86 0
101 93 25
102 95 31
96 90 20
99 92 11
102 95 15
109 99 3
114 106 20
105 99 20
117 109 28
110 103 20
109 103 25
104 99 20
112 106 28
90 85 20
112 105 15
103 97 20
121 114 31
112 108 28
116 110 28
111 105 25
111 106 20
120 113 28
121 116 31
110 103 20
108 103 28
117 111 41
127 118 36
126 118 31
128 121 36
119 114 25
122 116 36
121 115 28
126 119 31
120 113 41
112 105 25
120 113 34
113 106 41
116 110 25
117 111 36
127 121 36
120 113 41
115 109 31
121 114 31
117 110 34
126 119 41
127 120 45
116 111 36
126 121 36
126 120 41
115 108 43
132 126 45
125 118 39
121 114 39
135 129 55
119 112 39
125 119 46
123 116 36
120 114 45
131 125 43
122 116 39
117 112 45
119 115 31
132 125 46
115 110 34
120 114 31
116 111 34
123 117 46
122 116 45
130 123 50
126 119 48
113 108 39
126 120 50
124 117 50
124 119 46
123 118 43
115 110 36
128 121 52
117 111 45
134 129 50
118 112 52
107 102 36
132 132 45
136 144 34
160 177 20
172 190 0
172 192 0
176 196 0
175 196 0
174 194 0
178 199 81
186 205 123
189 207 143
187 205 141
186 204 104
176 195 71
177 197 59
176 197 43
173 192 59
174 194 59
174 194 59
177 196 0
183 202 65
175 196 0
178 198 43
175 195 71
173 193 43
176 196 43
173 193 52
172 191 52
180 199 71
174 194 43
178 197 31
173 192 0
178 198 0
169 189 0
173 193 0
176 195 0
173 194 0
177 197 0
177 196 0
175 194 31
174 193 0
174 193 0
175 194 31
178 197 0
177 196 0
168 187 0
175 194 0
176 194 0
171 190 31
172 191 0
176 196 0
174 193 0
172 191 0
173 192 0
168 187 0
169 187 0
175 193 0
176 194 0
172 190 31
172 191 0
170 188 0
172 191 0
171 191 0
173 191 0
173 192 0
174 193 0
172 191 0
167 185 31
178 196 0
174 192 0
168 186 31
174 193 0
172 190 0
173 191 0
172 190 0
176 194 0
172 190 0
167 185 0
172 190 31
169 188 31
178 196 0
165 184 0
174 193 0
168 187 0
172 191 0
171 190 0
171 191 0
174 191 76
170 187 52
171 190 43
168 186 31
173 192 85
175 192 59
166 184 52
171 189 59
166 185 59
174 191 43
169 187 71
172 190 71
163 181 59
168 187 0
168 187 0
169 187 0
162 180 0
166 184 0
170 188 0
158 177 0
165 184 0
162 181 0
162 180 0
163 182 0
155 174 0
168 187 0
164 183 0
154 173 0
165 183 0
155 174 0
159 177 0
167 185 0
156 175 0
167 186 0
160 179 0
163 181 0
162 181 0
167 185 0
155 173 0
147 167 0
159 178 0
160 177 0
153 172 0
161 179 0
150 168 0
153 173 0
159 177 0
156 175 0
149 167 0
158 176 0
147 166 0
150 168 0
154 172 0
155 173 0
156 176 0
155 174 0
145 163 0
153 173 0
159 178 0
158 177 0
151 169 0
152 171 0
142 160 0
149 167 0
152 170 0
149 167 0
144 161 0
146 164 0
146 164 0
143 161 0
138 156 0
140 157 0
138 155 0
145 162 0
141 157 0
132 149 0
145 163 0
143 161 0
144 161 0
142 159 0
135 153 0
134 151 0
144 161 0
133 149 0
135 151 0
133 150 0
135 151 0
145 162 0
112 126 0
135 151 0
121 137 0
119 135 0
124 141 0
110 125 0
126 141 0
132 149 0
131 145 0
121 136 0
126 140 0
120 135 0
115 131 0
116 130 0
114 129 0
122 135 0
107 120 0
117 130 0
109 122 0
112 126 0
112 125 0
112 125 0
121 134 0
90 103 0
109 125 0
103 116 0
111 123 0
114 127 0
112 126 0
119 132 0
112 126 0
105 118 0
104 118 0
110 122 0
91 104 0
115 127 0
103 116 0
90 103 0
111 124 0
109 122 0
104 116 0
108 121 0
110 124 0
97 108 0
103 116 0
105 119 0
111 125 0
109 122 0
109 121 0
112 123 0
98 111 0
117 132 0
108 121 0
115 129 0
108 121 0
120 134 0
125 138 0
109 123 0
116 129 0
110 121 0
112 124 0
129 140 0
130 144 0
119 134 0
118 132 0
130 144 0
121 133 0
128 139 0
128 142 0
122 135 0
133 147 0
119 131 0
127 140 0
122 133 0
121 133 0
126 137 0
128 143 0
133 145 0
130 143 0
128 139 0
127 139 0
136 145 0
135 148 0
135 150 0
131 146 0
129 142 0
136 147 0
130 140 0
124 134 0
128 141 0
122 133 0
120 129 0
120 129 0
124 134 0
120 128 0
131 139 0
133 143 0
118 128 0
130 138 0
124 134 0
125 133 0
113 121 0
119 127 0
122 129 0
127 134 0
122 130 0
117 126 0
107 112 0
115 121 0
132 138 0
123 126 0
115 119 0
121 128 0
126 132 0
132 136 0
126 131 0
117 122 0
112 113 0
110 115 0
109 112 0
108 113 0
120 122 0
115 115 0
105 106 0
111 113 0
101 102 0
103 102 0
109 110 0
105 103 0
104 104 0
100 98 0
100 100 0
89 87 0
102 102 0
88 87 0
86 79 15
90 82 25
98 88 28
95 86 11
81 74 15
104 97 25
98 89 0
87 80 15
97 89 15
100 93 15
99 92 20
97 89 15
98 91 15
97 91 15
103 96 20
107 100 20
111 104 25
103 96 25
102 96 25
101 94 15
111 102 25
115 107 34
111 104 25
112 105 15
110 103 20
118 111 31
111 104 15
116 111 30
112 103 0
116 110 25
112 104 20
118 110 28
118 111 36
120 112 20
124 117 28
113 105 31
121 114 36
114 105 25
119 114 34
124 118 41
120 113 25
122 115 31
130 123 36
116 109 31
112 105 36
121 114 28
120 113 34
113 106 28
120 112 36
127 121 36
121 116 31
119 112 31
122 116 52
118 112 34
128 122 43
121 115 20
118 111 31
124 118 36
125 119 41
122 115 34
117 111 36
117 111 20
118 112 31
119 113 34
121 115 46
112 106 25
121 114 39
118 112 39
115 109 28
123 116 45
123 116 36
125 119 41
118 114 39
123 118 41
119 112 45
122 116 45
123 116 43
116 111 41
104 95 28
121 115 45
113 108 31
116 110 45
127 121 50
123 116 45
128 123 50
117 112 34
124 118 52
128 127 46
142 149 31
162 175 0
166 184 0
166 182 0
168 187 0
172 190 0
174 194 0
173 194 0
174 193 0
176 197 0
174 194 0
177 198 0
177 196 0
178 199 52
179 199 59
188 206 125
185 203 138
191 209 125
182 202 81
173 191 52
177 196 31
176 197 52
179 199 43
177 197 52
178 197 52
179 199 59
179 199 52
174 194 31
171 191 43
167 186 31
178 197 71
177 196 59
175 193 52
177 196 59
177 196 71
180 198 65
177 196 65
175 193 31
173 192 0
175 195 0
172 191 52
177 195 0
176 195 31
166 185 0
171 192 0
176 196 0
175 194 0
173 191 0
171 190 0
172 191 0
170 188 0
177 197 0
178 196 31
178 197 0
175 193 0
176 194 0
179 198 43
175 193 31
177 195 0
177 196 0
174 193 0
172 189 0
175 193 0
175 193 0
173 193 0
164 183 31
173 193 0
169 188 0
173 191 0
169 187 0
170 189 0
168 185 0
172 191 31
171 190 0
173 191 0
168 185 0
174 191 0
172 190 0
173 191 43
171 190 0
168 188 0
174 193 31
170 188 0
169 187 0
174 192 31
172 189 52
176 193 71
166 184 59
170 188 59
174 193 52
169 187 52
167 186 65
166 185 52
172 191 31
168 188 52
170 188 65
178 196 81
168 187 52
167 184 31
173 192 0
169 188 0
164 182 0
165 183 0
156 174 0
169 188 0
164 182 0
157 176 0
164 183 0
162 181 0
165 185 0
160 178 0
171 189 0
162 180 0
167 185 0
160 178 0
166 183 0
166 183 0
163 181 0
161 179 0
156 174 0
165 184 0
160 178 0
157 175 0
163 182 0
156 174 0
158 177 0
160 179 0
154 172 0
161 180 0
168 188 0
166 185 0
154 172 0
152 171 0
159 177 0
162 180 0
157 177 0
158 175 0
156 174 0
151 169 0
161 179 0
144 163 0
151 169 0
153 171 0
143 161 0
150 169 0
161 181 0
151 170 0
159 177 0
157 176 0
152 171 0
149 168 0
148 167 0
151 170 0
154 172 0
148 167 0
142 159 0
142 160 0
137 155 0
143 161 0
142 160 0
149 167 0
150 168 0
141 159 0
138 156 0
138 155 0
142 160 0
142 159 0
139 157 0
142 160 0
139 155 0
144 162 0
140 157 0
135 151 0
142 160 0
134 151 0
142 158 0
135 151 0
129 146 0
141 159 0
132 148 0
136 151 0
123 137 0
118 134 0
132 149 0
122 138 0
128 144 0
122 136 0
122 138 0
114 129 0
111 127 0
108 123 0
118 134 0
129 144 0
112 125 0
105 120 0
104 119 0
110 123 0
119 133 0
112 126 0
117 130 0
113 127 0
113 127 0
104 116 0
107 120 0
121 136 0
115 128 0
106 119 0
122 138 0
118 133 0
107 121 0
109 122 0
108 122 0
117 129 0
107 119 0
108 120 0
103 118 0
110 123 0
112 126 0
106 119 0
117 131 0
115 127 0
106 118 0
111 124 0
115 128 0
100 112 0
115 129 0
110 125 0
100 114 0
106 118 0
134 147 0
116 130 0
126 139 0
113 127 0
104 117 0
121 136 0
113 125 0
124 137 0
126 141 0
110 122 0
133 146 0
122 136 0
124 139 0
128 142 0
128 142 0
132 145 0
124 136 0
117 129 0
129 143 0
126 140 0
122 134 0
131 144 0
119 131 0
141 155 0
124 138 0
125 138 0
123 136 0
128 142 0
134 146 0
135 149 0
134 148 0
139 152 0
130 143 0
129 144 0
148 161 0
122 132 0
131 143 0
118 130 0
134 145 0
132 142 0
133 143 0
134 144 0
125 137 0
126 137 0
134 144 0
125 137 0
130 139 0
125 133 0
138 147 0
139 150 0
134 144 0
124 133 0
129 138 0
126 133 0
131 139 0
127 136 0
126 134 0
124 130 0
122 129 0
127 133 0
117 124 0
121 127 0
114 121 0
120 124 0
118 123 0
125 128 0
122 126 0
119 123 0
112 114 0
115 120 0
121 122 0
100 100 0
122 125 0
99 98 0
116 114 0
122 123 0
112 110 0
105 105 0
111 113 0
115 115 0
102 101 0
108 109 0
108 110 0
85 82 0
94 93 0
86 83 0
84 76 0
90 81 20
91 84 28
89 80 0
99 91 15
87 80 15
99 91 20
90 85 23
105 97 0
99 90 25
102 95 15
102 94 0
108 100 15
87 80 0
109 101 28
101 93 15
106 99 15
107 99 39
110 101 31
110 103 0
108 100 25
106 99 25
107 101 34
105 99 28
115 109 20
125 117 31
112 105 28
116 109 31
114 107 34
99 93 11
114 108 28
107 100 20
111 104 28
101 93 0
115 108 28
109 103 20
120 113 34
117 111 28
108 103 28
112 105 28
112 106 31
116 108 36
117 109 20
127 121 39
117 111 39
121 113 43
120 112 28
132 125 40
115 109 31
118 112 39
124 118 46
116 110 34
116 109 39
121 116 41
118 113 34
130 123 45
117 111 25
116 110 43
124 118 45
117 111 36
120 113 45
133 126 34
119 111 43
116 110 31
125 119 41
118 113 39
124 119 36
117 109 46
122 115 34
121 114 36
112 106 43
110 103 31
117 112 36
116 109 45
119 112 41
111 104 43
122 115 41
117 111 43
116 111 48
121 114 48
126 119 39
124 126 36
140 146 28
159 172 20
169 185 0
171 189 0
173 192 0
172 189 0
171 188 0
173 192 0
172 190 0
175 195 0
169 189 0
174 195 0
174 195 0
177 196 0
174 194 0
176 196 0
173 195 0
173 194 0
174 194 0
173 193 31
178 198 76
184 203 108
186 204 136
185 203 108
180 199 93
179 197 59
176 196 43
180 201 43
179 199 71
177 197 52
179 199 31
176 195 52
177 196 52
177 196 43
169 189 43
174 194 43
170 190 43
179 198 52
177 196 65
176 194 52
182 201 65
178 197 71
177 196 43
178 197 59
177 196 31
175 194 43
174 193 43
178 197 43
173 192 31
177 196 0
174 193 0
173 191 0
177 196 0
176 195 0
174 193 0
174 193 0
173 192 0
175 193 0
176 195 0
173 191 0
173 192 0
177 196 0
172 190 0
169 187 0
172 191 0
169 187 31
174 192 0
177 195 0
176 195 31
175 194 0
174 193 0
176 194 0
173 191 0
175 194 31
169 186 0
171 191 0
172 191 0
174 193 52
172 190 31
166 185 43
171 189 0
175 193 52
171 189 59
176 194 59
173 191 52
174 192 31
166 184 31
178 197 52
171 190 43
168 185 59
168 186 0
168 187 59
169 187 52
171 188 31
176 194 71
177 194 101
170 188 85
168 186 59
169 186 31
167 185 0
171 189 0
163 181 0
172 190 0
166 184 0
159 177 0
167 184 0
171 188 0
163 181 0
165 183 0
163 181 0
169 187 0
169 187 0
159 177 0
167 186 0
163 182 0
162 181 0
162 180 0
154 171 0
163 181 0
162 180 0
163 181 0
167 185 0
164 182 0
162 180 0
154 172 0
155 174 0
150 170 0
156 175 0
157 175 0
162 180 0
160 179 0
157 176 0
161 180 0
153 172 0
165 184 0
157 176 0
159 179 0
162 180 0
152 170 0
155 174 0
161 179 0
152 170 0
158 177 0
157 176 0
155 174 0
153 173 0
153 172 0
159 178 0
150 169 0
150 170 0
147 165 0
149 168 0
152 171 0
152 169 0
143 162 0
154 173 0
150 168 0
147 165 0
155 172 0
148 166 0
141 160 0
150 168 0
149 167 0
146 165 0
145 164 0
141 159 0
141 158 0
143 161 0
143 161 0
137 154 0
132 149 0
133 151 0
142 160 0
131 147 0
135 153 0
135 152 0
134 152 0
142 160 0
137 153 0
135 151 0
137 154 0
134 150 0
126 141 0
127 142 0
129 145 0
124 141 0
126 141 0
115 130 0
125 141 0
125 140 0
124 141 0
116 132 0
132 147 0
110 125 0
131 146 0
121 135 0
126 142 0
129 144 0
121 136 0
105 121 0
113 128 0
114 128 0
104 117 0
121 136 0
117 133 0
128 141 0
113 128 0
112 126 0
119 134 0
113 126 0
109 123 0
114 127 0
115 128 0
108 122 0
105 119 0
118 133 0
112 126 0
109 123 0
126 140 0
114 126 0
115 129 0
117 131 0
98 110 0
122 134 0
113 128 0
127 141 0
111 125 0
123 136 0
116 128 0
130 144 0
118 129 0
117 130 0
111 125 0
130 144 0
118 131 0
116 131 0
120 134 0
126 138 0
132 146 0
137 150 0
116 131 0
114 128 0
121 135 0
122 136 0
132 145 0
125 137 0
120 132 0
131 144 0
124 138 0
121 133 0
128 141 0
118 132 0
118 131 0
124 136 0
132 144 0
126 140 0
126 139 0
124 135 0
128 140 0
126 139 0
125 137 0
131 144 0
125 139 0
137 151 0
141 153 0
133 144 0
139 152 0
128 140 0
129 142 0
123 134 0
138 150 0
130 142 0
129 141 0
135 146 0
134 147 0
122 132 0
136 149 0
128 137 0
129 137 0
124 135 0
125 135 0
123 132 0
126 136 0
123 130 0
138 148 0
126 133 0
132 140 0
124 132 0
118 123 0
129 139 0
124 130 0
120 128 0
122 127 0
126 133 0
125 130 0
127 134 0
126 132 0
125 130 0
136 141 0
118 122 0
122 129 0
115 118 0
119 121 0
121 123 0
128 133 0
126 130 0
109 110 0
111 114 0
128 132 0
106 106 0
113 113 0
117 119 0
113 116 0
94 93 0
110 109 0
103 102 0
103 100 0
113 114 0
97 95 0
100 98 0
110 107 15
93 88 0
73 69 0
82 73 0
90 82 0
87 78 0
88 81 20
96 87 0
89 80 0
100 93 25
93 86 0
106 99 0
99 90 15
104 96 25
114 106 28
106 97 15
105 98 28
104 97 25
104 95 15
104 97 15
114 106 28
95 87 15
101 95 15
115 107 25
99 92 25
110 101 25
109 104 20
120 112 25
111 104 28
103 98 15
117 109 31
108 101 15
117 110 25
111 101 25
115 108 28
118 112 34
124 116 39
113 107 31
107 102 25
113 105 15
113 107 36
110 103 39
120 112 31
103 96 31
114 107 36
118 111 34
115 109 28
116 109 34
114 108 31
117 111 31
127 118 36
114 109 25
102 96 28
110 104 31
112 105 25
113 106 31
121 114 39
118 112 36
122 114 36
118 111 31
126 119 39
122 116 39
123 117 45
112 105 39
110 104 31
121 116 39
119 112 34
122 115 45
110 102 36
124 118 45
118 110 34
123 116 36
119 111 36
114 109 45
105 99 39
120 118 31
148 153 31
156 168 20
164 180 15
159 173 0
174 192 0
167 183 0
168 186 0
168 183 0
171 188 0
166 182 0
172 190 0
168 187 0
164 181 0
175 196 0
178 199 0
174 194 0
173 193 0
171 192 0
175 195 0
178 199 0
174 194 0
174 195 0
172 193 0
176 197 0
172 193 0
176 196 0
176 196 0
180 201 59
181 200 76
186 204 131
187 206 125
185 204 117
180 199 93
176 196 52
177 198 43
176 195 65
176 196 31
177 197 52
176 196 43
181 201 59
176 196 0
180 200 65
177 196 65
173 192 43
175 194 52
176 195 43
176 195 31
174 193 59
178 197 52
176 194 43
174 193 31
170 190 31
177 197 0
181 199 59
182 201 71
175 194 59
177 195 0
178 197 52
176 194 52
176 195 59
176 195 43
171 190 43
177 195 59
174 192 43
171 188 52
174 192 43
173 191 43
176 196 0
173 191 0
173 191 52
172 191 43
174 192 0
171 189 31
174 192 43
174 192 52
172 190 0
170 188 0
175 194 31
169 187 31
178 196 43
170 188 31
170 189 43
176 195 52
170 189 43
171 189 52
171 190 52
170 188 59
176 194 43
168 187 0
169 187 52
165 183 31
169 187 43
168 187 31
169 188 43
177 196 65
175 192 76
172 191 65
173 190 52
168 186 65
165 184 0
175 193 0
167 186 0
169 188 0
162 181 0
162 179 0
167 185 0
165 183 0
169 186 0
161 178 0
170 188 0
159 177 0
165 183 0
166 184 0
165 183 0
162 181 0
163 182 0
161 179 0
166 183 0
161 180 0
164 182 0
162 181 0
165 184 0
160 178 0
166 185 0
170 189 0
158 176 0
161 179 0
157 175 0
163 183 0
162 182 0
153 172 0
157 177 0
160 178 0
160 180 0
158 177 0
158 177 0
159 177 0
164 183 0
165 184 0
155 173 0
158 177 0
161 180 0
160 178 0
154 173 0
158 177 0
159 177 0
158 176 0
154 173 0
158 177 0
158 177 0
154 172 0
152 170 0
154 173 0
149 168 0
142 160 0
153 172 0
160 178 0
147 166 0
158 177 0
154 173 0
153 171 0
150 169 0
150 168 0
141 159 0
144 161 0
150 169 0
151 171 0
145 162 0
145 162 0
138 156 0
143 159 0
148 166 0
146 164 0
147 165 0
141 159 0
133 149 0
142 160 0
143 161 0
130 148 0
134 151 0
130 146 0
134 150 0
135 152 0
135 151 0
130 147 0
126 144 0
146 161 0
125 140 0
139 155 0
125 141 0
124 140 0
133 149 0
128 144 0
133 149 0
136 152 0
130 145 0
121 137 0
130 145 0
119 132 0
123 137 0
124 137 0
118 133 0
124 140 0
122 138 0
115 129 0
125 140 0
113 126 0
115 129 0
119 133 0
123 138 0
120 134 0
116 131 0
122 137 0
121 137 0
93 106 0
121 136 0
117 131 0
106 120 0
115 129 0
119 133 0
124 140 0
119 132 0
117 131 0
107 121 0
118 132 0
126 139 0
112 127 0
121 135 0
107 120 0
124 139 0
126 139 0
120 134 0
114 129 0
122 135 0
118 132 0
117 131 0
122 136 0
134 147 0
115 129 0
118 131 0
129 142 0
127 141 0
125 138 0
119 134 0
118 133 0
122 135 0
130 144 0
127 140 0
117 130 0
122 136 0
118 131 0
129 142 0
115 128 0
126 140 0
131 143 0
126 139 0
118 131 0
123 136 0
132 145 0
143 156 0
131 145 0
123 135 0
136 149 0
131 144 0
133 147 0
124 137 0
129 141 0
138 152 0
127 141 0
137 151 0
133 147 0
128 141 0
129 142 0
121 134 0
129 139 0
140 151 0
128 138 0
136 148 0
127 137 0
134 144 0
139 150 0
131 142 0
138 149 0
126 137 0
129 141 0
131 143 0
129 138 0
127 134 0
129 137 0
128 137 0
138 148 0
123 130 0
127 136 0
138 146 0
118 125 0
130 138 0
117 123 0
132 140 0
129 132 0
119 127 0
119 127 0
129 133 0
130 135 0
136 143 0
126 131 0
124 128 0
121 123 0
111 116 0
116 117 0
112 115 0
125 127 0
102 105 0
111 112 0
117 119 0
113 114 0
110 112 0
114 116 0
106 104 0
109 107 0
114 112 0
108 106 0
89 87 0
106 104 0
103 103 0
106 104 0
103 101 0
98 97 0
98 94 15
103 100 0
89 82 25
95 89 20
98 89 20
101 90 15
94 86 20
95 87 20
102 92 28
104 97 15
91 83 0
104 98 31
112 102 34
106 98 28
105 98 15
100 92 31
101 94 20
102 96 25
99 93 28
121 114 25
117 109 31
109 103 0
98 90 0
105 98 20
119 111 25
112 105 28
103 96 20
99 91 28
112 104 31
119 112 28
116 109 31
106 99 31
106 100 20
115 109 31
106 100 31
128 121 34
114 107 28
121 116 31
122 114 43
123 116 41
114 107 36
112 104 41
120 111 36
122 113 34
113 107 31
113 106 31
121 114 43
115 108 36
121 114 34
117 110 34
120 113 36
117 111 25
114 106 39
112 105 36
119 111 31
108 101 28
121 113 36
112 105 36
120 114 31
106 100 41
103 98 25
127 119 52
105 98 31
112 106 34
127 119 45
123 116 36
116 109 43
109 103 31
130 131 31
131 135 28
148 154 28
161 175 0
162 176 0
163 178 0
166 181 0
165 180 0
168 185 0
166 183 0
164 179 0
169 185 0
166 183 0
170 188 0
171 188 0
170 186 0
169 188 0
171 189 0
174 194 0
172 193 0
175 196 0
175 196 0
171 191 0
179 199 0
176 197 0
174 195 0
177 196 0
176 197 0
171 191 0
169 189 0
173 194 0
174 195 0
177 197 0
175 195 0
173 192 0
171 191 0
177 197 52
179 198 85
185 204 114
190 208 123
186 203 117
182 200 114
180 198 89
176 196 59
181 201 52
176 196 43
177 198 31
172 193 0
177 196 43
174 194 43
175 194 43
176 196 31
179 198 52
171 191 43
177 197 43
179 197 31
177 197 65
177 196 52
177 197 43
173 191 31
180 199 71
174 193 52
173 192 52
178 196 52
175 194 71
178 197 43
175 193 31
179 198 65
171 189 31
177 196 59
176 195 59
179 198 59
175 194 52
174 192 52
172 189 71
172 190 65
175 193 59
175 193 52
174 192 52
172 190 43
176 196 52
180 198 43
175 193 59
179 197 65
175 193 59
173 191 43
175 193 31
175 194 31
171 189 31
175 194 31
176 195 0
171 190 31
171 189 65
173 191 52
171 189 71
175 193 71
171 189 76
169 187 85
170 188 71
168 186 0
165 183 0
173 193 0
170 188 0
162 180 0
168 185 0
171 188 0
163 180 0
171 189 0
159 177 0
162 180 0
168 188 0
168 187 0
165 181 0
161 179 0
167 186 0
158 177 0
166 183 0
162 180 0
161 180 0
165 184 0
162 181 0
163 182 0
163 181 0
161 179 0
167 186 0
158 176 0
165 183 0
157 177 0
157 176 0
167 186 0
160 180 0
157 175 0
158 178 0
159 178 0
161 181 0
162 180 0
154 172 0
151 170 0
158 176 0
164 183 0
157 175 0
162 181 0
163 181 0
160 179 0
165 183 0
162 180 0
160 179 0
161 179 0
162 181 0
156 176 0
159 178 0
152 171 0
158 177 0
153 172 0
149 168 0
148 168 0
161 180 0
152 170 0
157 176 0
151 171 0
157 176 0
155 174 0
153 172 0
150 169 0
148 168 0
150 169 0
150 168 0
153 172 0
143 161 0
144 162 0
154 172 0
143 160 0
143 162 0
142 160 0
140 158 0
148 166 0
145 163 0
135 154 0
141 159 0
131 149 0
138 154 0
141 157 0
137 154 0
142 158 0
134 151 0
137 155 0
147 164 0
139 156 0
131 147 0
132 149 0
141 158 0
138 154 0
130 148 0
131 149 0
129 146 0
121 137 0
129 145 0
131 147 0
123 139 0
135 151 0
130 146 0
115 129 0
126 141 0
116 131 0
116 131 0
142 157 0
116 130 0
118 133 0
131 147 0
136 151 0
123 138 0
120 135 0
110 122 0
128 142 0
123 138 0
135 150 0
107 121 0
110 124 0
133 147 0
114 129 0
122 137 0
119 135 0
126 141 0
115 130 0
111 126 0
119 133 0
131 147 0
126 140 0
128 143 0
133 148 0
123 137 0
127 143 0
122 137 0
113 127 0
113 128 0
121 135 0
121 136 0
129 142 0
108 123 0
122 135 0
125 139 0
121 135 0
129 143 0
116 130 0
131 145 0
115 129 0
126 139 0
127 142 0
128 140 0
124 136 0
134 147 0
128 142 0
134 149 0
122 137 0
125 138 0
117 130 0
130 143 0
113 129 0
124 135 0
121 131 0
134 150 0
130 143 0
130 143 0
137 151 0
123 133 0
126 139 0
131 143 0
133 146 0
137 152 0
133 145 0
129 142 0
137 150 0
136 149 0
138 152 0
130 144 0
139 153 0
138 152 0
140 155 0
130 142 0
132 147 0
135 147 0
133 145 0
133 145 0
142 154 0
136 148 0
125 133 0
131 143 0
141 154 0
127 138 0
132 145 0
128 138 0
133 142 0
136 148 0
123 131 0
129 136 0
140 149 0
129 138 0
132 140 0
129 137 0
117 124 0
121 127 0
128 138 0
122 128 0
125 130 0
118 126 0
126 134 0
124 128 0
129 136 0
122 127 0
112 117 0
135 144 0
122 125 0
125 130 0
119 123 0
130 135 0
127 131 0
117 120 0
115 117 0
119 120 0
114 115 0
121 120 0
101 101 0
115 118 0
116 117 0
115 115 0
122 122 0
120 122 0
99 98 0
113 111 0
117 118 0
97 94 0
121 118 0
96 93 0
105 104 0
100 99 0
112 110 0
101 99 0
99 95 0
98 94 15
87 78 0
82 73 15
94 86 0
99 89 20
92 84 25
93 85 0
105 97 28
104 97 15
100 91 15
98 88 20
101 92 25
99 92 20
101 90 28
98 93 31
97 91 31
107 100 31
114 105 25
101 95 15
106 98 15
111 104 25
105 97 20
117 110 39
115 107 15
116 107 34
125 116 28
106 98 28
113 104 34
105 99 30
120 113 31
112 105 20
99 93 25
110 102 25
111 105 41
123 114 39
113 105 41
120 113 43
118 111 41
117 112 36
110 105 28
126 118 39
113 107 34
111 104 25
115 108 36
121 113 28
119 112 34
120 113 41
113 106 34
114 107 31
114 107 41
125 118 48
111 104 28
128 121 43
116 109 41
119 112 46
122 114 34
100 95 36
115 115 39
125 126 31
138 143 31
155 166 20
159 170 15
162 177 0
162 178 0
164 178 0
161 174 0
156 169 0
166 181 0
162 175 0
169 185 0
168 182 0
168 183 0
158 172 0
167 183 0
167 183 0
163 178 0
168 185 0
167 184 0
168 186 0
174 191 0
170 190 0
177 197 0
174 195 0
176 195 0
172 192 0
177 198 0
174 194 0
172 192 0
174 195 0
176 196 0
178 198 0
175 195 0
175 195 0
172 192 0
177 197 0
173 193 0
173 193 0
174 194 0
174 194 0
175 195 0
178 197 0
174 194 0
176 195 0
179 199 0
180 199 65
184 202 104
184 202 111
180 198 108
185 204 108
186 203 120
179 199 81
177 197 43
178 197 59
176 196 59
175 194 0
173 193 31
178 197 52
181 201 43
175 195 31
175 193 43
177 196 43
173 193 52
177 197 31
178 198 52
174 193 31
175 194 31
176 195 31
176 196 52
179 198 59
179 198 59
176 195 52
178 197 43
172 191 0
174 193 43
180 198 31
174 191 52
174 192 59
175 194 43
171 189 43
176 196 52
172 190 43
176 195 52
176 194 65
177 196 0
175 194 43
170 189 31
178 196 31
168 186 59
172 192 31
178 196 65
180 199 59
179 196 108
175 193 71
169 186 76
174 193 65
172 191 71
172 191 31
167 184 0
171 189 0
171 188 0
168 187 0
164 182 0
169 187 0
166 184 0
171 189 0
174 193 0
167 185 0
168 186 0
171 190 0
167 186 0
163 182 0
168 187 0
160 179 0
159 178 0
164 182 0
165 184 0
160 179 0
163 181 0
159 176 0
165 184 0
163 181 0
163 181 0
169 188 0
171 190 0
163 182 0
173 192 0
159 178 0
165 184 0
165 185 0
159 177 0
162 180 0
158 177 0
164 183 0
156 173 0
162 181 0
162 181 0
160 179 0
155 175 0
162 181 0
165 184 0
158 176 0
160 179 0
156 175 0
160 178 0
161 180 0
154 173 0
160 179 0
159 178 0
161 179 0
158 177 0
159 178 0
159 178 0
162 180 0
159 177 0
159 178 0
163 182 0
156 176 0
155 174 0
153 172 0
155 173 0
155 174 0
148 168 0
152 171 0
156 175 0
153 171 0
157 176 0
155 173 0
144 165 0
150 169 0
152 171 0
145 163 0
148 167 0
148 167 0
144 162 0
148 166 0
146 164 0
138 156 0
146 165 0
151 169 0
144 162 0
145 163 0
142 160 0
142 158 0
140 158 0
142 160 0
148 166 0
140 157 0
136 153 0
146 163 0
144 163 0
134 151 0
134 151 0
132 149 0
127 143 0
131 148 0
127 144 0
138 154 0
132 147 0
129 146 0
119 136 0
130 146 0
119 136 0
132 146 0
124 140 0
130 147 0
125 141 0
128 144 0
134 149 0
127 142 0
130 146 0
125 141 0
123 140 0
115 130 0
131 147 0
117 132 0
118 133 0
120 136 0
126 141 0
133 149 0
120 135 0
127 141 0
129 144 0
130 144 0
123 139 0
115 129 0
122 136 0
127 142 0
129 144 0
111 125 0
124 138 0
122 137 0
129 144 0
136 151 0
117 130 0
130 144 0
122 136 0
123 137 0
125 139 0
123 138 0
126 140 0
121 135 0
121 134 0
128 143 0
119 133 0
131 145 0
121 135 0
124 139 0
126 139 0
134 148 0
132 147 0
123 136 0
129 144 0
129 142 0
132 146 0
128 141 0
114 126 0
131 145 0
132 147 0
126 140 0
123 137 0
127 141 0
126 141 0
127 141 0
127 140 0
139 153 0
132 146 0
129 139 0
132 143 0
131 144 0
139 154 0
136 150 0
129 142 0
127 139 0
127 141 0
138 152 0
144 157 0
142 155 0
130 141 0
147 163 0
141 154 0
139 154 0
142 155 0
147 161 0
125 135 0
135 148 0
135 147 0
128 137 0
129 140 0
128 137 0
132 144 0
122 131 0
142 153 0
132 140 0
138 147 0
129 138 0
140 149 0
134 145 0
127 135 0
133 141 0
138 148 0
130 139 0
135 145 0
123 129 0
135 144 0
127 137 0
139 147 0
126 134 0
121 128 0
132 139 0
131 136 0
132 138 0
126 135 0
137 141 0
132 139 0
127 129 0
130 132 0
126 128 0
117 120 0
135 140 0
111 113 0
131 135 0
121 122 0
115 118 0
130 134 0
109 111 0
118 120 0
111 112 0
111 113 0
114 113 0
122 123 0
115 112 0
120 121 0
111 109 0
117 119 0
101 98 0
114 115 0
107 107 0
104 102 0
105 99 0
112 113 0
95 94 0
100 99 0
108 107 0
103 102 0
110 109 0
100 93 20
100 95 15
89 84 15
85 77 0
89 81 15
101 91 15
87 79 15
94 87 20
96 87 15
107 100 25
100 93 25
113 105 31
94 85 20
113 103 31
104 97 34
107 98 25
92 85 15
107 99 31
103 96 25
105 98 31
107 99 31
108 99 31
109 101 31
106 97 34
107 99 36
107 100 34
110 101 28
111 103 25
106 100 28
122 114 39
109 100 28
104 98 25
99 90 0
103 95 15
108 101 25
104 96 28
121 114 39
109 102 28
113 106 39
108 102 34
112 105 39
125 117 28
99 93 20
106 100 43
108 100 28
114 107 36
117 108 39
122 118 28
131 135 31
136 141 0
151 159 0
157 167 15
159 169 0
159 172 0
160 172 0
157 169 0
158 172 0
165 177 0
165 179 0
164 178 0
166 180 0
163 177 0
169 186 0
167 182 0
166 182 0
163 178 0
162 179 0
169 186 0
171 186 0
165 181 0
167 181 0
168 184 0
164 180 0
165 180 0
167 182 0
173 193 0
179 200 0
177 197 0
174 194 0
177 197 0
176 196 0
177 197 0
177 197 0
176 196 0
174 194 0
176 198 0
178 199 0
175 195 0
174 194 0
180 200 0
173 194 0
176 196 0
177 196 0
176 195 0
172 191 0
175 194 0
173 192 0
178 198 0
176 196 0
175 194 0
172 192 0
177 196 0
181 200 0
175 194 0
175 196 31
174 193 43
179 199 65
181 199 97
184 201 108
182 201 117
178 197 101
183 201 104
183 202 93
188 206 111
180 198 89
180 199 89
179 197 89
172 191 59
175 194 71
177 196 52
175 194 52
174 195 43
173 192 31
175 194 43
172 191 0
170 190 31
174 192 31
175 194 0
173 192 43
177 197 52
181 199 31
171 190 43
177 196 65
170 189 65
176 194 85
183 202 71
181 200 65
181 199 89
178 196 104
177 194 97
176 194 59
174 192 71
178 196 71
177 195 85
176 194 43
172 190 43
172 189 0
173 191 0
173 192 0
171 189 0
169 187 0
172 191 0
166 184 0
172 189 0
170 188 0
171 189 0
167 185 0
170 188 0
166 185 0
164 182 0
170 188 0
169 189 0
170 187 0
162 181 0
162 179 0
168 187 0
162 181 0
169 187 0
165 183 0
161 179 0
164 182 0
166 184 0
171 189 0
160 178 0
161 180 0
169 187 0
166 184 0
167 186 0
163 182 0
159 178 0
160 179 0
157 177 0
161 179 0
160 179 0
154 172 0
164 183 0
163 182 0
159 177 0
169 187 0
148 167 0
154 173 0
168 186 0
155 172 0
159 178 0
155 173 0
166 185 0
159 178 0
157 175 0
165 184 0
160 179 0
156 174 0
165 184 0
158 177 0
163 182 0
148 167 0
165 186 0
161 180 0
165 186 0
149 169 0
162 182 0
162 180 0
156 174 0
158 176 0
161 181 0
153 173 0
149 167 0
145 164 0
153 172 0
152 172 0
157 177 0
140 159 0
140 158 0
144 163 0
152 171 0
150 168 0
149 168 0
136 153 0
143 161 0
144 163 0
147 166 0
155 172 0
143 162 0
145 163 0
141 158 0
131 149 0
143 161 0
146 164 0
144 161 0
141 158 0
135 152 0
134 151 0
148 165 0
143 160 0
140 158 0
129 147 0
137 153 0
152 169 0
133 150 0
125 142 0
147 164 0
129 146 0
129 146 0
135 152 0
143 160 0
134 149 0
120 135 0
131 146 0
132 147 0
132 149 0
130 146 0
122 138 0
129 145 0
137 152 0
127 144 0
123 139 0
126 141 0
126 140 0
132 147 0
126 142 0
125 140 0
117 132 0
128 143 0
121 137 0
120 134 0
115 130 0
123 139 0
122 137 0
127 142 0
131 147 0
118 132 0
114 129 0
113 127 0
116 130 0
120 134 0
133 147 0
124 140 0
124 139 0
124 140 0
125 139 0
118 131 0
114 128 0
105 120 0
127 141 0
127 141 0
130 144 0
129 146 0
126 141 0
130 146 0
130 144 0
124 137 0
109 125 0
116 130 0
120 133 0
132 147 0
131 145 0
130 146 0
128 142 0
134 146 0
137 152 0
129 144 0
128 143 0
118 132 0
124 137 0
138 153 0
129 143 0
128 142 0
134 149 0
129 142 0
136 149 0
140 155 0
127 141 0
132 146 0
127 139 0
128 142 0
134 148 0
139 155 0
140 154 0
141 154 0
129 142 0
140 153 0
128 142 0
126 140 0
133 146 0
138 152 0
127 140 0
121 135 0
142 155 0
136 149 0
134 148 0
133 146 0
141 153 0
130 141 0
145 158 0
133 147 0
131 143 0
139 148 0
134 145 0
132 144 0
146 156 0
138 149 0
132 143 0
126 134 0
133 141 0
134 144 0
128 138 0
132 142 0
143 152 0
139 147 0
127 133 0
131 142 0
130 138 0
131 140 0
129 138 0
127 134 0
132 137 0
121 128 0
132 141 0
133 138 0
121 126 0
130 135 0
124 130 0
128 132 0
133 138 0
131 137 0
125 127 0
118 124 0
120 124 0
136 140 0
116 118 0
120 124 0
125 126 0
116 119 0
118 118 0
114 118 0
120 121 0
117 117 0
121 122 0
112 113 0
113 114 0
115 114 0
126 126 0
113 112 0
110 112 0
115 117 0
114 115 0
109 109 0
104 104 0
107 105 0
105 105 0
106 103 0
119 118 0
120 120 0
115 116 0
118 118 0
118 119 0
112 110 0
105 102 0
104 104 15
95 88 20
93 85 0
100 91 0
89 81 0
96 86 20
97 89 20
104 95 25
106 98 28
110 102 28
101 94 20
103 98 25
93 85 25
98 92 20
105 98 28
111 104 25
93 85 20
105 97 28
110 102 36
104 97 28
107 100 28
111 105 34
107 99 34
98 90 15
106 99 31
103 96 28
107 99 25
118 111 39
114 108 36
117 109 39
120 115 31
112 108 34
105 104 20
115 115 25
124 125 15
144 145 0
135 141 25
153 160 20
157 165 15
160 169 0
160 168 0
159 167 0
157 167 0
154 165 0
161 173 0
156 168 0
157 167 0
160 169 0
170 184 0
164 174 0
162 175 0
163 176 0
165 179 0
162 174 0
160 170 0
167 181 0
163 178 0
171 187 0
167 179 0
170 186 0
170 186 0
169 184 0
163 180 0
170 185 0
168 184 0
169 184 0
166 180 0
171 187 0
177 197 0
174 195 0
174 193 0
175 194 0
170 189 0
177 198 0
174 194 0
177 199 0
173 193 0
177 197 0
177 198 0
176 195 0
173 194 0
176 196 0
174 194 0
175 195 0
180 200 0
177 197 0
173 192 0
173 192 0
176 195 0
179 198 0
171 190 0
172 192 0
179 198 0
173 193 0
178 197 0
173 193 0
175 194 0
175 194 0
176 196 0
173 192 0
173 193 0
177 196 0
173 192 0
175 195 0
171 189 0
172 191 0
173 192 0
171 191 0
175 195 52
177 196 43
179 197 76
180 197 65
180 199 81
180 197 108
181 198 104
183 200 101
179 196 65
176 194 76
181 199 81
172 191 76
177 195 81
179 197 101
182 200 76
181 199 97
181 199 89
178 197 76
175 193 52
173 192 59
172 190 0
176 194 0
174 192 0
173 192 0
175 193 0
166 184 0
170 189 0
178 196 0
167 186 0
173 191 0
176 195 0
172 189 0
174 193 0
171 189 0
172 190 0
168 184 0
169 187 0
175 193 0
170 187 0
166 182 0
166 184 0
163 182 0
171 190 0
167 186 0
167 186 0
165 183 0
170 188 0
168 186 0
165 183 0
165 183 0
163 181 0
167 185 0
163 181 0
166 184 0
159 177 0
164 182 0
172 191 0
164 183 0
161 180 0
169 189 0
161 179 0
158 176 0
165 184 0
167 186 0
162 181 0
161 180 0
165 184 0
155 175 0
166 184 0
165 183 0
164 183 0
160 179 0
160 179 0
165 183 0
156 174 0
156 174 0
157 177 0
173 192 0
158 177 0
159 176 0
163 182 0
154 173 0
157 176 0
151 168 0
157 176 0
155 174 0
158 178 0
161 180 0
161 181 0
161 180 0
156 175 0
158 177 0
159 176 0
150 168 0
151 169 0
156 175 0
161 181 0
157 176 0
159 177 0
152 171 0
155 174 0
143 161 0
143 162 0
151 168 0
163 182 0
149 167 0
150 170 0
150 169 0
154 172 0
154 172 0
148 167 0
141 160 0
153 171 0
145 163 0
141 159 0
155 172 0
145 163 0
139 158 0
143 161 0
148 166 0
139 157 0
148 166 0
136 153 0
144 162 0
136 154 0
130 147 0
141 159 0
139 155 0
138 155 0
143 161 0
137 154 0
139 156 0
136 153 0
127 143 0
134 151 0
132 149 0
134 151 0
138 155 0
134 151 0
133 150 0
128 146 0
126 143 0
132 148 0
128 145 0
128 144 0
141 158 0
129 144 0
123 138 0
132 148 0
127 143 0
120 137 0
125 142 0
135 152 0
122 139 0
127 142 0
134 149 0
125 140 0
121 137 0
118 134 0
119 134 0
133 149 0
126 141 0
116 132 0
136 151 0
123 140 0
126 141 0
125 141 0
133 148 0
121 135 0
121 136 0
123 138 0
123 138 0
132 147 0
127 140 0
120 135 0
129 144 0
131 145 0
125 140 0
132 147 0
127 142 0
121 136 0
118 133 0
126 141 0
108 122 0
134 150 0
125 138 0
126 140 0
128 142 0
119 134 0
134 150 0
132 144 0
129 144 0
129 141 0
123 137 0
132 148 0
124 137 0
129 144 0
129 145 0
118 131 0
137 151 0
135 148 0
136 150 0
137 152 0
132 144 0
121 135 0
130 143 0
137 152 0
131 145 0
135 151 0
134 148 0
139 155 0
140 153 0
134 150 0
146 161 0
137 149 0
140 154 0
136 151 0
130 142 0
130 143 0
140 153 0
143 157 0
139 153 0
138 150 0
129 142 0
129 143 0
131 145 0
139 152 0
138 150 0
136 149 0
133 144 0
133 144 0
138 147 0
137 149 0
134 144 0
133 144 0
141 153 0
133 145 0
135 146 0
123 132 0
138 147 0
120 131 0
143 153 0
132 140 0
123 133 0
131 141 0
140 148 0
131 141 0
141 149 0
127 133 0
132 140 0
130 136 0
134 142 0
133 142 0
118 125 0
137 147 0
127 132 0
129 135 0
113 118 0
121 126 0
127 134 0
130 135 0
120 128 0
120 125 0
117 120 0
122 123 0
124 129 0
117 121 0
102 101 0
119 119 0
108 107 0
117 118 0
119 122 0
127 129 0
106 107 0
125 125 0
123 122 0
113 112 0
124 124 0
121 122 0
114 115 0
109 107 0
127 126 0
104 101 0
113 112 0
102 103 0
108 105 0
105 101 0
102 99 0
118 118 0
122 124 0
120 122 0
118 116 0
100 98 0
125 125 0
118 115 0
121 121 0
119 118 0
121 121 0
124 127 0
116 116 15
113 113 0
114 113 0
116 115 0
124 125 0
129 128 20
114 110 20
112 110 15
123 123 15
125 125 15
124 125 0
114 109 20
123 120 15
122 122 25
139 139 20
128 129 0
133 132 15
136 137 0
126 129 20
143 147 15
135 136 15
147 154 0
149 154 0
151 158 0
146 151 0
149 153 0
157 165 0
157 164 0
152 159 0
152 162 0
155 164 0
155 162 0
153 161 0
156 166 0
154 163 0
153 164 0
161 171 0
154 163 0
163 174 0
162 175 0
159 170 0
154 165 0
164 177 0
158 170 0
163 176 0
161 173 0
161 175 0
163 176 0
164 176 0
163 175 0
166 180 0
171 186 0
167 181 0
167 181 0
164 178 0
166 180 0
171 187 0
168 183 0
170 185 0
164 180 0
166 182 0
175 196 0
181 202 0
179 199 0
172 192 0
172 191 0
175 194 0
178 199 0
175 194 0
176 196 0
174 195 0
175 195 0
177 197 0
170 189 0
175 194 0
176 197 0
178 198 0
177 197 0
175 196 0
177 197 0
172 193 0
174 194 0
174 194 0
177 196 0
177 197 0
176 197 0
173 192 0
183 202 0
175 195 0
172 191 0
173 192 0
175 195 0
172 191 0
177 196 0
175 194 0
175 194 0
176 196 0
171 190 0
177 195 0
168 187 0
177 197 0
169 188 0
178 197 0
173 192 0
178 198 0
170 188 0
173 191 0
171 189 0
173 192 0
177 195 0
176 196 0
179 197 0
169 187 0
178 196 0
170 187 0
171 190 0
173 191 0
167 186 0
169 187 0
172 191 0
173 191 0
172 190 0
172 191 0
170 188 0
170 188 0
174 193 0
175 192 0
177 195 0
175 193 0
166 185 0
171 189 0
173 192 0
176 195 0
170 188 0
170 188 0
171 190 0
164 181 0
165 183 0
171 189 0
173 191 0
174 192 0
172 190 0
169 187 0
172 190 0
168 185 0
168 186 0
166 185 0
164 183 0
162 181 0
165 183 0
165 184 0
168 186 0
172 191 0
174 192 0
163 181 0
160 178 0
155 174 0
159 177 0
167 186 0
172 190 0
170 188 0
172 191 0
167 185 0
167 186 0
160 179 0
162 181 0
161 180 0
157 177 0
154 173 0
157 176 0
154 172 0
161 181 0
155 174 0
154 173 0
164 183 0
158 176 0
157 175 0
166 185 0
165 184 0
168 187 0
159 178 0
157 176 0
154 173 0
159 179 0
162 182 0
156 176 0
162 181 0
164 183 0
162 181 0
160 179 0
157 177 0
151 171 0
158 176 0
158 177 0
159 178 0
151 171 0
160 180 0
154 174 0
158 178 0
153 172 0
146 166 0
156 175 0
150 169 0
150 169 0
161 181 0
149 168 0
159 179 0
143 161 0
157 176 0
151 170 0
148 166 0
151 170 0
154 174 0
146 165 0
148 166 0
137 154 0
157 175 0
151 169 0
139 156 0
144 161 0
143 161 0
146 165 0
149 166 0
141 159 0
144 162 0
149 167 0
140 158 0
139 157 0
139 157 0
147 165 0
134 151 0
135 152 0
124 142 0
141 159 0
135 153 0
128 146 0
138 155 0
135 152 0
140 156 0
138 155 0
143 159 0
131 149 0
139 156 0
137 153 0
138 154 0
137 153 0
141 157 0
125 142 0
132 147 0
134 151 0
121 136 0
136 151 0
133 149 0
113 128 0
127 144 0
127 144 0
132 149 0
123 139 0
122 140 0
122 138 0
127 142 0
125 140 0
124 140 0
127 143 0
129 145 0
120 135 0
136 152 0
123 137 0
125 140 0
130 146 0
130 145 0
130 145 0
130 146 0
122 137 0
132 147 0
126 140 0
134 149 0
111 126 0
131 146 0
121 136 0
125 140 0
139 154 0
132 147 0
132 146 0
125 139 0
126 141 0
122 139 0
138 153 0
140 155 0
125 140 0
122 137 0
139 152 0
133 147 0
128 142 0
131 144 0
129 143 0
129 144 0
134 150 0
138 151 0
136 151 0
132 148 0
123 136 0
128 143 0
126 141 0
130 144 0
129 144 0
130 144 0
142 156 0
139 153 0
124 138 0
141 156 0
146 162 0
135 149 0
143 158 0
141 156 0
136 149 0
133 145 0
137 151 0
137 153 0
146 162 0
134 148 0
140 154 0
137 151 0
135 149 0
144 159 0
137 151 0
134 148 0
143 157 0
145 158 0
144 157 0
136 148 0
129 141 0
137 147 0
139 151 0
134 144 0
141 152 0
139 152 0
134 144 0
137 150 0
130 141 0
140 149 0
132 144 0
131 140 0
135 145 0
136 146 0
140 152 0
129 138 0
147 157 0
129 137 0
142 150 0
125 133 0
132 139 0
130 138 0
134 144 0
136 143 0
128 134 0
136 144 0
131 139 0
128 132 0
129 136 0
135 143 0
125 131 0
135 142 0
131 139 0
115 118 0
131 135 0
127 132 0
131 134 0
123 125 0
127 129 0
133 139 0
121 122 0
126 129 0
134 139 0
129 131 0
117 121 0
129 131 0
119 122 0
118 118 0
119 119 0
127 129 0
124 123 0
124 125 0
115 116 0
118 117 0
118 118 0
128 128 0
122 123 0
114 114 0
126 125 0
127 128 0
123 124 0
116 118 0
109 108 0
117 114 0
117 114 0
117 116 0
124 125 0
133 133 0
129 132 0
120 121 0
124 122 0
126 127 0
128 129 0
132 131 0
128 131 0
131 133 0
139 144 0
135 138 0
130 131 0
143 146 0
123 126 0
131 132 0
143 145 0
135 135 0
149 153 0
137 140 0
140 145 0
144 149 0
147 153 0
145 151 0
151 158 0
150 158 0
147 153 0
144 151 0
145 153 0
155 163 0
148 156 0
157 163 0
158 168 0
154 163 0
159 171 0
159 167 0
154 162 0
155 165 0
159 169 0
154 164 0
157 167 0
161 171 0
160 171 0
163 173 0
167 180 0
164 176 0
159 168 0
162 171 0
159 172 0
166 177 0
156 166 0
164 176 0
166 179 0
169 182 0
159 174 0
162 175 0
165 179 0
161 175 0
165 180 0
165 179 0
168 185 0
163 177 0
165 180 0
168 184 0
176 197 0
179 199 0
176 197 0
177 197 0
175 196 0
175 195 0
175 196 0
175 195 0
174 194 0
179 199 0
173 193 0
177 196 0
174 194 0
175 195 0
177 197 0
175 195 0
176 196 0
174 194 0
174 193 0
180 200 0
174 193 0
176 196 0
172 192 0
174 194 0
170 189 0
174 192 0
178 197 0
176 195 0
171 190 0
172 192 0
178 197 0
177 197 0
172 191 0
173 191 0
170 189 0
177 196 0
176 196 0
177 196 0
174 194 0
176 194 0
170 189 0
171 189 0
165 182 0
171 190 0
180 198 0
174 192 0
171 190 0
173 192 0
175 194 0
172 191 0
178 196 0
176 194 0
173 191 0
170 187 0
171 191 0
169 188 0
170 189 0
171 189 0
174 193 0
169 189 0
172 190 0
169 188 0
166 185 0
170 188 0
177 196 0
176 194 0
173 193 0
170 188 0
174 193 0
173 192 0
172 191 0
175 194 0
170 189 0
169 187 0
166 184 0
176 194 0
166 185 0
168 187 0
170 189 0
169 188 0
166 183 0
163 182 0
170 189 0
171 188 0
166 184 0
170 189 0
165 184 0
172 190 0
165 184 0
165 185 0
169 187 0
169 187 0
167 185 0
165 185 0
167 186 0
164 182 0
156 173 0
165 184 0
164 182 0
168 187 0
166 183 0
159 178 0
160 178 0
162 180 0
163 183 0
164 183 0
154 173 0
173 191 0
162 180 0
165 183 0
160 180 0
161 181 0
160 177 0
159 178 0
161 180 0
155 174 0
167 185 0
166 184 0
156 174 0
158 176 0
159 177 0
158 178 0
162 182 0
167 187 0
160 179 0
163 181 0
157 177 0
159 180 0
148 168 0
158 176 0
157 176 0
157 176 0
153 171 0
158 178 0
150 168 0
158 177 0
156 175 0
154 173 0
160 181 0
153 172 0
157 176 0
158 178 0
152 171 0
153 173 0
153 171 0
156 175 0
153 171 0
143 162 0
154 174 0
154 172 0
157 176 0
139 156 0
151 169 0
145 163 0
154 171 0
143 162 0
144 162 0
146 164 0
125 142 0
142 161 0
146 164 0
146 164 0
139 155 0
136 153 0
131 148 0
144 163 0
147 166 0
138 156 0
139 157 0
140 157 0
129 146 0
135 153 0
137 153 0
131 147 0
137 153 0
133 148 0
133 149 0
136 153 0
127 145 0
123 140 0
129 146 0
127 143 0
131 147 0
129 146 0
143 160 0
137 154 0
136 153 0
136 154 0
133 149 0
126 142 0
125 142 0
145 162 0
132 149 0
123 140 0
135 151 0
132 146 0
126 142 0
133 148 0
125 141 0
135 151 0
140 157 0
130 147 0
135 150 0
129 145 0
123 140 0
126 141 0
130 145 0
133 149 0
137 154 0
120 136 0
135 150 0
117 132 0
110 124 0
122 137 0
123 139 0
116 131 0
131 147 0
125 140 0
126 142 0
138 154 0
123 138 0
134 148 0
126 139 0
143 158 0
126 141 0
122 138 0
137 152 0
138 153 0
120 135 0
131 147 0
128 140 0
122 135 0
133 148 0
136 152 0
130 145 0
131 146 0
136 152 0
122 134 0
131 143 0
130 143 0
131 146 0
130 143 0
128 142 0
127 142 0
132 149 0
125 139 0
132 146 0
127 141 0
137 152 0
128 143 0
144 157 0
130 145 0
135 151 0
144 160 0
134 147 0
133 148 0
146 162 0
143 156 0
136 151 0
140 154 0
149 164 0
144 159 0
145 159 0
145 158 0
145 160 0
142 157 0
146 157 0
141 154 0
136 149 0
138 152 0
133 144 0
131 140 0
136 148 0
141 151 0
135 147 0
141 154 0
137 148 0
144 156 0
132 145 0
134 145 0
141 154 0
132 142 0
136 146 0
139 150 0
140 151 0
129 138 0
133 140 0
127 137 0
140 150 0
130 138 0
138 149 0
130 140 0
149 160 0
130 141 0
132 140 0
132 141 0
122 130 0
127 135 0
134 140 0
134 140 0
135 140 0
134 141 0
120 126 0
122 127 0
130 136 0
128 131 0
130 136 0
121 125 0
116 121 0
121 128 0
133 138 0
130 134 0
123 128 0
125 127 0
115 119 0
119 122 0
131 135 0
122 123 0
118 118 0
131 133 0
125 130 0
134 136 0
113 114 0
122 123 0
118 119 0
125 128 0
127 126 0
114 114 0
124 123 0
116 117 0
119 117 0
128 129 0
136 138 0
121 123 0
117 116 0
127 127 0
121 121 0
131 134 0
119 119 0
128 130 0
125 123 0
128 130 0
122 122 0
119 119 0
134 135 0
140 141 0
129 130 0
132 134 0
140 144 0
128 130 0
132 134 0
137 140 0
141 144 0
147 151 0
141 147 0
142 145 0
140 143 0
136 140 0
140 145 0
158 167 0
148 156 0
151 157 0
149 153 0
148 153 0
149 156 0
151 158 0
149 159 0
155 162 0
154 164 0
154 161 0
157 166 0
159 168 0
151 157 0
154 160 0
154 163 0
154 164 0
158 167 0
153 162 0
160 171 0
160 170 0
158 168 0
162 173 0
163 176 0
157 167 0
165 178 0
162 172 0
156 168 0
161 173 0
162 175 0
157 167 0
160 173 0
153 165 0
159 173 0
157 171 0
165 177 0
163 177 0
164 179 0
162 177 0
168 182 0
162 178 0
173 194 0
178 198 0
176 196 0
178 198 0
175 195 0
171 191 0
178 198 0
174 194 0
179 199 0
175 196 0
173 192 0
178 198 0
176 197 0
175 195 0
180 200 0
177 196 0
173 193 0
174 194 0
177 196 0
169 189 0
172 191 0
174 194 0
176 195 0
176 196 0
175 195 0
174 194 0
172 192 0
173 192 0
177 195 0
173 193 0
173 191 0
177 196 0
170 189 0
178 198 0
180 199 0
172 191 0
177 196 0
174 193 0
179 199 0
174 194 0
172 191 0
172 190 0
176 194 0
174 193 0
176 195 0
174 192 0
178 196 0
172 191 0
170 188 0
172 190 0
171 190 0
174 192 0
175 193 0
169 187 0
173 191 0
176 194 0
171 190 0
178 196 0
172 192 0
174 194 0
171 190 0
173 191 0
173 192 0
174 191 0
177 195 0
177 195 0
165 182 0
169 186 0
172 190 0
171 188 0
166 185 0
174 192 0
175 193 0
171 189 0
163 180 0
165 182 0
166 185 0
168 187 0
167 186 0
172 192 0
169 188 0
165 184 0
171 190 0
172 190 0
169 188 0
162 179 0
162 181 0
166 185 0
165 185 0
166 184 0
170 188 0
168 187 0
166 184 0
169 188 0
167 185 0
167 186 0
173 192 0
163 182 0
171 189 0
167 186 0
156 175 0
157 176 0
167 185 0
160 179 0
159 178 0
159 178 0
156 175 0
163 181 0
157 175 0
156 176 0
161 181 0
163 182 0
161 180 0
158 176 0
156 174 0
163 182 0
165 184 0
160 178 0
160 179 0
155 173 0
162 180 0
155 175 0
160 179 0
161 181 0
161 181 0
154 174 0
161 180 0
160 179 0
156 174 0
157 177 0
149 167 0
159 178 0
153 172 0
156 175 0
160 181 0
153 172 0
153 171 0
156 176 0
157 176 0
161 180 0
164 184 0
148 167 0
163 183 0
146 164 0
156 176 0
156 177 0
155 173 0
149 168 0
151 171 0
135 152 0
154 173 0
150 169 0
148 166 0
149 168 0
153 172 0
145 162 0
143 161 0
144 163 0
130 148 0
141 159 0
148 166 0
138 157 0
141 159 0
136 154 0
149 166 0
146 162 0
144 162 0
148 165 0
136 154 0
152 169 0
142 159 0
134 151 0
136 154 0
148 166 0
143 161 0
139 154 0
142 161 0
141 158 0
133 151 0
149 168 0
144 163 0
128 146 0
135 152 0
128 144 0
127 143 0
137 153 0
135 151 0
126 143 0
131 146 0
130 147 0
128 144 0
134 150 0
135 153 0
131 147 0
121 139 0
132 148 0
131 149 0
126 143 0
121 137 0
134 150 0
139 156 0
119 136 0
141 158 0
126 142 0
134 151 0
134 152 0
124 139 0
137 155 0
130 146 0
133 150 0
133 150 0
126 142 0
133 149 0
131 147 0
134 151 0
132 149 0
132 148 0
126 141 0
141 156 0
134 149 0
125 140 0
133 147 0
142 158 0
126 139 0
137 154 0
129 144 0
132 149 0
134 149 0
135 151 0
126 141 0
132 148 0
116 132 0
136 153 0
129 143 0
120 133 0
126 140 0
143 155 0
117 131 0
136 151 0
130 143 0
139 156 0
136 151 0
141 154 0
135 149 0
132 145 0
131 147 0
138 154 0
141 155 0
125 140 0
140 155 0
147 161 0
140 155 0
140 157 0
134 149 0
137 153 0
145 160 0
135 150 0
143 157 0
140 153 0
139 155 0
135 148 0
144 158 0
139 154 0
147 160 0
143 157 0
140 153 0
135 147 0
146 160 0
136 148 0
143 156 0
150 162 0
143 158 0
141 154 0
129 142 0
143 155 0
132 144 0
135 148 0
141 153 0
137 148 0
131 142 0
136 147 0
134 142 0
138 152 0
136 146 0
137 146 0
129 139 0
140 150 0
130 140 0
130 138 0
128 136 0
130 138 0
141 150 0
132 140 0
138 146 0
137 145 0
134 142 0
117 123 0
135 139 0
138 148 0
123 129 0
132 141 0
143 151 0
134 140 0
128 133 0
131 138 0
136 144 0
131 136 0
132 138 0
123 127 0
129 132 0
131 134 0
127 131 0
136 140 0
127 131 0
117 120 0
126 127 0
121 123 0
123 125 0
117 119 0
118 118 0
128 128 0
121 119 0
132 133 0
127 126 0
127 131 0
110 113 0
121 121 0
126 127 0
120 117 0
129 131 0
107 109 0
125 124 0
117 118 0
132 135 0
134 134 0
132 133 0
126 128 0
120 120 0
131 133 0
127 129 0
133 134 0
121 121 0
130 129 0
127 128 0
134 134 0
124 126 0
138 142 0
126 126 0
127 132 0
136 139 0
136 138 0
133 133 0
140 143 0
134 135 0
144 149 0
139 144 0
134 135 0
140 144 0
142 148 0
145 150 0
147 153 0
141 144 0
146 149 0
148 154 0
142 147 0
153 159 0
144 148 0
143 148 0
153 163 0
152 159 0
153 162 0
160 169 0
151 158 0
148 157 0
156 163 0
149 158 0
159 169 0
154 163 0
162 173 0
161 171 0
166 177 0
154 163 0
159 167 0
164 174 0
160 170 0
153 163 0
159 172 0
156 166 0
161 173 0
162 174 0
161 174 0
160 174 0
158 169 0
162 176 0
156 167 0
168 182 0
164 179 0
164 178 0
161 174 0
160 174 0
177 197 0
176 196 0
177 196 0
172 194 0
171 190 0
171 191 0
175 194 0
179 199 0
176 196 0
176 195 0
174 194 0
171 191 0
175 195 0
174 193 0
178 197 0
173 193 0
176 194 0
174 194 0
178 197 0
174 194 0
177 197 0
175 195 0
173 192 0
168 187 0
176 196 0
176 195 0
179 199 0
172 192 0
173 192 0
174 193 0
175 194 0
174 192 0
177 197 0
173 192 0
176 195 0
177 195 0
174 193 0
172 190 0
174 194 0
173 191 0
175 193 0
172 191 0
177 196 0
177 195 0
170 188 0
170 189 0
175 193 0
171 189 0
179 197 0
173 192 0
175 194 0
172 190 0
174 192 0
172 190 0
176 195 0
176 195 0
178 196 0
172 190 0
175 194 0
171 189 0
171 189 0
174 193 0
165 183 0
175 193 0
167 186 0
176 195 0
169 188 0
173 191 0
176 195 0
174 192 0
170 188 0
177 196 0
172 191 0
171 190 0
170 189 0
173 191 0
167 186 0
165 184 0
165 184 0
162 180 0
168 186 0
167 186 0
165 183 0
166 186 0
164 184 0
164 183 0
167 187 0
169 188 0
163 181 0
169 188 0
168 186 0
170 189 0
163 181 0
164 183 0
161 180 0
165 185 0
164 184 0
154 172 0
165 184 0
168 187 0
169 188 0
163 182 0
164 183 0
165 183 0
168 187 0
160 178 0
160 179 0
163 182 0
163 183 0
163 182 0
160 179 0
166 185 0
167 185 0
163 182 0
156 174 0
164 183 0
158 178 0
167 186 0
162 181 0
152 171 0
165 183 0
164 184 0
153 172 0
154 173 0
161 181 0
161 181 0
153 173 0
154 174 0
163 182 0
158 177 0
160 180 0
159 178 0
161 181 0
156 176 0
152 171 0
153 173 0
156 176 0
158 178 0
146 165 0
153 173 0
158 179 0
165 184 0
157 176 0
155 174 0
149 167 0
149 167 0
151 169 0
153 172 0
158 177 0
155 173 0
149 167 0
141 161 0
154 173 0
157 177 0
148 166 0
159 179 0
146 165 0
148 167 0
140 157 0
145 164 0
141 158 0
153 171 0
141 158 0
139 157 0
145 163 0
145 162 0
146 164 0
153 170 0
146 163 0
150 167 0
145 162 0
146 163 0
135 153 0
149 167 0
130 147 0
136 154 0
146 163 0
141 159 0
132 149 0
128 146 0
140 157 0
141 158 0
142 159 0
130 147 0
135 151 0
135 152 0
141 157 0
130 147 0
127 144 0
132 147 0
132 149 0
137 155 0
130 147 0
128 145 0
140 157 0
134 150 0
136 153 0
134 150 0
126 142 0
129 145 0
126 142 0
132 147 0
136 154 0
132 148 0
134 151 0
142 159 0
134 149 0
135 150 0
136 151 0
132 149 0
133 150 0
129 144 0
134 150 0
127 141 0
134 149 0
125 140 0
134 149 0
128 144 0
136 150 0
131 147 0
130 146 0
141 157 0
132 148 0
119 135 0
138 154 0
131 147 0
136 152 0
130 147 0
124 140 0
127 142 0
131 145 0
137 153 0
129 144 0
124 139 0
133 151 0
126 141 0
141 156 0
130 145 0
140 155 0
137 152 0
135 150 0
135 150 0
140 155 0
128 145 0
131 146 0
139 156 0
143 159 0
136 150 0
133 149 0
154 171 0
140 156 0
141 154 0
147 165 0
142 157 0
136 149 0
140 155 0
139 155 0
140 155 0
141 155 0
134 148 0
154 168 0
134 148 0
139 154 0
143 158 0
126 139 0
135 148 0
135 149 0
137 150 0
143 158 0
145 159 0
137 152 0
143 156 0
142 157 0
146 161 0
136 147 0
137 151 0
131 142 0
137 147 0
138 151 0
136 146 0
136 145 0
133 144 0
138 150 0
126 134 0
137 146 0
135 145 0
137 148 0
129 140 0
130 141 0
135 143 0
129 138 0
132 140 0
130 136 0
144 155 0
131 138 0
124 133 0
130 139 0
125 132 0
135 144 0
139 144 0
130 137 0
129 134 0
128 134 0
135 141 0
136 141 0
129 136 0
139 144 0
138 144 0
127 131 0
128 133 0
124 129 0
131 135 0
132 136 0
121 125 0
129 135 0
125 130 0
135 140 0
127 131 0
123 123 0
127 133 0
132 137 0
132 137 0
121 123 0
129 134 0
117 120 0
132 135 0
122 126 0
123 125 0
121 121 0
133 135 0
122 125 0
113 112 0
127 127 0
120 119 0
130 133 0
133 135 0
128 128 0
133 130 0
123 121 0
133 138 0
131 134 0
133 133 0
127 125 0
127 127 0
124 125 0
136 138 0
135 138 0
133 137 0
126 130 0
131 132 0
137 139 0
140 143 0
138 140 0
136 137 0
143 145 0
133 138 0
149 151 0
139 142 0
136 139 0
143 145 0
144 152 0
144 149 0
142 145 0
151 158 0
141 146 0
154 159 0
144 154 0
155 162 0
147 155 0
157 163 0
152 160 0
146 154 0
146 155 0
151 160 0
160 170 0
154 163 0
158 170 0
158 168 0
156 163 0
151 160 0
159 168 0
156 164 0
156 165 0
157 166 0
162 170 0
156 167 0
164 174 0
163 174 0
163 174 0
152 164 0
161 172 0
162 173 0
155 166 0
160 171 0
165 178 0
163 174 0
166 179 0
165 177 0
166 181 0
164 180 0
178 198 0
176 195 0
174 193 0
173 194 0
179 199 0
176 197 0
175 195 0
175 194 0
175 195 0
171 190 0
172 192 0
175 195 0
173 194 0
175 193 0
177 196 0
172 192 0
173 193 0
170 190 0
178 197 0
174 194 0
174 193 0
171 191 0
176 194 0
175 193 0
178 198 0
174 194 0
173 191 0
179 198 0
173 192 0
169 188 0
175 194 0
174 192 0
174 193 0
175 194 0
175 194 0
176 194 0
175 195 0
176 194 0
174 193 0
172 190 0
172 190 0
175 193 0
175 193 0
176 195 0
171 190 0
172 191 0
170 189 0
171 191 0
168 187 0
172 191 0
169 188 0
172 190 0
173 192 0
170 190 0
169 188 0
171 189 0
174 193 0
170 188 0
167 185 0
172 191 0
174 192 0
167 186 0
171 189 0
176 195 0
176 195 0
172 190 0
169 187 0
172 190 0
173 192 0
171 189 0
172 192 0
171 189 0
165 183 0
172 190 0
171 191 0
162 181 0
168 187 0
172 191 0
166 184 0
169 189 0
174 193 0
168 186 0
170 190 0
168 186 0
171 191 0
170 189 0
167 186 0
170 189 0
163 182 0
160 179 0
167 186 0
168 187 0
160 178 0
161 181 0
167 186 0
165 185 0
169 188 0
164 182 0
163 180 0
170 189 0
167 187 0
165 183 0
163 182 0
167 186 0
157 177 0
164 183 0
155 174 0
163 182 0
160 177 0
166 185 0
167 187 0
162 181 0
157 176 0
159 177 0
159 179 0
156 174 0
159 178 0
155 173 0
160 180 0
160 179 0
163 183 0
160 178 0
161 180 0
155 174 0
158 177 0
155 173 0
156 175 0
154 173 0
161 180 0
151 170 0
155 174 0
156 175 0
157 176 0
160 180 0
164 184 0
155 173 0
153 172 0
165 185 0
155 176 0
165 184 0
155 174 0
149 167 0
155 172 0
155 175 0
157 176 0
145 164 0
158 177 0
149 169 0
152 170 0
154 172 0
157 176 0
152 171 0
142 162 0
144 162 0
149 169 0
155 174 0
147 164 0
151 171 0
152 169 0
144 164 0
149 168 0
145 163 0
143 161 0
149 168 0
139 156 0
142 161 0
139 156 0
148 166 0
138 155 0
150 168 0
143 160 0
143 161 0
136 153 0
147 164 0
131 148 0
137 155 0
146 164 0
136 154 0
143 161 0
135 153 0
130 146 0
133 151 0
140 158 0
136 154 0
140 157 0
132 149 0
132 149 0
140 157 0
140 158 0
133 149 0
123 141 0
131 147 0
122 137 0
137 154 0
134 150 0
135 150 0
132 147 0
129 145 0
132 150 0
132 149 0
128 145 0
121 136 0
137 154 0
135 151 0
133 150 0
135 152 0
135 152 0
139 156 0
124 140 0
145 163 0
140 157 0
136 152 0
126 144 0
137 153 0
124 140 0
131 149 0
139 156 0
135 150 0
136 152 0
136 153 0
135 152 0
131 147 0
134 150 0
132 147 0
137 151 0
134 150 0
131 146 0
139 155 0
134 149 0
137 152 0
133 147 0
137 153 0
132 148 0
149 165 0
126 140 0
129 145 0
137 154 0
133 150 0
134 148 0
122 138 0
139 155 0
141 156 0
133 150 0
142 156 0
144 160 0
136 151 0
137 151 0
143 159 0
145 161 0
138 152 0
142 157 0
158 174 0
136 152 0
147 162 0
143 159 0
140 156 0
139 154 0
133 147 0
130 142 0
146 161 0
148 163 0
142 155 0
137 150 0
141 157 0
144 158 0
131 145 0
136 151 0
144 157 0
150 165 0
147 160 0
146 162 0
146 161 0
148 163 0
139 151 0
147 160 0
140 153 0
144 156 0
144 156 0
138 149 0
135 147 0
142 152 0
151 162 0
128 137 0
140 152 0
141 153 0
136 147 0
127 138 0
133 143 0
143 156 0
141 151 0
147 157 0
136 147 0
144 154 0
127 135 0
144 153 0
134 145 0
140 147 0
134 142 0
134 142 0
141 152 0
129 139 0
144 153 0
143 149 0
132 139 0
131 137 0
137 141 0
134 139 0
138 141 0
144 152 0
134 140 0
124 128 0
129 134 0
140 145 0
137 142 0
145 151 0
133 138 0
144 151 0
131 135 0
129 133 0
127 129 0
134 139 0
133 140 0
122 127 0
137 142 0
131 134 0
115 115 0
132 134 0
121 122 0
127 131 0
121 121 0
119 120 0
128 130 0
131 130 0
121 120 0
122 120 0
123 124 0
131 131 0
125 125 0
133 136 0
121 121 0
120 121 0
127 130 0
125 126 0
130 132 0
125 126 0
125 127 0
143 147 0
134 139 0
141 144 0
139 140 0
131 133 0
140 145 0
132 132 0
138 143 0
141 144 0
139 141 0
145 151 0
142 147 0
143 148 0
149 154 0
140 147 0
147 150 0
146 152 0
134 138 0
136 142 0
145 150 0
146 150 0
155 162 0
145 151 0
153 161 0
154 162 0
159 169 0
156 163 0
155 162 0
158 166 0
156 166 0
154 162 0
156 165 0
150 161 0
154 163 0
149 157 0
151 159 0
159 170 0
159 170 0
153 163 0
156 168 0
165 176 0
162 174 0
156 165 0
161 172 0
157 166 0
160 169 0
160 170 0
157 168 0
159 170 0
160 172 0
159 171 0
163 176 0
167 181 0
167 180 0
175 194 0
172 191 0
175 194 0
177 196 0
174 194 0
172 191 0
173 193 0
175 195 0
173 193 0
178 199 0
175 194 0
178 197 0
177 197 0
176 195 0
177 197 0
178 197 0
173 193 0
173 192 0
174 193 0
174 194 0
175 194 0
176 196 0
173 192 0
176 195 0
171 190 0
169 188 0
175 195 0
173 193 0
179 197 0
176 195 0
173 193 0
177 196 0
174 192 0
173 192 0
172 191 0
175 194 0
177 194 0
169 188 0
175 193 0
174 193 0
171 190 0
174 193 0
173 191 0
174 194 0
169 187 0
175 193 0
172 191 0
174 193 0
176 195 0
173 192 0
171 189 0
170 188 0
170 188 0
174 193 0
173 191 0
167 185 0
172 191 0
171 189 0
174 193 0
169 188 0
173 190 0
176 194 0
170 190 0
173 191 0
168 186 0
174 192 0
170 189 0
168 187 0
167 186 0
173 191 0
165 184 0
168 187 0
176 194 0
174 193 0
166 184 0
169 186 0
167 185 0
167 185 0
168 187 0
164 183 0
165 184 0
167 186 0
171 189 0
172 190 0
168 188 0
164 182 0
166 186 0
167 187 0
166 185 0
163 182 0
160 179 0
160 179 0
171 189 0
163 181 0
162 181 0
173 191 0
164 183 0
158 177 0
160 179 0
162 182 0
161 180 0
163 182 0
155 174 0
166 185 0
162 182 0
162 181 0
163 182 0
162 182 0
164 182 0
163 182 0
166 185 0
165 184 0
161 181 0
155 174 0
164 183 0
166 185 0
152 170 0
155 175 0
165 184 0
158 178 0
153 173 0
156 175 0
164 183 0
160 180 0
164 183 0
147 165 0
151 171 0
152 171 0
157 176 0
154 174 0
155 174 0
155 174 0
149 168 0
154 174 0
155 174 0
162 181 0
151 171 0
159 178 0
156 175 0
155 173 0
153 172 0
158 178 0
149 167 0
158 178 0
154 173 0
144 163 0
160 179 0
154 173 0
153 173 0
145 163 0
154 173 0
145 163 0
149 168 0
156 175 0
156 175 0
146 164 0
141 160 0
150 168 0
149 168 0
146 164 0
143 162 0
142 161 0
149 168 0
158 177 0
146 164 0
150 169 0
145 162 0
143 162 0
142 161 0
150 168 0
137 155 0
140 157 0
139 158 0
145 162 0
141 158 0
141 160 0
145 162 0
135 152 0
140 158 0
138 155 0
140 158 0
141 159 0
134 152 0
140 157 0
140 158 0
140 158 0
134 152 0
145 161 0
134 152 0
137 154 0
146 163 0
137 154 0
130 146 0
122 139 0
135 151 0
144 161 0
134 151 0
126 142 0
133 150 0
132 148 0
142 159 0
137 154 0
141 158 0
143 160 0
127 145 0
139 155 0
127 141 0
144 160 0
124 142 0
135 151 0
128 144 0
141 159 0
130 147 0
132 148 0
136 154 0
133 148 0
134 151 0
130 146 0
133 147 0
143 158 0
128 143 0
137 151 0
139 156 0
133 149 0
133 149 0
129 144 0
138 153 0
133 148 0
134 148 0
140 155 0
144 160 0
142 157 0
139 156 0
132 149 0
139 155 0
145 163 0
132 146 0
132 147 0
139 155 0
135 150 0
134 147 0
137 151 0
137 153 0
141 157 0
136 153 0
129 143 0
151 167 0
134 147 0
142 157 0
142 157 0
140 157 0
139 156 0
137 151 0
142 158 0
134 148 0
137 150 0
135 149 0
139 154 0
141 156 0
135 148 0
137 151 0
134 149 0
141 156 0
134 148 0
126 139 0
136 150 0
134 146 0
143 157 0
142 155 0
144 160 0
131 145 0
149 165 0
138 151 0
136 150 0
147 159 0
152 166 0
136 149 0
142 155 0
131 144 0
144 157 0
138 148 0
140 152 0
139 152 0
139 151 0
142 153 0
140 151 0
139 151 0
138 149 0
148 159 0
136 145 0
128 138 0
132 142 0
128 137 0
138 147 0
132 141 0
146 156 0
135 143 0
137 146 0
144 153 0
133 139 0
138 145 0
137 146 0
138 146 0
136 145 0
135 140 0
138 146 0
142 149 0
131 137 0
137 145 0
138 147 0
131 136 0
138 146 0
136 140 0
130 135 0
145 152 0
132 136 0
129 133 0
135 143 0
136 140 0
128 134 0
136 141 0
130 139 0
126 128 0
135 140 0
139 145 0
134 137 0
133 135 0
129 134 0
140 145 0
129 131 0
137 141 0
133 134 0
138 143 0
126 128 0
143 147 0
119 119 0
124 121 0
136 138 0
136 142 0
121 124 0
127 128 0
134 138 0
133 137 0
136 141 0
132 134 0
125 127 0
132 135 0
135 137 0
132 133 0
138 144 0
122 123 0
145 148 0
132 135 0
133 135 0
135 138 0
141 145 0
139 145 0
144 148 0
148 151 0
144 150 0
142 148 0
139 145 0
150 157 0
154 161 0
141 146 0
147 153 0
146 151 0
151 159 0
154 163 0
154 164 0
148 156 0
147 153 0
154 161 0
149 155 0
153 161 0
149 156 0
150 157 0
150 158 0
157 167 0
150 158 0
155 166 0
160 171 0
156 164 0
162 172 0
152 159 0
158 169 0
156 164 0
163 173 0
160 171 0
160 170 0
157 167 0
148 158 0
159 170 0
165 177 0
157 170 0
161 173 0
164 177 0
162 175 0
163 176 0
155 168 0
176 195 0
176 197 0
176 197 0
176 196 0
178 197 0
174 193 0
174 194 0
176 196 0
174 194 0
179 198 0
171 190 0
178 198 0
172 192 0
173 193 0
174 193 0
169 188 0
176 195 0
180 200 0
177 196 0
172 191 0
179 199 0
175 195 0
175 194 0
177 197 0
175 195 0
177 196 0
175 195 0
177 196 0
174 192 0
175 194 0
175 195 0
178 197 0
171 190 0
177 196 0
173 192 0
169 187 0
172 191 0
172 191 0
177 197 0
175 193 0
171 190 0
170 189 0
175 193 0
168 186 0
174 193 0
170 188 0
173 192 0
173 192 0
170 189 0
173 192 0
167 185 0
173 192 0
169 187 0
169 189 0
174 193 0
175 193 0
169 188 0
178 196 0
169 188 0
176 195 0
169 188 0
168 187 0
172 190 0
172 190 0
168 187 0
174 193 0
165 184 0
170 189 0
169 187 0
174 192 0
164 183 0
172 191 0
166 185 0
167 185 0
167 186 0
168 187 0
172 191 0
166 185 0
159 177 0
166 184 0
165 184 0
166 185 0
162 181 0
167 186 0
164 183 0
167 186 0
169 188 0
164 184 0
165 185 0
168 187 0
164 183 0
169 188 0
164 183 0
161 180 0
158 177 0
166 185 0
157 176 0
170 189 0
168 187 0
167 187 0
161 178 0
163 182 0
166 186 0
165 184 0
163 183 0
164 184 0
164 182 0
160 179 0
174 193 0
162 180 0
170 189 0
161 179 0
170 188 0
169 188 0
161 180 0
162 181 0
158 177 0
166 186 0
161 181 0
158 176 0
157 175 0
161 181 0
161 180 0
156 175 0
152 172 0
163 182 0
161 180 0
157 176 0
159 179 0
158 177 0
156 175 0
155 175 0
157 176 0
161 180 0
155 174 0
152 173 0
157 177 0
152 172 0
151 170 0
153 172 0
147 167 0
151 170 0
149 167 0
158 177 0
152 171 0
148 166 0
159 177 0
149 168 0
156 176 0
153 172 0
151 169 0
153 171 0
160 179 0
149 166 0
151 169 0
149 169 0
155 175 0
150 169 0
145 163 0
153 171 0
150 168 0
132 149 0
140 157 0
144 163 0
148 166 0
144 162 0
141 159 0
150 167 0
146 164 0
149 167 0
148 167 0
143 163 0
151 169 0
154 172 0
140 158 0
153 171 0
133 150 0
147 164 0
140 158 0
130 146 0
147 165 0
145 164 0
133 152 0
138 156 0
130 148 0
135 153 0
126 143 0
142 160 0
140 156 0
140 158 0
132 149 0
139 156 0
139 157 0
134 150 0
128 146 0
139 156 0
137 154 0
145 162 0
138 156 0
139 156 0
125 142 0
141 158 0
126 143 0
134 150 0
138 153 0
135 151 0
125 141 0
136 153 0
146 163 0
135 151 0
136 151 0
126 140 0
130 147 0
134 150 0
131 149 0
146 163 0
134 149 0
131 147 0
141 156 0
134 151 0
121 136 0
138 154 0
124 138 0
127 145 0
138 152 0
130 146 0
136 151 0
132 148 0
135 149 0
134 150 0
140 155 0
138 153 0
144 160 0
136 152 0
140 156 0
134 149 0
136 153 0
143 159 0
135 151 0
134 150 0
138 154 0
143 159 0
131 147 0
131 148 0
134 150 0
143 159 0
138 153 0
138 153 0
143 158 0
132 148 0
134 149 0
130 145 0
146 161 0
141 158 0
144 159 0
145 161 0
143 161 0
138 154 0
143 159 0
147 163 0
141 157 0
141 156 0
136 151 0
135 150 0
146 162 0
146 161 0
141 154 0
130 144 0
133 147 0
152 167 0
148 161 0
140 154 0
153 167 0
143 155 0
135 148 0
146 159 0
145 158 0
131 142 0
144 156 0
136 147 0
146 155 0
137 150 0
140 153 0
139 150 0
139 148 0
135 146 0
151 164 0
137 149 0
141 153 0
138 149 0
139 148 0
134 144 0
139 150 0
144 153 0
130 139 0
138 149 0
136 144 0
139 153 0
140 147 0
144 156 0
129 138 0
138 147 0
139 149 0
146 156 0
143 150 0
132 139 0
143 155 0
141 146 0
133 140 0
134 141 0
130 134 0
141 149 0
141 148 0
134 143 0
129 134 0
136 141 0
132 139 0
133 141 0
131 135 0
136 141 0
130 135 0
131 134 0
124 130 0
130 134 0
135 139 0
134 138 0
134 136 0
123 127 0
133 137 0
138 142 0
132 134 0
132 135 0
129 132 0
129 132 0
131 134 0
135 139 0
127 130 0
135 135 0
127 129 0
135 138 0
139 142 0
136 139 0
130 133 0
138 142 0
127 130 0
131 134 0
128 130 0
143 148 0
127 129 0
134 137 0
142 145 0
138 141 0
140 145 0
136 137 0
138 141 0
141 145 0
136 142 0
148 155 0
139 142 0
134 138 0
146 152 0
136 138 0
139 142 0
146 152 0
150 158 0
138 142 0
148 154 0
138 146 0
153 161 0
151 157 0
151 157 0
141 146 0
152 160 0
148 156 0
150 156 0
156 164 0
148 154 0
155 163 0
157 164 0
158 169 0
148 156 0
151 158 0
155 163 0
157 168 0
155 165 0
165 174 0
155 167 0
155 163 0
152 162 0
165 176 0
157 167 0
153 162 0
159 170 0
162 174 0
164 178 0
161 174 0
160 173 0
161 172 0
157 169 0
167 181 0
172 191 0
178 198 0
172 193 0
175 195 0
175 195 0
177 196 0
176 195 0
171 191 0
177 197 0
172 191 0
176 195 0
173 192 0
180 199 0
177 196 0
176 196 0
172 193 0
173 192 0
173 193 0
173 192 0
175 194 0
174 193 0
175 194 0
172 191 0
168 187 0
176 194 0
178 197 0
176 195 0
170 188 0
177 196 0
177 196 0
172 191 0
177 197 0
171 189 0
173 192 0
177 196 0
173 193 0
169 188 0
174 192 0
171 189 0
174 194 0
173 192 0
174 192 0
170 189 0
176 194 0
174 192 0
171 189 0
169 187 0
176 195 0
175 194 0
169 188 0
170 188 0
172 191 0
172 192 0
169 187 0
174 192 0
172 192 0
175 193 0
173 192 0
172 192 0
166 184 0
176 194 0
173 191 0
176 194 0
175 194 0
173 192 0
165 183 0
174 193 0
167 185 0
167 186 0
169 187 0
170 190 0
167 186 0
167 185 0
168 186 0
163 182 0
165 185 0
166 186 0
169 188 0
165 184 0
168 187 0
162 181 0
167 186 0
170 189 0
164 182 0
165 183 0
164 184 0
160 178 0
170 188 0
167 186 0
167 187 0
164 181 0
163 182 0
162 181 0
162 181 0
158 176 0
165 184 0
166 185 0
162 181 0
168 188 0
166 186 0
161 179 0
168 187 0
161 180 0
154 173 0
163 182 0
157 176 0
161 180 0
160 179 0
165 184 0
163 182 0
162 182 0
166 185 0
154 174 0
166 185 0
164 183 0
164 182 0
149 168 0
159 179 0
165 184 0
168 187 0
161 181 0
150 170 0
162 182 0
160 179 0
156 177 0
156 175 0
157 175 0
151 172 0
161 180 0
161 180 0
158 177 0
159 179 0
152 171 0
153 173 0
155 173 0
154 173 0
157 177 0
162 182 0
150 169 0
162 183 0
162 181 0
154 174 0
155 174 0
160 180 0
154 174 0
149 168 0
156 174 0
158 178 0
157 176 0
147 166 0
149 168 0
153 172 0
152 173 0
136 153 0
160 181 0
149 168 0
152 170 0
154 172 0
146 164 0
150 168 0
155 173 0
146 165 0
145 164 0
140 159 0
140 158 0
146 164 0
150 169 0
135 153 0
140 158 0
144 162 0
140 159 0
145 162 0
145 163 0
144 162 0
145 162 0
142 161 0
148 165 0
136 154 0
152 170 0
148 167 0
135 154 0
140 158 0
138 157 0
138 156 0
142 161 0
142 159 0
129 146 0
140 158 0
136 153 0
139 156 0
142 158 0
129 146 0
145 163 0
135 152 0
135 150 0
132 150 0
141 158 0
145 162 0
141 158 0
145 163 0
138 156 0
140 157 0
145 164 0
149 166 0
130 146 0
135 151 0
136 153 0
129 145 0
129 145 0
140 156 0
137 152 0
143 159 0
123 139 0
146 161 0
140 156 0
140 158 0
135 150 0
134 150 0
135 152 0
133 151 0
137 152 0
137 155 0
138 155 0
135 153 0
137 155 0
140 157 0
127 144 0
134 150 0
143 159 0
141 159 0
144 162 0
131 146 0
139 154 0
137 153 0
133 149 0
132 149 0
142 158 0
144 160 0
130 145 0
142 159 0
144 161 0
134 150 0
136 153 0
141 156 0
141 160 0
142 158 0
146 163 0
141 157 0
138 155 0
142 157 0
138 154 0
145 161 0
143 158 0
145 161 0
144 160 0
132 147 0
143 160 0
135 149 0
145 160 0
151 169 0
141 156 0
139 153 0
154 172 0
149 167 0
137 151 0
138 154 0
157 172 0
139 154 0
142 156 0
139 154 0
147 161 0
150 164 0
142 157 0
135 149 0
147 161 0
136 148 0
138 152 0
146 160 0
148 161 0
145 157 0
135 147 0
138 149 0
133 145 0
143 155 0
139 151 0
146 159 0
145 157 0
137 148 0
144 156 0
150 160 0
130 142 0
142 153 0
138 150 0
143 154 0
145 156 0
137 146 0
149 159 0
137 145 0
132 142 0
139 147 0
140 150 0
145 156 0
136 144 0
146 155 0
138 144 0
139 148 0
134 141 0
135 144 0
136 143 0
143 152 0
137 144 0
145 151 0
149 157 0
140 147 0
133 140 0
139 144 0
141 148 0
132 137 0
144 149 0
145 152 0
129 133 0
126 130 0
133 137 0
130 135 0
138 144 0
140 144 0
138 143 0
136 139 0
137 142 0
131 136 0
133 138 0
133 136 0
135 139 0
138 143 0
125 127 0
142 149 0
127 128 0
138 142 0
137 139 0
132 138 0
134 135 0
147 151 0
136 140 0
135 139 0
134 139 0
133 135 0
122 123 0
140 146 0
125 125 0
131 133 0
132 136 0
138 140 0
128 131 0
131 134 0
143 145 0
142 146 0
137 139 0
140 142 0
145 150 0
137 140 0
144 151 0
147 155 0
139 143 0
141 148 0
147 154 0
144 149 0
146 153 0
147 153 0
142 147 0
148 154 0
144 147 0
144 151 0
148 154 0
148 153 0
147 150 0
152 159 0
158 167 0
152 160 0
153 161 0
151 158 0
152 158 0
145 152 0
149 156 0
160 172 0
163 173 0
153 161 0
151 158 0
155 163 0
154 165 0
157 168 0
156 165 0
162 171 0
151 162 0
160 171 0
157 168 0
161 172 0
167 179 0
159 170 0
163 176 0
160 172 0
180 200 0
179 198 0
179 198 0
172 193 0
174 193 0
172 192 0
174 193 0
176 195 0
174 193 0
174 193 0
175 195 0
173 193 0
174 193 0
175 194 0
175 194 0
177 197 0
176 196 0
175 196 0
172 191 0
172 192 0
171 189 0
177 197 0
175 194 0
174 193 0
175 195 0
179 198 0
171 189 0
178 197 0
172 192 0
174 193 0
170 190 0
174 193 0
174 193 0
175 194 0
175 194 0
175 194 0
174 193 0
174 194 0
171 190 0
175 194 0
171 190 0
175 192 0
173 192 0
171 190 0
173 192 0
177 196 0
170 189 0
174 192 0
168 187 0
170 189 0
170 188 0
169 187 0
168 187 0
172 191 0
172 191 0
169 187 0
175 192 0
174 193 0
170 190 0
172 191 0
169 187 0
166 184 0
169 188 0
171 189 0
165 184 0
178 198 0
165 184 0
172 190 0
175 194 0
168 185 0
166 186 0
168 187 0
164 182 0
170 189 0
168 187 0
171 192 0
168 186 0
172 191 0
166 185 0
167 185 0
166 185 0
165 185 0
164 183 0
166 184 0
169 188 0
169 187 0
169 189 0
170 189 0
167 185 0
167 187 0
164 183 0
165 185 0
167 186 0
165 184 0
159 177 0
171 190 0
164 184 0
162 180 0
167 186 0
163 183 0
165 185 0
168 188 0
163 183 0
159 178 0
161 180 0
161 181 0
159 179 0
169 189 0
156 175 0
163 182 0
160 178 0
155 174 0
162 181 0
164 183 0
163 183 0
155 174 0
155 174 0
161 181 0
160 179 0
162 181 0
159 178 0
155 174 0
162 182 0
166 185 0
162 181 0
160 180 0
163 183 0
157 176 0
160 180 0
162 181 0
153 173 0
152 173 0
159 179 0
157 176 0
156 177 0
159 177 0
155 175 0
160 179 0
152 172 0
159 179 0
151 169 0
149 167 0
156 174 0
157 176 0
146 165 0
152 171 0
153 173 0
158 176 0
164 183 0
147 165 0
153 172 0
154 174 0
152 171 0
152 171 0
144 162 0
153 173 0
152 171 0
140 160 0
160 179 0
153 172 0
152 170 0
151 170 0
154 173 0
152 172 0
151 170 0
150 169 0
149 167 0
145 164 0
138 157 0
141 158 0
146 164 0
144 162 0
141 159 0
144 163 0
149 166 0
144 160 0
147 165 0
149 167 0
140 157 0
138 157 0
131 149 0
145 163 0
144 161 0
144 162 0
133 149 0
141 160 0
139 157 0
145 162 0
134 151 0
135 151 0
139 157 0
137 155 0
136 154 0
131 147 0
139 156 0
140 158 0
143 159 0
131 147 0
144 161 0
124 141 0
126 142 0
128 145 0
130 147 0
131 149 0
140 157 0
133 150 0
142 158 0
140 156 0
136 152 0
135 152 0
134 152 0
134 150 0
125 142 0
129 146 0
140 158 0
133 149 0
137 153 0
140 157 0
133 149 0
145 162 0
137 153 0
138 153 0
144 161 0
131 149 0
129 144 0
135 152 0
136 151 0
125 142 0
136 153 0
138 154 0
131 147 0
141 157 0
142 157 0
142 158 0
139 154 0
144 160 0
140 156 0
124 139 0
142 159 0
139 155 0
144 159 0
138 155 0
155 171 0
137 154 0
136 151 0
141 155 0
153 169 0
140 155 0
145 160 0
142 158 0
149 163 0
145 162 0
140 156 0
148 162 0
143 158 0
136 153 0
148 164 0
144 159 0
139 155 0
139 156 0
141 156 0
149 166 0
145 160 0
142 156 0
138 152 0
134 150 0
144 159 0
147 163 0
139 154 0
151 166 0
151 166 0
136 150 0
154 169 0
147 160 0
142 157 0
145 159 0
139 152 0
137 150 0
147 164 0
148 162 0
142 154 0
141 153 0
131 143 0
146 160 0
139 153 0
149 163 0
133 143 0
142 153 0
145 156 0
146 157 0
146 157 0
146 158 0
140 151 0
135 147 0
141 152 0
139 151 0
142 152 0
136 147 0
147 155 0
142 152 0
137 147 0
145 156 0
137 148 0
149 158 0
139 150 0
127 138 0
142 151 0
139 148 0
142 150 0
136 143 0
135 144 0
141 149 0
135 143 0
147 157 0
147 156 0
131 137 0
143 149 0
136 142 0
143 150 0
134 141 0
136 142 0
138 144 0
129 133 0
138 143 0
137 143 0
141 146 0
139 144 0
143 147 0
139 146 0
136 141 0
134 136 0
140 145 0
139 144 0
134 140 0
136 140 0
140 147 0
135 139 0
135 139 0
134 137 0
134 136 0
130 134 0
141 144 0
137 138 0
135 140 0
131 134 0
139 145 0
142 146 0
141 146 0
143 148 0
150 153 0
143 144 0
139 144 0
139 144 0
139 144 0
149 153 0
134 136 0
145 150 0
144 149 0
134 137 0
138 142 0
138 141 0
155 162 0
148 155 0
144 148 0
133 136 0
143 146 0
147 152 0
140 142 0
156 167 0
145 150 0
156 164 0
149 153 0
156 162 0
149 157 0
149 157 0
159 168 0
150 160 0
152 159 0
152 164 0
153 159 0
154 163 0
144 151 0
154 165 0
151 161 0
159 169 0
150 160 0
155 165 0
153 163 0
162 172 0
156 164 0
157 165 0
154 161 0
160 168 0
152 161 0
155 166 0
164 174 0
161 171 0
158 170 0
153 164 0
161 175 0
175 195 0
175 195 0
175 195 0
175 195 0
173 193 0
171 190 0
173 192 0
175 194 0
173 192 0
176 196 0
171 190 0
178 198 0
177 196 0
171 190 0
177 196 0
172 191 0
177 196 0
170 189 0
176 195 0
177 196 0
176 195 0
172 191 0
174 193 0
175 195 0
170 189 0
175 195 0
174 194 0
174 194 0
178 197 0
173 191 0
174 193 0
176 195 0
170 188 0
177 196 0
177 196 0
171 191 0
171 189 0
177 197 0
176 194 0
165 184 0
172 191 0
174 192 0
174 192 0
175 195 0
174 191 0
175 195 0
176 195 0
170 189 0
175 194 0
170 188 0
171 189 0
174 193 0
176 195 0
173 191 0
173 191 0
170 187 0
174 192 0
167 185 0
173 192 0
170 188 0
166 184 0
171 191 0
174 193 0
168 187 0
168 187 0
166 186 0
171 191 0
168 188 0
168 187 0
164 182 0
171 190 0
169 188 0
169 187 0
169 188 0
168 187 0
168 187 0
170 189 0
168 188 0
170 190 0
165 184 0
168 188 0
169 188 0
166 186 0
169 188 0
163 183 0
162 182 0
162 181 0
169 190 0
168 187 0
165 184 0
164 184 0
170 190 0
151 169 0
173 193 0
173 192 0
162 181 0
162 181 0
162 181 0
168 187 0
174 193 0
166 185 0
160 180 0
164 183 0
162 181 0
159 179 0
156 175 0
162 182 0
163 182 0
165 184 0
159 178 0
157 177 0
167 187 0
161 180 0
168 187 0
155 175 0
160 180 0
158 178 0
162 181 0
156 176 0
158 178 0
163 182 0
157 176 0
160 180 0
150 169 0
151 169 0
155 174 0
159 180 0
162 181 0
159 179 0
166 186 0
159 179 0
161 180 0
162 182 0
157 178 0
154 173 0
156 175 0
163 183 0
160 178 0
160 179 0
159 178 0
157 177 0
161 181 0
157 176 0
151 170 0
157 177 0
158 178 0
159 178 0
155 174 0
146 165 0
152 170 0
157 176 0
153 171 0
151 171 0
154 173 0
157 176 0
148 167 0
155 176 0
156 176 0
160 179 0
139 158 0
154 173 0
154 173 0
149 167 0
145 163 0
154 173 0
149 167 0
145 165 0
139 157 0
138 156 0
145 165 0
151 169 0
144 163 0
141 158 0
140 156 0
143 161 0
133 151 0
139 157 0
143 162 0
137 154 0
143 162 0
140 158 0
140 157 0
142 160 0
143 160 0
150 168 0
133 149 0
133 152 0
146 163 0
138 155 0
136 153 0
138 155 0
152 170 0
125 142 0
141 159 0
129 146 0
146 164 0
139 156 0
142 159 0
148 164 0
137 153 0
138 156 0
138 155 0
135 153 0
136 152 0
134 152 0
143 161 0
133 149 0
136 152 0
143 161 0
135 152 0
124 140 0
134 151 0
139 157 0
140 158 0
141 159 0
130 146 0
140 157 0
140 157 0
137 154 0
137 155 0
134 151 0
141 158 0
139 155 0
140 156 0
144 161 0
138 156 0
140 157 0
133 150 0
132 148 0
147 167 0
135 153 0
152 170 0
145 162 0
131 148 0
140 156 0
132 148 0
136 151 0
146 163 0
139 155 0
150 168 0
137 155 0
141 157 0
142 160 0
147 163 0
138 154 0
145 161 0
147 164 0
143 158 0
155 170 0
144 159 0
140 155 0
143 159 0
147 163 0
143 159 0
139 153 0
145 161 0
136 152 0
144 161 0
141 156 0
141 157 0
138 153 0
150 167 0
143 158 0
151 168 0
147 161 0
144 161 0
142 159 0
141 156 0
154 170 0
139 153 0
144 159 0
145 161 0
143 158 0
147 163 0
130 144 0
148 163 0
141 154 0
148 163 0
147 161 0
145 156 0
143 157 0
152 168 0
150 163 0
138 150 0
137 150 0
146 159 0
139 151 0
142 154 0
137 149 0
142 153 0
142 154 0
148 160 0
129 140 0
138 149 0
138 148 0
150 162 0
140 151 0
144 154 0
138 150 0
143 153 0
142 152 0
139 148 0
140 150 0
149 158 0
131 140 0
145 154 0
143 152 0
136 146 0
144 153 0
138 147 0
146 155 0
143 154 0
139 145 0
136 145 0
137 145 0
135 144 0
144 153 0
141 148 0
134 141 0
139 145 0
134 141 0
136 145 0
146 153 0
136 140 0
137 143 0
142 149 0
146 156 0
140 146 0
138 143 0
142 148 0
138 146 0
139 146 0
141 147 0
137 143 0
135 139 0
144 150 0
144 150 0
139 141 0
137 141 0
132 134 0
130 134 0
138 144 0
140 145 0
127 130 0
152 159 0
140 144 0
138 142 0
133 136 0
139 143 0
132 136 0
136 140 0
136 141 0
144 149 0
148 154 0
143 146 0
136 141 0
135 139 0
144 149 0
142 146 0
136 141 0
149 154 0
140 143 0
139 142 0
144 150 0
148 153 0
143 149 0
145 149 0
150 154 0
145 151 0
144 150 0
151 158 0
144 149 0
142 148 0
150 157 0
150 158 0
152 160 0
154 159 0
153 159 0
138 140 0
152 161 0
154 162 0
155 162 0
152 160 0
150 157 0
157 166 0
149 158 0
157 166 0
150 159 0
152 160 0
155 167 0
159 170 0
150 158 0
153 163 0
156 165 0
162 174 0
158 167 0
155 168 0
159 171 0
161 171 0
160 171 0
174 194 0
166 185 0
177 197 0
170 190 0
177 197 0
173 193 0
175 196 0
174 193 0
179 199 0
175 194 0
173 192 0
175 194 0
175 195 0
179 197 0
171 190 0
175 194 0
174 193 0
167 186 0
176 195 0
173 193 0
172 190 0
178 198 0
175 194 0
176 194 0
177 196 0
178 198 0
177 196 0
171 190 0
171 191 0
170 188 0
166 185 0
173 192 0
169 188 0
174 193 0
172 191 0
169 189 0
171 189 0
173 192 0
170 189 0
168 187 0
176 195 0
174 192 0
177 196 0
175 194 0
168 187 0
170 188 0
174 194 0
170 189 0
177 195 0
175 194 0
172 190 0
175 193 0
177 195 0
176 194 0
167 185 0
173 191 0
175 195 0
171 190 0
167 186 0
170 189 0
164 182 0
172 191 0
176 194 0
173 192 0
170 189 0
170 190 0
168 187 0
168 186 0
170 189 0
169 189 0
169 188 0
165 184 0
162 180 0
169 188 0
168 187 0
171 189 0
171 190 0
165 184 0
172 191 0
160 181 0
167 186 0
159 178 0
170 190 0
170 189 0
167 186 0
163 183 0
167 185 0
163 182 0
157 176 0
170 188 0
170 189 0
161 181 0
168 188 0
162 182 0
159 177 0
169 189 0
169 188 0
164 183 0
165 184 0
159 179 0
159 178 0
163 182 0
168 186 0
164 184 0
161 181 0
158 178 0
159 179 0
163 183 0
164 184 0
161 181 0
160 179 0
165 184 0
158 177 0
164 185 0
167 187 0
160 180 0
164 182 0
161 180 0
163 184 0
160 180 0
155 174 0
156 176 0
161 180 0
155 174 0
162 181 0
156 175 0
158 177 0
159 179 0
166 186 0
160 180 0
157 177 0
159 179 0
160 180 0
157 176 0
149 167 0
162 181 0
161 180 0
158 178 0
160 180 0
160 180 0
160 180 0
159 179 0
157 177 0
156 176 0
157 176 0
156 174 0
152 170 0
160 179 0
156 176 0
154 173 0
153 171 0
158 176 0
144 162 0
159 177 0
156 175 0
157 176 0
157 176 0
154 173 0
140 159 0
135 154 0
145 165 0
159 177 0
149 167 0
151 169 0
153 170 0
150 169 0
145 163 0
148 167 0
152 170 0
153 170 0
143 159 0
143 161 0
149 168 0
139 156 0
143 161 0
146 165 0
142 161 0
142 160 0
142 159 0
140 159 0
156 174 0
146 163 0
150 168 0
147 164 0
144 163 0
145 164 0
137 154 0
136 154 0
138 156 0
142 160 0
147 165 0
142 162 0
139 157 0
147 164 0
140 158 0
153 171 0
142 159 0
139 157 0
155 172 0
144 161 0
136 153 0
142 159 0
139 157 0
139 158 0
143 161 0
145 162 0
143 160 0
141 159 0
148 165 0
141 158 0
129 145 0
147 164 0
138 154 0
142 160 0
134 150 0
140 157 0
143 161 0
137 154 0
142 158 0
131 147 0
144 160 0
143 162 0
136 152 0
135 152 0
134 151 0
141 157 0
146 164 0
143 160 0
139 155 0
145 162 0
149 166 0
145 162 0
151 169 0
133 150 0
145 160 0
149 168 0
141 159 0
131 148 0
138 154 0
138 154 0
144 161 0
152 168 0
139 154 0
138 155 0
154 172 0
145 162 0
149 165 0
142 158 0
139 155 0
144 159 0
143 159 0
144 160 0
143 158 0
141 160 0
156 173 0
146 162 0
154 171 0
146 162 0
140 157 0
148 165 0
151 168 0
144 162 0
143 159 0
147 163 0
143 157 0
145 161 0
142 157 0
147 162 0
148 164 0
151 168 0
151 166 0
152 168 0
140 154 0
144 157 0
145 161 0
144 160 0
141 156 0
143 158 0
142 156 0
143 156 0
148 164 0
144 156 0
150 165 0
150 165 0
146 159 0
155 170 0
144 155 0
141 153 0
144 155 0
146 160 0
145 154 0
148 161 0
135 147 0
147 160 0
144 154 0
133 142 0
149 163 0
149 161 0
146 158 0
145 156 0
147 158 0
143 153 0
135 145 0
150 159 0
142 149 0
131 141 0
141 151 0
142 152 0
143 155 0
138 147 0
134 144 0
147 157 0
143 154 0
135 143 0
134 141 0
131 139 0
146 155 0
145 154 0
140 149 0
137 145 0
133 140 0
143 151 0
146 153 0
131 138 0
140 147 0
132 136 0
141 150 0
139 144 0
136 140 0
142 148 0
146 151 0
141 147 0
140 148 0
142 147 0
136 137 0
131 134 0
137 142 0
146 152 0
134 138 0
142 146 0
145 151 0
135 141 0
139 142 0
143 150 0
133 139 0
138 141 0
144 152 0
144 150 0
142 148 0
140 143 0
142 146 0
135 141 0
139 141 0
145 150 0
143 151 0
140 145 0
140 147 0
145 151 0
148 154 0
148 155 0
136 139 0
142 146 0
145 152 0
153 160 0
146 151 0
146 153 0
137 143 0
146 150 0
145 152 0
146 150 0
149 155 0
151 158 0
154 162 0
146 152 0
142 150 0
150 157 0
146 153 0
150 157 0
147 153 0
150 157 0
149 159 0
152 161 0
156 163 0
153 161 0
155 164 0
154 161 0
152 160 0
159 167 0
152 161 0
156 166 0
153 163 0
163 171 0
155 166 0
155 166 0
152 164 0
156 167 0
163 176 0
157 167 0
159 170 0
156 166 0
180 199 0
174 195 0
176 196 0
175 195 0
179 199 0
176 195 0
175 194 0
180 198 0
170 191 0
175 194 0
175 194 0
172 192 0
177 196 0
172 192 0
179 198 0
172 191 0
175 195 0
176 194 0
171 191 0
169 187 0
177 196 0
170 188 0
176 195 0
176 196 0
175 194 0
171 190 0
173 191 0
179 198 0
172 191 0
171 191 0
172 191 0
170 189 0
173 192 0
170 189 0
176 196 0
175 195 0
170 188 0
172 191 0
174 194 0
175 194 0
170 188 0
175 194 0
173 192 0
169 188 0
173 191 0
175 194 0
171 189 0
172 190 0
171 189 0
165 183 0
171 190 0
169 187 0
168 187 0
172 190 0
169 190 0
172 190 0
167 186 0
165 184 0
166 185 0
172 191 0
171 190 0
174 193 0
171 190 0
167 187 0
173 192 0
167 185 0
164 183 0
166 185 0
169 188 0
165 185 0
169 187 0
171 190 0
162 181 0
170 188 0
164 184 0
169 189 0
164 183 0
168 188 0
168 188 0
168 187 0
170 189 0
167 187 0
167 186 0
167 187 0
162 182 0
167 186 0
165 184 0
162 181 0
169 189 0
162 180 0
167 187 0
158 178 0
162 181 0
163 182 0
160 179 0
160 180 0
167 186 0
166 185 0
159 178 0
165 184 0
165 184 0
163 183 0
161 180 0
154 173 0
159 178 0
165 185 0
160 179 0
163 183 0
162 181 0
165 184 0
167 187 0
158 177 0
162 181 0
163 182 0
162 182 0
153 172 0
164 183 0
161 181 0
158 177 0
169 189 0
159 178 0
154 173 0
167 186 0
155 174 0
160 181 0
160 179 0
156 175 0
158 178 0
161 181 0
156 175 0
157 176 0
161 180 0
157 176 0
160 179 0
159 178 0
156 175 0
162 180 0
163 182 0
155 173 0
165 185 0
151 170 0
163 183 0
150 169 0
163 182 0
153 171 0
152 172 0
155 173 0
150 168 0
156 176 0
154 173 0
156 176 0
154 172 0
146 165 0
156 174 0
156 174 0
153 174 0
160 178 0
151 170 0
145 164 0
153 170 0
152 170 0
152 171 0
147 164 0
160 178 0
145 163 0
149 168 0
147 166 0
148 168 0
150 168 0
151 171 0
141 159 0
156 175 0
136 156 0
145 164 0
148 166 0
140 157 0
136 154 0
134 151 0
150 170 0
141 158 0
148 167 0
142 162 0
140 156 0
151 168 0
140 157 0
144 162 0
147 164 0
149 167 0
139 156 0
140 156 0
142 161 0
148 167 0
137 153 0
140 157 0
126 144 0
135 152 0
144 161 0
143 159 0
144 159 0
144 159 0
142 159 0
145 163 0
133 151 0
136 153 0
139 157 0
144 161 0
138 157 0
145 163 0
139 156 0
138 155 0
137 155 0
143 159 0
144 161 0
138 156 0
140 159 0
144 161 0
142 160 0
146 162 0
141 159 0
139 156 0
140 157 0
139 155 0
139 155 0
145 162 0
147 164 0
140 157 0
141 158 0
152 169 0
145 162 0
148 166 0
145 163 0
152 170 0
147 166 0
145 160 0
137 155 0
140 156 0
142 159 0
141 157 0
142 157 0
149 164 0
156 174 0
139 156 0
151 169 0
132 148 0
140 158 0
136 152 0
148 165 0
145 161 0
141 158 0
146 163 0
145 163 0
137 153 0
145 160 0
140 157 0
139 156 0
139 152 0
146 163 0
156 173 0
143 158 0
142 160 0
145 161 0
147 164 0
149 167 0
151 165 0
143 158 0
147 163 0
135 149 0
149 164 0
146 161 0
146 161 0
149 165 0
142 157 0
149 166 0
148 162 0
147 164 0
148 163 0
140 156 0
149 162 0
143 159 0
141 156 0
144 159 0
143 156 0
144 157 0
143 159 0
146 159 0
140 153 0
148 163 0
147 161 0
152 166 0
151 163 0
141 154 0
146 159 0
143 157 0
135 145 0
149 161 0
137 149 0
142 154 0
145 158 0
150 161 0
142 151 0
150 161 0
139 149 0
148 160 0
151 162 0
142 151 0
137 146 0
146 157 0
140 151 0
141 150 0
144 151 0
142 151 0
139 149 0
138 148 0
142 150 0
144 154 0
141 149 0
142 150 0
148 157 0
136 140 0
147 154 0
146 153 0
143 153 0
136 144 0
142 150 0
135 140 0
139 146 0
137 143 0
147 153 0
136 142 0
131 135 0
134 139 0
138 144 0
137 142 0
141 147 0
136 140 0
140 146 0
141 147 0
141 144 0
141 148 0
133 137 0
146 151 0
139 143 0
143 151 0
140 144 0
145 153 0
148 153 0
146 152 0
141 147 0
140 144 0
136 140 0
137 141 0
134 137 0
142 145 0
142 148 0
146 151 0
139 146 0
148 153 0
140 144 0
148 151 0
135 139 0
145 149 0
146 154 0
140 143 0
137 143 0
143 150 0
151 158 0
145 151 0
141 147 0
137 144 0
144 149 0
151 156 0
148 155 0
150 156 0
140 146 0
146 152 0
144 149 0
146 152 0
147 155 0
144 151 0
154 162 0
152 159 0
155 161 0
162 171 0
147 156 0
152 161 0
158 167 0
147 154 0
155 166 0
161 170 0
164 175 0
159 168 0
154 164 0
154 164 0
155 165 0
153 163 0
151 161 0
160 170 0
152 163 0
160 172 0
159 171 0
177 196 0
178 198 0
175 196 0
175 195 0
178 198 0
177 196 0
177 197 0
176 196 0
172 192 0
176 196 0
174 193 0
170 190 0
171 190 0
174 193 0
175 195 0
178 198 0
175 195 0
175 195 0
177 197 0
173 191 0
171 191 0
176 195 0
174 194 0
173 193 0
177 196 0
172 190 0
180 198 0
171 189 0
173 193 0
176 195 0
170 190 0
176 194 0
169 188 0
173 192 0
164 182 0
171 190 0
171 191 0
173 193 0
168 186 0
170 188 0
175 195 0
172 191 0
172 191 0
164 182 0
166 185 0
168 186 0
170 188 0
160 179 0
170 189 0
174 192 0
170 190 0
170 188 0
172 191 0
164 182 0
169 187 0
174 193 0
171 190 0
169 188 0
166 185 0
168 187 0
168 186 0
167 187 0
167 186 0
172 191 0
167 187 0
166 185 0
165 183 0
170 189 0
165 183 0
170 189 0
167 187 0
170 189 0
166 185 0
164 183 0
158 178 0
167 186 0
166 184 0
160 180 0
167 187 0
170 189 0
167 186 0
170 190 0
167 187 0
161 182 0
165 184 0
162 181 0
164 183 0
172 192 0
163 183 0
162 181 0
172 191 0
160 178 0
168 188 0
159 178 0
165 185 0
160 179 0
163 183 0
163 182 0
164 182 0
166 185 0
165 183 0
163 183 0
162 181 0
161 179 0
168 188 0
162 181 0
163 183 0
159 179 0
159 179 0
163 183 0
162 182 0
164 184 0
160 179 0
161 181 0
164 183 0
160 179 0
154 172 0
149 168 0
158 178 0
166 186 0
163 183 0
163 182 0
156 176 0
158 177 0
159 180 0
159 178 0
164 184 0
158 177 0
155 175 0
165 186 0
157 176 0
162 181 0
158 178 0
159 178 0
159 179 0
159 177 0
163 182 0
157 177 0
150 169 0
159 178 0
151 170 0
156 176 0
159 178 0
159 179 0
151 169 0
153 171 0
157 176 0
160 180 0
145 164 0
161 180 0
150 168 0
153 172 0
152 172 0
157 178 0
150 169 0
161 181 0
154 172 0
150 168 0
156 175 0
157 176 0
158 177 0
156 176 0
155 175 0
153 172 0
156 176 0
153 172 0
151 170 0
152 171 0
154 173 0
152 170 0
152 170 0
148 166 0
149 168 0
150 170 0
158 176 0
146 164 0
149 167 0
142 161 0
148 165 0
146 165 0
143 161 0
152 171 0
149 166 0
148 166 0
124 142 0
144 162 0
145 163 0
140 159 0
135 154 0
147 164 0
136 155 0
150 168 0
148 166 0
141 159 0
140 159 0
145 162 0
137 153 0
138 156 0
143 162 0
140 156 0
141 158 0
142 159 0
149 167 0
149 166 0
138 156 0
140 156 0
144 161 0
137 156 0
144 159 0
137 155 0
138 156 0
136 153 0
140 158 0
140 157 0
145 163 0
147 165 0
140 158 0
140 157 0
137 156 0
146 161 0
139 157 0
140 159 0
147 164 0
146 162 0
148 166 0
134 149 0
146 163 0
149 165 0
142 158 0
142 160 0
143 159 0
139 157 0
148 162 0
143 158 0
138 155 0
152 168 0
142 158 0
143 159 0
148 167 0
149 165 0
151 167 0
144 160 0
148 165 0
141 158 0
144 160 0
147 163 0
139 156 0
146 163 0
150 168 0
147 164 0
156 174 0
153 171 0
143 159 0
151 168 0
139 156 0
152 167 0
151 166 0
154 170 0
159 176 0
146 160 0
146 163 0
152 171 0
144 159 0
142 158 0
138 154 0
152 167 0
130 145 0
150 166 0
149 166 0
141 157 0
145 161 0
154 171 0
147 161 0
145 160 0
149 162 0
145 158 0
144 158 0
144 160 0
134 148 0
145 161 0
150 167 0
141 154 0
149 160 0
150 163 0
134 146 0
155 169 0
140 156 0
142 156 0
144 160 0
144 161 0
147 159 0
134 146 0
143 157 0
145 158 0
145 158 0
144 155 0
148 161 0
147 159 0
144 158 0
147 161 0
139 151 0
131 141 0
137 147 0
144 155 0
137 147 0
139 151 0
147 160 0
147 161 0
139 146 0
139 149 0
146 154 0
135 146 0
144 152 0
142 152 0
147 159 0
146 153 0
142 150 0
139 147 0
142 151 0
134 141 0
140 148 0
141 149 0
143 152 0
141 149 0
143 153 0
151 158 0
144 150 0
143 152 0
145 150 0
134 142 0
134 141 0
144 151 0
140 143 0
147 155 0
143 150 0
142 148 0
144 152 0
139 149 0
139 144 0
134 139 0
141 149 0
143 150 0
141 149 0
146 150 0
140 144 0
140 147 0
147 151 0
134 139 0
144 150 0
139 143 0
138 142 0
140 147 0
126 131 0
145 151 0
142 146 0
151 159 0
143 149 0
142 150 0
142 146 0
139 144 0
157 163 0
139 146 0
137 140 0
151 158 0
146 150 0
141 147 0
151 158 0
145 151 0
138 142 0
148 154 0
153 159 0
144 149 0
146 153 0
150 158 0
153 160 0
150 159 0
155 163 0
152 159 0
161 173 0
145 151 0
148 154 0
158 166 0
150 156 0
149 155 0
157 165 0
142 150 0
157 166 0
150 157 0
147 155 0
156 163 0
155 167 0
154 164 0
151 162 0
159 170 0
156 166 0
157 165 0
158 168 0
151 161 0
162 175 0
157 167 0
175 194 0
179 199 0
174 194 0
177 196 0
178 197 0
169 188 0
177 197 0
173 192 0
174 194 0
174 194 0
177 196 0
173 192 0
176 195 0
174 193 0
169 187 0
171 190 0
173 191 0
176 196 0
177 197 0
175 193 0
179 198 0
174 192 0
171 191 0
169 189 0
175 194 0
177 196 0
174 194 0
168 187 0
168 188 0
175 194 0
173 192 0
173 192 0
170 189 0
170 189 0
171 191 0
170 188 0
168 186 0
168 187 0
167 187 0
169 188 0
169 188 0
171 190 0
171 190 0
174 193 0
173 192 0
173 192 0
173 192 0
169 188 0
169 189 0
173 193 0
172 191 0
169 187 0
170 189 0
170 189 0
166 186 0
170 189 0
171 190 0
173 191 0
170 190 0
173 192 0
169 188 0
160 179 0
173 193 0
166 185 0
168 186 0
166 186 0
168 187 0
171 190 0
168 187 0
171 190 0
159 178 0
160 179 0
172 191 0
165 184 0
165 185 0
168 187 0
165 184 0
169 187 0
169 188 0
162 181 0
163 182 0
164 184 0
165 185 0
165 184 0
163 183 0
164 183 0
163 182 0
161 180 0
169 188 0
164 183 0
162 182 0
172 191 0
163 183 0
166 187 0
166 186 0
164 183 0
161 182 0
163 182 0
163 183 0
162 181 0
157 177 0
154 174 0
158 176 0
160 178 0
164 183 0
162 182 0
164 183 0
155 175 0
160 179 0
166 185 0
158 177 0
168 188 0
159 178 0
153 172 0
160 178 0
162 182 0
163 183 0
155 176 0
153 172 0
155 175 0
162 182 0
157 176 0
160 179 0
162 181 0
157 177 0
159 178 0
151 170 0
160 181 0
151 170 0
157 176 0
152 171 0
158 177 0
156 175 0
163 182 0
157 177 0
147 165 0
154 172 0
163 182 0
150 169 0
157 176 0
158 178 0
158 178 0
152 171 0
153 172 0
163 182 0
154 173 0
161 180 0
159 179 0
151 170 0
156 175 0
155 175 0
151 170 0
152 172 0
160 177 0
148 168 0
162 182 0
150 169 0
149 167 0
146 163 0
149 167 0
152 170 0
144 163 0
156 174 0
149 169 0
151 170 0
155 175 0
150 169 0
150 168 0
159 177 0
147 166 0
149 169 0
147 166 0
151 170 0
150 169 0
151 169 0
145 164 0
141 159 0
148 167 0
140 158 0
152 170 0
153 171 0
153 172 0
143 161 0
141 159 0
151 169 0
138 157 0
140 158 0
143 159 0
139 157 0
136 153 0
143 161 0
142 161 0
140 158 0
141 159 0
146 163 0
135 152 0
140 157 0
146 164 0
145 162 0
150 167 0
140 159 0
140 159 0
142 159 0
142 159 0
144 160 0
144 162 0
146 163 0
146 163 0
140 156 0
138 155 0
149 167 0
145 163 0
143 161 0
150 168 0
140 157 0
144 159 0
137 156 0
150 167 0
150 167 0
151 169 0
140 158 0
147 165 0
143 161 0
148 166 0
131 148 0
149 168 0
151 170 0
146 162 0
143 160 0
141 158 0
147 163 0
151 169 0
138 154 0
145 163 0
148 164 0
149 167 0
146 163 0
148 165 0
143 160 0
148 166 0
156 174 0
149 165 0
136 152 0
148 166 0
146 164 0
146 164 0
136 152 0
154 168 0
147 165 0
143 158 0
156 173 0
147 163 0
147 163 0
146 162 0
146 163 0
147 164 0
147 163 0
144 161 0
157 173 0
145 161 0
146 162 0
149 164 0
150 167 0
141 157 0
143 158 0
152 168 0
149 166 0
145 160 0
157 173 0
153 170 0
151 166 0
142 157 0
137 151 0
153 168 0
145 159 0
152 167 0
152 167 0
146 161 0
150 166 0
139 154 0
155 170 0
149 164 0
144 159 0
148 162 0
142 156 0
146 159 0
146 160 0
150 165 0
145 159 0
142 157 0
144 157 0
144 160 0
151 165 0
139 151 0
148 160 0
139 152 0
145 157 0
144 156 0
141 154 0
141 152 0
132 143 0
149 159 0
140 153 0
145 154 0
138 149 0
152 166 0
145 155 0
150 161 0
136 145 0
138 146 0
144 155 0
145 157 0
143 155 0
144 155 0
144 154 0
145 154 0
144 153 0
149 161 0
134 142 0
148 157 0
150 160 0
133 143 0
139 148 0
139 148 0
142 151 0
143 151 0
145 156 0
139 148 0
148 158 0
146 153 0
146 154 0
138 145 0
151 160 0
141 149 0
140 147 0
145 153 0
140 148 0
136 144 0
141 147 0
140 147 0
139 147 0
146 153 0
149 154 0
146 153 0
145 152 0
148 155 0
142 147 0
141 150 0
133 139 0
142 146 0
138 142 0
141 147 0
148 153 0
138 142 0
140 144 0
145 149 0
145 151 0
133 139 0
151 158 0
152 156 0
132 138 0
140 144 0
140 148 0
142 148 0
138 143 0
145 152 0
145 153 0
151 159 0
144 151 0
150 156 0
158 164 0
143 147 0
146 151 0
154 162 0
145 150 0
147 155 0
150 157 0
153 159 0
154 162 0
139 145 0
144 153 0
152 161 0
149 155 0
154 162 0
160 168 0
156 164 0
154 165 0
159 169 0
151 159 0
164 174 0
148 157 0
164 174 0
156 166 0
153 161 0
161 172 0
150 160 0
157 167 0
158 169 0
159 169 0
157 170 0
174 194 0
174 193 0
178 197 0
170 190 0
175 195 0
173 192 0
172 191 0
173 192 0
168 187 0
174 194 0
172 192 0
177 196 0
170 189 0
174 194 0
166 185 0
173 192 0
173 193 0
171 189 0
175 195 0
174 193 0
174 193 0
172 192 0
172 191 0
175 194 0
169 189 0
172 190 0
174 192 0
174 194 0
172 192 0
176 196 0
168 186 0
171 190 0
178 197 0
172 190 0
173 192 0
165 183 0
173 192 0
166 184 0
175 195 0
168 187 0
169 189 0
173 192 0
168 188 0
167 186 0
169 187 0
170 189 0
173 192 0
169 189 0
165 185 0
172 190 0
171 190 0
173 193 0
173 193 0
166 185 0
170 189 0
170 190 0
163 180 0
168 187 0
170 189 0
168 187 0
173 192 0
168 188 0
166 185 0
168 187 0
169 188 0
167 186 0
159 178 0
169 188 0
165 184 0
164 184 0
170 189 0
169 189 0
160 178 0
167 186 0
168 187 0
163 182 0
164 184 0
168 187 0
160 179 0
167 186 0
168 189 0
162 182 0
162 180 0
168 186 0
164 182 0
165 183 0
163 183 0
165 184 0
159 178 0
168 188 0
169 188 0
153 172 0
168 187 0
167 186 0
168 189 0
167 187 0
167 187 0
163 183 0
159 178 0
166 186 0
169 189 0
163 182 0
161 181 0
165 184 0
157 176 0
158 177 0
158 177 0
159 179 0
165 185 0
165 184 0
158 178 0
162 182 0
159 177 0
162 183 0
171 191 0
163 182 0
159 179 0
163 183 0
158 178 0
167 186 0
156 176 0
159 178 0
159 179 0
159 179 0
161 180 0
156 175 0
160 180 0
160 179 0
152 170 0
164 182 0
161 181 0
151 171 0
163 183 0
161 180 0
160 178 0
153 173 0
161 180 0
163 183 0
161 180 0
160 178 0
155 173 0
156 175 0
152 170 0
153 173 0
150 168 0
155 173 0
156 176 0
152 171 0
158 178 0
158 177 0
157 176 0
153 172 0
158 177 0
151 171 0
154 172 0
145 164 0
149 167 0
155 175 0
152 170 0
149 168 0
159 178 0
149 167 0
158 177 0
160 181 0
159 178 0
153 171 0
157 176 0
155 175 0
144 162 0
144 163 0
153 172 0
155 174 0
144 161 0
151 170 0
147 166 0
148 167 0
146 164 0
146 165 0
149 167 0
149 168 0
156 175 0
159 177 0
157 175 0
157 176 0
153 173 0
140 158 0
145 162 0
146 164 0
152 171 0
147 165 0
149 167 0
145 163 0
142 161 0
140 158 0
150 168 0
144 162 0
149 166 0
150 168 0
136 152 0
140 157 0
139 156 0
139 157 0
138 155 0
141 160 0
142 160 0
144 162 0
141 159 0
146 164 0
144 162 0
144 162 0
149 167 0
143 159 0
150 168 0
151 168 0
141 159 0
146 164 0
142 159 0
150 168 0
144 160 0
141 159 0
141 159 0
146 164 0
142 160 0
142 159 0
141 157 0
147 165 0
142 160 0
147 165 0
147 164 0
140 155 0
142 158 0
153 171 0
143 159 0
151 170 0
145 161 0
143 160 0
148 166 0
142 158 0
140 156 0
145 163 0
142 160 0
149 167 0
149 165 0
144 161 0
145 161 0
145 161 0
150 166 0
147 162 0
150 165 0
143 160 0
145 162 0
147 163 0
147 164 0
145 161 0
152 168 0
141 157 0
141 158 0
147 162 0
148 165 0
148 165 0
144 159 0
160 176 0
145 162 0
151 167 0
148 164 0
151 168 0
151 167 0
144 159 0
149 165 0
140 153 0
153 170 0
146 162 0
150 166 0
152 167 0
154 171 0
149 163 0
148 162 0
141 154 0
148 163 0
146 161 0
141 158 0
146 162 0
146 161 0
145 161 0
144 158 0
138 152 0
155 170 0
156 172 0
148 162 0
144 156 0
151 164 0
148 164 0
143 157 0
154 169 0
146 160 0
150 164 0
140 153 0
137 149 0
145 156 0
137 149 0
147 157 0
144 155 0
153 166 0
148 161 0
145 155 0
154 165 0
143 153 0
143 155 0
151 163 0
147 158 0
141 152 0
141 153 0
148 157 0
137 148 0
142 152 0
146 156 0
142 153 0
144 154 0
136 145 0
148 158 0
149 159 0
149 157 0
145 155 0
138 146 0
140 148 0
149 159 0
145 152 0
150 160 0
143 152 0
140 146 0
149 156 0
152 159 0
146 154 0
136 144 0
140 149 0
137 145 0
140 144 0
144 150 0
141 146 0
150 159 0
145 151 0
142 148 0
142 150 0
151 157 0
136 142 0
147 154 0
134 138 0
148 155 0
140 148 0
152 160 0
146 153 0
148 156 0
145 153 0
153 160 0
138 142 0
136 142 0
149 155 0
140 147 0
149 156 0
147 153 0
142 148 0
145 152 0
143 151 0
149 157 0
139 146 0
146 152 0
138 144 0
142 148 0
142 149 0
153 159 0
160 168 0
152 160 0
145 154 0
138 143 0
151 159 0
153 161 0
151 158 0
144 150 0
149 158 0
153 161 0
146 153 0
155 164 0
151 160 0
143 151 0
151 157 0
153 161 0
151 158 0
146 154 0
159 167 0
158 170 0
150 158 0
153 162 0
151 160 0
162 174 0
154 162 0
152 162 0
159 170 0
160 168 0
156 164 0
155 164 0
170 189 0
178 198 0
166 185 0
173 192 0
168 187 0
176 196 0
172 192 0
176 196 0
171 190 0
175 195 0
177 196 0
178 197 0
172 191 0
177 197 0
177 196 0
172 192 0
173 192 0
170 189 0
175 195 0
172 190 0
171 190 0
175 194 0
178 197 0
170 190 0
174 193 0
172 191 0
175 193 0
174 193 0
174 193 0
170 189 0
176 195 0
172 191 0
174 193 0
168 187 0
178 197 0
172 192 0
174 193 0
170 189 0
170 190 0
179 198 0
169 188 0
173 193 0
172 191 0
168 187 0
175 194 0
175 194 0
166 185 0
173 192 0
176 194 0
175 195 0
169 188 0
174 192 0
173 192 0
167 187 0
168 186 0
164 183 0
170 190 0
174 193 0
161 181 0
168 186 0
167 187 0
162 181 0
167 187 0
166 186 0
168 187 0
168 186 0
162 180 0
168 188 0
169 188 0
171 191 0
173 193 0
169 189 0
172 191 0
163 182 0
169 189 0
167 185 0
168 187 0
165 185 0
165 184 0
167 187 0
169 189 0
162 181 0
165 184 0
161 179 0
164 183 0
163 182 0
171 191 0
163 183 0
168 187 0
162 182 0
159 179 0
162 182 0
168 186 0
161 180 0
168 189 0
160 180 0
164 184 0
158 177 0
160 181 0
158 177 0
161 181 0
162 182 0
166 186 0
160 180 0
161 179 0
157 176 0
167 187 0
154 173 0
161 181 0
163 183 0
162 182 0
162 181 0
155 174 0
162 183 0
166 186 0
163 182 0
161 181 0
164 184 0
160 178 0
156 176 0
157 177 0
161 182 0
161 181 0
155 174 0
163 183 0
159 178 0
160 180 0
164 183 0
158 178 0
156 176 0
156 174 0
151 170 0
157 177 0
156 175 0
150 169 0
155 173 0
157 177 0
161 181 0
158 178 0
162 181 0
155 175 0
154 173 0
153 173 0
151 170 0
157 176 0
160 179 0
148 166 0
156 176 0
154 173 0
154 172 0
153 173 0
161 181 0
156 175 0
155 174 0
157 176 0
156 176 0
153 172 0
156 174 0
150 169 0
151 171 0
145 164 0
161 180 0
151 170 0
157 176 0
153 171 0
153 173 0
147 166 0
146 165 0
153 171 0
152 170 0
140 159 0
148 168 0
150 168 0
146 164 0
152 171 0
149 167 0
143 161 0
154 173 0
157 176 0
155 173 0
149 167 0
145 163 0
147 165 0
154 172 0
151 169 0
148 167 0
146 163 0
151 169 0
155 173 0
148 167 0
160 179 0
154 173 0
150 168 0
143 160 0
155 174 0
149 168 0
149 168 0
146 166 0
144 162 0
140 158 0
142 161 0
152 170 0
151 169 0
145 163 0
134 150 0
154 171 0
151 170 0
144 162 0
148 165 0
143 160 0
156 175 0
146 164 0
141 160 0
141 158 0
144 160 0
150 169 0
139 156 0
147 164 0
150 167 0
147 164 0
145 162 0
145 163 0
142 157 0
143 160 0
140 157 0
144 162 0
146 164 0
143 160 0
142 159 0
144 162 0
148 166 0
146 164 0
149 167 0
141 157 0
144 162 0
145 162 0
145 162 0
146 165 0
145 162 0
156 174 0
153 173 0
147 163 0
146 161 0
146 163 0
142 156 0
144 160 0
147 163 0
139 155 0
146 163 0
146 162 0
154 170 0
147 164 0
141 158 0
143 159 0
148 165 0
138 153 0
156 173 0
139 155 0
152 167 0
157 174 0
144 160 0
137 152 0
140 157 0
149 166 0
141 157 0
143 158 0
157 172 0
144 160 0
145 160 0
146 161 0
143 158 0
146 162 0
151 167 0
148 166 0
147 164 0
148 165 0
144 160 0
140 155 0
145 161 0
144 160 0
160 174 0
151 168 0
144 160 0
153 167 0
147 159 0
152 166 0
145 160 0
154 170 0
150 165 0
139 154 0
150 163 0
148 164 0
155 170 0
154 167 0
147 159 0
145 158 0
143 156 0
145 158 0
146 159 0
146 161 0
159 174 0
150 164 0
145 158 0
143 155 0
144 156 0
146 159 0
144 154 0
142 155 0
142 155 0
134 144 0
140 150 0
151 163 0
148 160 0
144 154 0
145 157 0
148 162 0
152 163 0
148 158 0
151 163 0
144 154 0
148 156 0
148 158 0
146 155 0
144 154 0
150 161 0
146 154 0
149 158 0
145 154 0
145 155 0
146 156 0
140 150 0
144 152 0
136 146 0
135 143 0
136 144 0
152 162 0
146 155 0
142 150 0
138 146 0
139 143 0
146 152 0
142 147 0
140 145 0
145 154 0
150 158 0
137 144 0
152 158 0
153 164 0
143 148 0
157 166 0
133 139 0
148 156 0
145 150 0
143 152 0
140 148 0
150 156 0
131 137 0
144 152 0
142 147 0
148 156 0
146 153 0
145 152 0
141 146 0
142 148 0
151 159 0
142 150 0
151 157 0
143 150 0
152 161 0
151 157 0
150 156 0
155 165 0
151 158 0
152 161 0
145 152 0
145 152 0
146 154 0
153 160 0
148 156 0
148 154 0
153 162 0
152 160 0
151 157 0
146 153 0
148 157 0
147 155 0
157 165 0
155 163 0
151 159 0
156 165 0
157 163 0
159 168 0
150 158 0
153 160 0
149 159 0
146 155 0
157 167 0
158 169 0
160 171 0
153 161 0
175 193 0
173 193 0
175 195 0
172 191 0
174 194 0
175 195 0
172 190 0
174 193 0
173 192 0
177 197 0
173 192 0
168 187 0
174 193 0
174 194 0
172 191 0
176 195 0
167 186 0
170 189 0
175 195 0
177 196 0
176 195 0
166 185 0
167 186 0
177 196 0
172 191 0
166 184 0
172 192 0
168 188 0
172 191 0
172 191 0
174 193 0
174 193 0
168 187 0
174 193 0
170 190 0
175 194 0
170 190 0
175 194 0
174 193 0
173 192 0
177 197 0
171 190 0
170 190 0
169 188 0
164 184 0
167 186 0
174 193 0
171 189 0
171 191 0
169 188 0
164 183 0
167 186 0
165 184 0
169 189 0
168 188 0
164 182 0
166 186 0
172 191 0
165 184 0
173 193 0
166 186 0
169 188 0
165 184 0
165 184 0
169 188 0
167 187 0
166 185 0
159 179 0
165 184 0
165 185 0
169 188 0
171 189 0
165 185 0
166 186 0
167 186 0
169 189 0
169 188 0
166 186 0
167 186 0
160 179 0
169 189 0
168 187 0
164 185 0
164 182 0
166 185 0
165 184 0
166 186 0
160 180 0
167 187 0
168 188 0
164 184 0
168 186 0
166 186 0
167 188 0
162 182 0
161 180 0
162 181 0
159 178 0
172 192 0
162 180 0
158 178 0
165 185 0
159 180 0
169 188 0
161 181 0
157 177 0
158 178 0
154 174 0
158 179 0
158 177 0
163 182 0
162 181 0
160 179 0
160 180 0
164 185 0
165 184 0
156 174 0
156 175 0
159 178 0
156 176 0
155 176 0
163 183 0
160 178 0
158 178 0
159 178 0
154 173 0
164 184 0
155 173 0
161 181 0
160 180 0
156 175 0
156 176 0
166 185 0
140 159 0
156 175 0
163 182 0
157 176 0
160 180 0
160 179 0
151 171 0
158 178 0
154 173 0
159 178 0
162 183 0
147 166 0
153 172 0
160 180 0
152 171 0
151 171 0
156 175 0
155 174 0
153 171 0
152 171 0
158 175 0
155 175 0
155 175 0
160 179 0
153 171 0
155 174 0
149 168 0
150 169 0
147 167 0
149 169 0
155 175 0
151 170 0
157 177 0
149 169 0
154 173 0
143 162 0
146 166 0
147 166 0
153 174 0
155 174 0
157 176 0
150 171 0
151 170 0
160 179 0
148 167 0
155 175 0
152 171 0
134 153 0
156 174 0
154 172 0
151 170 0
150 168 0
147 166 0
146 165 0
149 166 0
146 164 0
143 161 0
145 164 0
156 175 0
147 164 0
148 166 0
147 165 0
151 169 0
150 169 0
138 156 0
146 164 0
149 167 0
148 166 0
154 173 0
148 167 0
143 161 0
147 165 0
156 174 0
149 167 0
150 168 0
147 165 0
154 172 0
143 161 0
137 155 0
148 166 0
146 163 0
141 160 0
146 165 0
142 160 0
154 172 0
145 162 0
154 173 0
155 173 0
147 165 0
141 159 0
150 168 0
153 171 0
143 160 0
145 162 0
146 165 0
145 163 0
143 160 0
154 171 0
146 163 0
156 174 0
141 158 0
146 163 0
148 164 0
137 154 0
142 159 0
146 163 0
136 152 0
143 162 0
139 156 0
144 160 0
143 159 0
149 166 0
155 171 0
149 167 0
156 172 0
145 161 0
147 165 0
145 162 0
153 170 0
135 150 0
142 159 0
150 167 0
148 165 0
142 159 0
142 159 0
149 166 0
140 157 0
147 163 0
147 163 0
163 180 0
146 163 0
145 161 0
150 165 0
145 160 0
152 168 0
148 163 0
145 160 0
144 159 0
148 164 0
151 168 0
149 164 0
146 162 0
148 163 0
144 159 0
150 164 0
147 163 0
152 169 0
152 166 0
147 162 0
149 164 0
146 162 0
144 159 0
138 153 0
154 169 0
150 166 0
145 160 0
147 160 0
151 164 0
137 152 0
148 163 0
146 160 0
152 165 0
142 156 0
150 164 0
147 161 0
147 161 0
153 167 0
143 156 0
149 159 0
148 162 0
144 157 0
145 158 0
145 158 0
146 159 0
137 146 0
144 155 0
139 150 0
142 153 0
147 157 0
149 163 0
142 151 0
146 158 0
147 158 0
151 163 0
146 155 0
147 158 0
147 157 0
145 156 0
148 160 0
146 158 0
142 151 0
138 147 0
143 152 0
148 156 0
150 161 0
139 148 0
140 148 0
147 156 0
136 143 0
149 158 0
147 156 0
147 155 0
142 149 0
139 146 0
143 153 0
149 159 0
143 150 0
148 157 0
144 153 0
147 155 0
147 156 0
156 166 0
144 154 0
149 157 0
143 152 0
148 156 0
153 162 0
148 157 0
139 147 0
146 155 0
141 147 0
145 151 0
149 159 0
141 148 0
152 161 0
153 161 0
149 157 0
146 153 0
155 163 0
140 145 0
150 157 0
150 157 0
148 155 0
151 162 0
146 154 0
150 159 0
140 149 0
147 156 0
147 153 0
152 161 0
153 160 0
151 156 0
153 160 0
155 163 0
146 155 0
160 167 0
145 154 0
148 154 0
154 165 0
155 163 0
152 159 0
151 160 0
150 160 0
148 156 0
160 171 0
157 166 0
148 155 0
148 157 0
154 165 0
155 163 0
158 168 0
156 164 0
151 160 0
158 169 0
152 162 0
163 173 0
155 164 0
174 195 0
174 192 0
178 198 0
174 194 0
174 193 0
170 190 0
176 196 0
175 194 0
172 192 0
171 190 0
173 191 0
172 191 0
174 193 0
176 194 0
173 191 0
172 192 0
173 193 0
173 191 0
170 189 0
172 191 0
177 196 0
176 195 0
174 193 0
177 196 0
168 188 0
172 191 0
174 193 0
171 189 0
170 190 0
170 190 0
176 194 0
170 190 0
172 190 0
172 191 0
166 186 0
174 193 0
175 193 0
171 189 0
172 192 0
169 188 0
174 194 0
173 191 0
171 190 0
177 196 0
169 189 0
171 190 0
163 182 0
161 178 0
173 192 0
171 190 0
172 192 0
170 190 0
169 187 0
173 192 0
168 187 0
173 192 0
171 189 0
166 184 0
170 189 0
169 188 0
164 182 0
168 187 0
169 188 0
165 185 0
167 186 0
169 189 0
168 188 0
166 185 0
169 188 0
169 188 0
164 183 0
170 189 0
170 189 0
168 188 0
169 188 0
162 182 0
161 180 0
167 186 0
164 184 0
165 184 0
164 184 0
159 177 0
168 188 0
165 183 0
165 184 0
159 178 0
160 180 0
161 180 0
161 180 0
169 189 0
167 186 0
169 189 0
166 186 0
161 179 0
168 189 0
163 183 0
171 190 0
163 182 0
162 183 0
169 189 0
158 178 0
158 177 0
165 184 0
162 182 0
164 185 0
164 184 0
164 184 0
166 185 0
164 184 0
158 178 0
162 182 0
156 175 0
157 178 0
159 179 0
158 177 0
160 181 0
159 179 0
169 189 0
155 176 0
157 177 0
157 176 0
160 180 0
159 179 0
156 175 0
160 179 0
161 181 0
158 177 0
156 176 0
159 180 0
156 176 0
155 175 0
157 176 0
163 182 0
151 169 0
156 176 0
157 178 0
168 188 0
158 178 0
163 182 0
155 175 0
157 176 0
157 177 0
159 178 0
151 171 0
161 181 0
163 183 0
154 172 0
152 172 0
154 173 0
147 165 0
150 169 0
163 183 0
157 178 0
149 168 0
158 176 0
153 172 0
155 174 0
156 176 0
148 166 0
156 174 0
146 165 0
149 168 0
155 175 0
160 179 0
152 172 0
154 173 0
153 172 0
154 173 0
158 178 0
153 171 0
137 156 0
158 176 0
149 168 0
148 167 0
156 174 0
149 167 0
158 176 0
143 161 0
151 170 0
156 175 0
156 175 0
154 173 0
143 161 0
150 168 0
153 171 0
146 166 0
152 171 0
147 165 0
155 174 0
153 171 0
148 167 0
151 169 0
146 165 0
153 172 0
150 167 0
145 164 0
143 162 0
143 163 0
161 179 0
147 165 0
139 158 0
145 162 0
141 157 0
138 155 0
160 178 0
159 176 0
146 163 0
146 164 0
149 169 0
149 168 0
146 164 0
139 158 0
139 158 0
153 171 0
139 156 0
141 159 0
147 166 0
141 158 0
148 166 0
143 160 0
153 171 0
148 167 0
144 160 0
151 169 0
143 161 0
156 175 0
147 164 0
146 163 0
145 163 0
141 158 0
153 170 0
144 162 0
153 170 0
136 152 0
149 165 0
153 170 0
141 157 0
146 162 0
149 167 0
142 158 0
147 163 0
150 168 0
151 170 0
155 171 0
143 161 0
149 166 0
142 159 0
144 163 0
143 160 0
157 176 0
149 168 0
148 167 0
150 169 0
152 168 0
148 165 0
145 161 0
146 164 0
151 170 0
155 173 0
150 167 0
152 169 0
150 165 0
150 167 0
146 163 0
146 162 0
146 161 0
143 159 0
143 158 0
151 167 0
149 165 0
144 159 0
157 172 0
146 163 0
152 168 0
151 168 0
151 166 0
138 154 0
130 146 0
151 168 0
144 159 0
151 167 0
150 166 0
154 169 0
149 165 0
143 155 0
149 162 0
158 175 0
149 163 0
145 159 0
151 166 0
155 170 0
152 166 0
149 165 0
145 159 0
144 158 0
147 160 0
150 165 0
150 163 0
150 164 0
147 162 0
144 160 0
141 153 0
156 171 0
147 159 0
138 148 0
136 147 0
149 161 0
148 160 0
153 164 0
146 158 0
153 166 0
151 162 0
147 159 0
136 144 0
147 159 0
146 156 0
155 166 0
154 165 0
141 151 0
150 161 0
149 160 0
146 157 0
141 149 0
147 155 0
145 156 0
148 161 0
136 145 0
153 165 0
140 149 0
146 154 0
142 151 0
148 158 0
139 150 0
144 152 0
143 150 0
138 147 0
149 157 0
152 161 0
151 163 0
141 149 0
139 148 0
151 160 0
155 163 0
140 144 0
150 157 0
144 152 0
143 149 0
148 157 0
148 155 0
142 149 0
144 152 0
140 147 0
139 146 0
151 161 0
143 149 0
149 160 0
149 157 0
151 161 0
156 166 0
146 156 0
153 159 0
146 152 0
154 162 0
142 148 0
148 155 0
147 154 0
148 155 0
146 155 0
145 152 0
150 158 0
147 154 0
145 151 0
148 156 0
146 153 0
155 163 0
152 156 0
151 159 0
145 153 0
154 163 0
152 159 0
145 152 0
157 166 0
155 164 0
142 149 0
144 151 0
147 154 0
152 160 0
143 152 0
153 160 0
148 156 0
151 158 0
155 164 0
155 166 0
150 158 0
161 172 0
159 170 0
152 162 0
155 165 0
152 162 0
156 166 0
174 194 0
176 196 0
177 195 0
174 193 0
177 196 0
175 195 0
175 196 0
170 189 0
170 190 0
173 193 0
173 193 0
174 193 0
175 193 0
179 199 0
177 196 0
175 194 0
174 193 0
173 192 0
173 192 0
169 188 0
172 191 0
173 192 0
171 191 0
174 194 0
175 192 0
175 195 0
175 194 0
175 194 0
170 189 0
176 195 0
173 192 0
174 194 0
165 184 0
167 186 0
169 187 0
174 193 0
174 193 0
173 193 0
174 193 0
175 195 0
179 198 0
176 195 0
172 191 0
163 181 0
169 189 0
174 192 0
164 184 0
167 187 0
172 190 0
170 189 0
165 184 0
164 184 0
167 187 0
172 190 0
176 195 0
169 188 0
169 187 0
170 191 0
172 191 0
167 187 0
170 187 0
168 188 0
169 188 0
169 188 0
172 191 0
162 181 0
166 186 0
171 191 0
163 183 0
158 178 0
163 182 0
165 184 0
168 188 0
164 184 0
172 191 0
163 183 0
170 191 0
172 192 0
163 184 0
170 190 0
166 185 0
163 183 0
159 178 0
166 185 0
163 183 0
168 188 0
163 182 0
166 185 0
158 178 0
167 187 0
154 172 0
166 187 0
163 183 0
169 188 0
165 184 0
163 182 0
159 179 0
165 184 0
161 181 0
162 182 0
169 188 0
161 181 0
157 177 0
159 179 0
164 184 0
162 181 0
158 177 0
160 181 0
158 177 0
162 182 0
165 185 0
165 185 0
155 174 0
157 177 0
162 183 0
160 179 0
162 182 0
167 186 0
159 179 0
159 180 0
155 176 0
165 185 0
156 175 0
161 182 0
162 182 0
157 177 0
160 180 0
163 181 0
156 175 0
160 178 0
164 183 0
163 183 0
164 184 0
161 181 0
152 172 0
164 184 0
161 181 0
164 182 0
162 181 0
160 180 0
162 182 0
168 188 0
151 171 0
156 176 0
154 173 0
163 183 0
160 180 0
158 178 0
152 172 0
154 172 0
159 178 0
154 174 0
153 174 0
157 177 0
156 177 0
156 175 0
153 171 0
151 170 0
159 177 0
155 175 0
142 161 0
155 175 0
156 176 0
159 178 0
150 169 0
147 164 0
154 173 0
153 172 0
153 173 0
147 166 0
150 168 0
159 178 0
156 175 0
150 170 0
150 169 0
151 169 0
144 162 0
151 170 0
145 163 0
153 173 0
151 170 0
140 159 0
152 172 0
156 175 0
146 164 0
154 172 0
157 175 0
150 168 0
154 172 0
161 179 0
152 171 0
140 158 0
153 172 0
147 164 0
140 159 0
153 172 0
148 167 0
154 174 0
155 172 0
142 160 0
149 168 0
151 170 0
149 167 0
145 163 0
139 157 0
151 171 0
144 162 0
148 166 0
153 172 0
153 172 0
148 166 0
152 170 0
150 167 0
153 171 0
140 159 0
145 164 0
147 165 0
145 163 0
157 175 0
144 163 0
137 155 0
150 169 0
150 168 0
153 172 0
149 167 0
145 164 0
152 169 0
145 164 0
150 169 0
138 157 0
151 170 0
147 166 0
145 162 0
149 168 0
149 167 0
150 168 0
148 167 0
142 160 0
147 164 0
151 169 0
147 163 0
141 159 0
149 167 0
142 158 0
151 168 0
143 160 0
156 173 0
146 162 0
139 156 0
147 163 0
145 162 0
147 162 0
148 165 0
152 168 0
154 172 0
146 162 0
154 171 0
149 167 0
152 168 0
147 163 0
145 162 0
148 163 0
141 155 0
141 157 0
143 158 0
146 163 0
150 167 0
147 164 0
150 166 0
155 172 0
152 169 0
157 172 0
151 165 0
149 163 0
155 172 0
139 154 0
149 165 0
150 165 0
152 169 0
143 156 0
153 171 0
152 167 0
152 167 0
141 155 0
153 169 0
144 160 0
149 165 0
150 164 0
144 159 0
147 163 0
147 161 0
141 155 0
150 164 0
150 164 0
145 158 0
142 157 0
141 155 0
150 164 0
153 167 0
153 167 0
147 158 0
149 163 0
148 163 0
145 158 0
151 163 0
158 170 0
148 160 0
154 169 0
146 158 0
143 155 0
146 158 0
156 168 0
155 167 0
144 157 0
141 151 0
151 164 0
142 154 0
144 156 0
145 155 0
143 155 0
149 161 0
152 163 0
149 160 0
140 149 0
148 160 0
152 164 0
142 150 0
139 149 0
147 158 0
155 167 0
145 154 0
137 147 0
151 161 0
147 156 0
145 155 0
146 157 0
141 151 0
145 155 0
151 162 0
142 150 0
150 159 0
146 155 0
146 157 0
141 149 0
141 150 0
147 157 0
153 162 0
151 160 0
148 156 0
148 159 0
146 154 0
145 154 0
138 147 0
148 155 0
143 151 0
153 163 0
148 157 0
140 146 0
156 166 0
149 157 0
146 154 0
149 156 0
154 163 0
146 153 0
144 150 0
145 152 0
151 160 0
148 154 0
142 147 0
150 159 0
154 163 0
152 161 0
155 163 0
152 159 0
144 155 0
145 152 0
145 149 0
157 168 0
148 156 0
153 161 0
157 164 0
153 160 0
145 152 0
153 157 0
143 152 0
161 171 0
145 152 0
154 164 0
156 165 0
162 170 0
148 156 0
148 157 0
152 162 0
157 166 0
156 166 0
159 169 0
160 169 0
159 168 0
155 166 0
160 170 0
176 195 0
174 193 0
174 193 0
175 195 0
171 190 0
171 190 0
170 190 0
177 197 0
174 194 0
173 191 0
168 186 0
174 192 0
174 194 0
177 196 0
175 194 0
176 195 0
174 193 0
171 192 0
176 195 0
172 191 0
174 192 0
170 189 0
174 194 0
167 186 0
174 194 0
172 191 0
175 194 0
169 188 0
173 192 0
171 191 0
167 186 0
171 190 0
171 189 0
167 186 0
170 189 0
166 186 0
172 191 0
171 191 0
167 186 0
170 189 0
174 193 0
172 193 0
175 195 0
171 191 0
170 189 0
167 186 0
170 189 0
167 185 0
172 191 0
171 191 0
171 190 0
165 183 0
172 191 0
173 193 0
173 193 0
171 191 0
168 187 0
166 185 0
167 187 0
168 187 0
168 188 0
168 188 0
169 188 0
168 187 0
160 179 0
166 186 0
168 187 0
171 190 0
157 177 0
174 194 0
166 186 0
166 185 0
167 186 0
163 181 0
166 186 0
165 185 0
166 186 0
163 183 0
164 184 0
164 184 0
167 186 0
154 174 0
175 193 0
166 186 0
156 175 0
170 190 0
172 192 0
157 176 0
168 188 0
162 183 0
162 181 0
164 183 0
163 182 0
163 183 0
162 181 0
162 181 0
163 183 0
165 186 0
154 174 0
159 179 0
161 179 0
167 187 0
167 187 0
162 182 0
163 184 0
159 178 0
162 183 0
161 179 0
163 183 0
165 184 0
162 182 0
162 182 0
164 183 0
166 187 0
157 176 0
160 180 0
167 187 0
156 175 0
150 169 0
160 179 0
160 179 0
162 182 0
162 183 0
162 181 0
161 180 0
164 184 0
162 181 0
165 186 0
156 175 0
157 177 0
156 178 0
161 180 0
158 179 0
160 180 0
151 171 0
152 172 0
161 180 0
160 179 0
154 173 0
159 179 0
159 177 0
148 168 0
158 179 0
152 171 0
159 179 0
155 174 0
155 174 0
157 177 0
154 172 0
158 177 0
158 178 0
149 169 0
157 176 0
155 175 0
151 170 0
147 167 0
155 174 0
151 170 0
159 179 0
154 172 0
149 169 0
159 179 0
147 166 0
150 170 0
148 166 0
153 171 0
156 176 0
158 177 0
153 172 0
147 166 0
154 173 0
149 168 0
153 170 0
151 169 0
159 178 0
154 172 0
159 178 0
147 167 0
135 154 0
153 173 0
153 172 0
154 172 0
146 164 0
137 155 0
140 157 0
152 171 0
148 166 0
156 174 0
153 172 0
147 165 0
145 164 0
145 163 0
151 169 0
153 171 0
147 166 0
153 171 0
143 162 0
155 174 0
139 157 0
147 165 0
143 161 0
154 172 0
155 174 0
147 164 0
148 166 0
154 173 0
143 159 0
143 161 0
149 168 0
147 165 0
139 157 0
153 172 0
145 163 0
152 171 0
141 158 0
145 163 0
144 162 0
153 171 0
150 167 0
148 165 0
141 158 0
148 167 0
156 174 0
146 161 0
147 163 0
144 162 0
147 165 0
142 161 0
151 168 0
154 171 0
149 166 0
150 167 0
150 167 0
157 173 0
144 160 0
152 170 0
150 169 0
139 156 0
147 163 0
156 175 0
158 174 0
153 171 0
140 159 0
147 162 0
157 177 0
147 164 0
149 167 0
150 166 0
154 171 0
144 160 0
151 168 0
151 169 0
145 160 0
146 165 0
154 172 0
147 164 0
149 164 0
153 170 0
145 162 0
152 167 0
146 162 0
149 166 0
156 174 0
151 168 0
148 165 0
154 171 0
150 166 0
152 167 0
142 159 0
146 165 0
142 158 0
155 170 0
149 164 0
152 167 0
154 170 0
145 160 0
152 168 0
145 160 0
142 157 0
149 166 0
150 164 0
151 166 0
144 158 0
152 169 0
157 174 0
150 167 0
141 157 0
151 165 0
144 159 0
144 159 0
154 167 0
153 168 0
152 168 0
150 163 0
150 162 0
148 163 0
155 169 0
147 160 0
145 161 0
145 160 0
150 165 0
152 165 0
152 166 0
156 171 0
143 156 0
146 161 0
154 168 0
148 160 0
145 158 0
157 171 0
143 153 0
141 152 0
150 162 0
140 151 0
161 172 0
140 152 0
149 161 0
148 161 0
138 148 0
145 153 0
143 154 0
144 153 0
158 170 0
141 150 0
144 156 0
151 162 0
154 164 0
143 154 0
143 150 0
152 163 0
142 153 0
150 160 0
146 157 0
141 150 0
150 160 0
139 146 0
143 152 0
149 159 0
145 156 0
145 154 0
155 168 0
138 144 0
153 163 0
149 159 0
151 162 0
145 156 0
157 166 0
147 153 0
141 150 0
140 149 0
151 159 0
156 164 0
152 161 0
145 152 0
142 151 0
151 158 0
139 144 0
151 159 0
153 162 0
144 151 0
146 153 0
147 154 0
152 160 0
142 151 0
155 163 0
148 155 0
138 145 0
147 156 0
145 152 0
143 151 0
157 166 0
143 152 0
153 161 0
147 156 0
158 169 0
153 161 0
149 160 0
152 161 0
153 162 0
146 154 0
149 157 0
147 156 0
156 165 0
151 159 0
158 168 0
151 159 0
154 160 0
150 159 0
154 164 0
152 162 0
156 164 0
151 161 0
150 159 0
167 179 0
154 162 0
156 165 0
157 167 0
160 170 0
143 150 0
152 162 0
175 195 0
175 195 0
173 194 0
174 192 0
172 193 0
174 193 0
173 192 0
172 191 0
174 193 0
175 194 0
173 193 0
173 191 0
170 189 0
170 189 0
173 194 0
173 192 0
173 193 0
174 193 0
169 188 0
172 192 0
174 193 0
175 194 0
169 189 0
176 194 0
174 193 0
172 192 0
168 187 0
175 195 0
174 193 0
174 193 0
168 188 0
169 188 0
167 186 0
172 191 0
172 191 0
165 185 0
164 183 0
169 189 0
169 189 0
170 189 0
170 190 0
167 186 0
172 191 0
165 184 0
170 190 0
178 197 0
170 190 0
173 192 0
170 189 0
168 187 0
172 190 0
169 189 0
162 179 0
162 182 0
166 186 0
170 189 0
162 181 0
168 188 0
168 187 0
166 186 0
170 190 0
170 188 0
167 186 0
165 185 0
165 184 0
168 188 0
162 182 0
173 193 0
165 184 0
165 185 0
168 188 0
172 190 0
171 191 0
164 184 0
169 188 0
165 185 0
164 184 0
166 185 0
163 182 0
175 195 0
166 185 0
168 187 0
169 188 0
163 182 0
158 179 0
169 189 0
167 187 0
162 181 0
165 184 0
163 183 0
167 188 0
167 186 0
159 179 0
165 185 0
162 182 0
167 187 0
169 189 0
161 180 0
159 179 0
160 180 0
161 181 0
168 189 0
164 184 0
171 190 0
168 187 0
164 183 0
159 179 0
156 175 0
166 186 0
166 186 0
160 181 0
163 182 0
164 184 0
156 177 0
165 184 0
163 183 0
159 177 0
164 181 0
151 170 0
161 181 0
157 176 0
160 181 0
158 178 0
160 180 0
160 180 0
159 178 0
159 178 0
156 176 0
157 175 0
161 181 0
155 174 0
151 169 0
158 177 0
153 174 0
161 182 0
166 186 0
157 177 0
158 177 0
151 170 0
160 179 0
152 171 0
155 175 0
158 177 0
154 173 0
151 170 0
157 178 0
161 180 0
156 176 0
156 176 0
155 173 0
160 179 0
161 181 0
159 179 0
156 177 0
156 175 0
158 178 0
152 171 0
145 165 0
149 168 0
159 179 0
151 170 0
150 169 0
155 174 0
162 181 0
154 174 0
157 177 0
160 180 0
153 173 0
150 169 0
155 175 0
149 168 0
156 175 0
154 172 0
151 168 0
162 181 0
142 160 0
146 164 0
155 174 0
156 175 0
148 165 0
152 171 0
150 169 0
154 173 0
148 167 0
154 172 0
148 165 0
146 165 0
147 164 0
142 160 0
155 174 0
152 171 0
150 170 0
146 164 0
150 168 0
159 177 0
146 164 0
149 167 0
150 168 0
152 171 0
150 170 0
158 176 0
151 170 0
139 158 0
154 173 0
150 167 0
146 164 0
146 162 0
140 159 0
145 165 0
142 160 0
147 165 0
142 160 0
158 177 0
145 163 0
156 174 0
151 169 0
143 161 0
142 160 0
155 174 0
149 167 0
147 165 0
154 173 0
153 169 0
158 177 0
154 173 0
154 171 0
154 173 0
151 169 0
162 180 0
152 168 0
149 169 0
147 166 0
149 166 0
143 162 0
147 164 0
146 164 0
150 167 0
146 164 0
149 167 0
150 169 0
153 171 0
149 167 0
151 170 0
142 160 0
154 174 0
149 166 0
149 167 0
150 166 0
150 167 0
147 166 0
157 173 0
144 160 0
155 171 0
151 168 0
147 164 0
146 164 0
150 169 0
146 164 0
151 167 0
147 163 0
154 170 0
147 164 0
150 166 0
148 166 0
143 160 0
152 169 0
150 167 0
150 167 0
152 168 0
148 164 0
145 161 0
155 171 0
145 160 0
151 168 0
144 162 0
148 163 0
155 171 0
153 168 0
153 169 0
150 165 0
145 161 0
150 166 0
142 158 0
141 157 0
148 161 0
156 172 0
154 169 0
151 166 0
153 169 0
158 174 0
156 173 0
148 164 0
156 172 0
145 162 0
154 171 0
150 163 0
154 167 0
154 169 0
152 168 0
151 166 0
154 169 0
145 157 0
153 165 0
146 160 0
159 175 0
150 164 0
142 160 0
150 163 0
148 162 0
151 162 0
152 166 0
161 176 0
146 158 0
135 147 0
151 164 0
150 161 0
152 167 0
150 161 0
157 170 0
158 171 0
153 166 0
155 167 0
143 154 0
145 156 0
153 165 0
160 171 0
151 162 0
140 148 0
158 170 0
156 165 0
153 164 0
151 163 0
141 151 0
151 162 0
150 162 0
150 160 0
154 166 0
142 152 0
147 156 0
141 151 0
141 148 0
145 153 0
140 151 0
147 156 0
151 164 0
148 156 0
149 157 0
155 167 0
149 157 0
152 161 0
148 156 0
148 158 0
144 153 0
147 156 0
144 154 0
139 145 0
144 153 0
139 147 0
153 162 0
146 156 0
150 158 0
148 157 0
148 156 0
155 162 0
146 153 0
145 154 0
150 159 0
155 163 0
147 156 0
149 159 0
150 156 0
156 166 0
152 158 0
153 165 0
143 150 0
155 163 0
149 159 0
144 153 0
155 163 0
148 158 0
152 161 0
151 159 0
150 160 0
158 167 0
141 147 0
153 162 0
156 164 0
153 164 0
153 165 0
155 164 0
154 163 0
157 166 0
160 170 0
155 165 0
148 158 0
153 161 0
159 170 0
147 155 0
151 160 0
154 164 0
173 193 0
175 194 0
168 188 0
171 191 0
175 194 0
168 186 0
173 192 0
174 194 0
171 191 0
175 194 0
175 194 0
175 195 0
176 196 0
171 191 0
169 188 0
172 191 0
177 196 0
174 193 0
172 192 0
175 194 0
174 193 0
172 191 0
171 190 0
172 191 0
175 194 0
168 188 0
169 189 0
170 190 0
171 191 0
168 188 0
171 190 0
173 193 0
175 194 0
167 186 0
168 188 0
169 189 0
164 184 0
165 185 0
175 194 0
170 190 0
165 185 0
174 193 0
171 191 0
167 187 0
164 183 0
166 185 0
171 189 0
171 192 0
164 183 0
166 185 0
172 191 0
164 184 0
167 185 0
169 188 0
175 195 0
167 186 0
166 186 0
166 184 0
172 192 0
168 188 0
170 190 0
169 188 0
169 188 0
169 188 0
168 187 0
163 183 0
158 176 0
168 187 0
163 181 0
164 184 0
166 185 0
163 182 0
171 190 0
166 185 0
158 177 0
164 185 0
158 176 0
160 179 0
162 182 0
167 186 0
168 188 0
166 186 0
163 183 0
166 186 0
162 181 0
165 185 0
161 181 0
161 182 0
168 187 0
164 183 0
168 188 0
164 183 0
164 184 0
166 186 0
162 183 0
166 185 0
163 182 0
165 186 0
161 180 0
162 182 0
163 183 0
170 190 0
157 177 0
162 182 0
162 181 0
165 185 0
160 180 0
164 184 0
172 193 0
163 182 0
170 190 0
158 178 0
163 183 0
163 183 0
163 183 0
164 184 0
159 179 0
161 182 0
150 170 0
162 181 0
161 179 0
163 184 0
163 183 0
159 178 0
160 180 0
161 182 0
165 185 0
159 179 0
162 181 0
163 182 0
167 188 0
168 188 0
152 172 0
163 183 0
164 185 0
158 177 0
162 180 0
158 178 0
156 176 0
163 183 0
156 175 0
154 174 0
153 171 0
155 173 0
161 179 0
162 182 0
154 173 0
154 174 0
154 173 0
161 181 0
161 180 0
147 164 0
161 181 0
150 169 0
162 182 0
157 177 0
160 180 0
158 177 0
160 179 0
154 173 0
151 171 0
157 176 0
157 175 0
165 183 0
158 178 0
156 174 0
155 175 0
155 174 0
157 176 0
143 162 0
151 171 0
149 170 0
157 175 0
153 171 0
150 170 0
156 175 0
144 164 0
157 176 0
142 161 0
156 175 0
157 176 0
153 171 0
144 162 0
155 174 0
153 172 0
146 164 0
146 165 0
145 162 0
158 177 0
151 170 0
146 164 0
151 170 0
145 163 0
149 168 0
150 168 0
157 175 0
144 162 0
150 168 0
154 171 0
154 173 0
159 178 0
140 158 0
150 168 0
159 179 0
139 157 0
151 171 0
147 164 0
145 162 0
150 169 0
152 171 0
154 173 0
156 175 0
146 164 0
147 165 0
149 168 0
144 163 0
155 175 0
151 169 0
154 173 0
154 172 0
150 168 0
139 156 0
152 170 0
144 161 0
140 159 0
144 162 0
143 160 0
141 158 0
148 164 0
146 165 0
152 170 0
151 169 0
146 163 0
140 157 0
141 156 0
151 169 0
149 168 0
151 170 0
147 165 0
151 168 0
151 169 0
150 167 0
158 177 0
151 169 0
160 178 0
149 166 0
149 167 0
145 160 0
152 171 0
155 173 0
156 175 0
151 167 0
149 166 0
153 170 0
151 167 0
156 173 0
151 169 0
154 170 0
146 164 0
142 158 0
156 174 0
150 168 0
151 168 0
153 170 0
155 173 0
155 171 0
147 164 0
154 172 0
153 169 0
156 173 0
154 173 0
156 174 0
146 164 0
153 170 0
148 166 0
151 167 0
148 165 0
149 163 0
146 161 0
155 172 0
151 168 0
153 168 0
156 172 0
155 170 0
149 165 0
146 162 0
156 172 0
154 170 0
146 162 0
149 164 0
143 157 0
143 158 0
158 174 0
152 170 0
155 170 0
145 159 0
154 169 0
149 164 0
148 161 0
149 164 0
148 164 0
156 171 0
152 166 0
160 176 0
153 169 0
152 166 0
155 169 0
145 158 0
152 167 0
153 169 0
152 167 0
152 165 0
150 165 0
149 161 0
148 161 0
142 154 0
151 165 0
145 157 0
152 165 0
147 161 0
146 157 0
157 170 0
147 158 0
153 166 0
153 167 0
144 155 0
153 165 0
144 154 0
152 163 0
153 164 0
152 163 0
143 155 0
141 152 0
150 162 0
147 156 0
145 153 0
150 161 0
156 166 0
140 149 0
150 161 0
144 155 0
149 159 0
144 153 0
151 162 0
151 159 0
145 154 0
148 157 0
144 154 0
157 166 0
152 159 0
153 163 0
149 157 0
151 162 0
147 156 0
153 164 0
147 155 0
143 152 0
140 148 0
139 145 0
152 161 0
144 156 0
145 153 0
145 154 0
151 158 0
152 160 0
152 159 0
149 159 0
138 146 0
150 158 0
136 144 0
150 160 0
153 162 0
145 152 0
156 166 0
154 163 0
150 160 0
151 160 0
151 162 0
153 160 0
154 163 0
151 159 0
148 157 0
154 163 0
146 155 0
154 161 0
154 162 0
149 157 0
150 159 0
152 161 0
152 163 0
156 163 0
159 168 0
147 154 0
148 156 0
163 171 0
161 172 0
149 156 0
155 164 0
149 157 0
151 161 0
172 192 0
175 193 0
173 192 0
176 195 0
172 191 0
170 190 0
171 190 0
175 194 0
173 192 0
172 192 0
168 188 0
172 192 0
173 193 0
170 189 0
170 188 0
171 190 0
166 187 0
174 193 0
168 187 0
171 190 0
168 187 0
174 192 0
171 191 0
173 193 0
176 195 0
171 189 0
169 188 0
174 193 0
173 192 0
173 192 0
172 192 0
174 193 0
172 192 0
172 192 0
178 198 0
172 192 0
168 187 0
169 188 0
169 188 0
170 189 0
173 192 0
172 192 0
168 187 0
174 193 0
172 192 0
169 189 0
170 191 0
164 184 0
176 196 0
168 187 0
168 188 0
168 187 0
162 180 0
169 188 0
170 189 0
170 190 0
167 187 0
170 190 0
174 193 0
172 191 0
169 189 0
167 187 0
167 186 0
169 189 0
166 187 0
164 182 0
171 189 0
172 192 0
172 192 0
160 179 0
169 187 0
160 180 0
163 183 0
163 183 0
169 188 0
170 189 0
167 188 0
169 188 0
160 181 0
165 185 0
167 186 0
166 186 0
165 184 0
162 183 0
168 187 0
168 187 0
171 191 0
165 185 0
166 186 0
155 174 0
166 186 0
162 182 0
162 181 0
165 183 0
158 178 0
162 181 0
159 178 0
160 180 0
164 183 0
168 187 0
159 180 0
164 184 0
163 183 0
166 187 0
160 180 0
164 183 0
160 180 0
162 181 0
160 180 0
159 180 0
159 179 0
163 181 0
163 183 0
162 181 0
151 172 0
157 177 0
166 186 0
156 175 0
162 182 0
155 174 0
163 184 0
150 170 0
159 180 0
161 182 0
162 182 0
162 181 0
165 185 0
161 182 0
160 179 0
166 186 0
158 178 0
166 187 0
155 175 0
160 180 0
158 178 0
159 177 0
157 176 0
157 176 0
148 167 0
161 180 0
150 169 0
156 175 0
159 179 0
157 176 0
158 178 0
153 173 0
161 180 0
165 185 0
162 182 0
161 181 0
162 180 0
158 177 0
151 170 0
159 180 0
152 171 0
157 175 0
156 175 0
152 173 0
158 177 0
153 172 0
153 173 0
161 179 0
164 184 0
155 174 0
154 173 0
152 171 0
148 167 0
154 173 0
155 175 0
152 171 0
158 177 0
156 175 0
150 167 0
159 178 0
153 172 0
155 174 0
157 176 0
157 177 0
163 182 0
147 167 0
149 168 0
153 172 0
151 170 0
153 172 0
156 176 0
158 177 0
150 169 0
150 169 0
156 176 0
156 173 0
154 171 0
150 170 0
158 176 0
145 162 0
160 179 0
148 168 0
157 175 0
138 157 0
145 164 0
150 168 0
150 169 0
151 170 0
144 161 0
154 172 0
153 171 0
146 165 0
147 166 0
144 162 0
150 169 0
147 165 0
153 172 0
144 163 0
153 170 0
141 158 0
143 160 0
156 174 0
157 174 0
140 157 0
146 165 0
152 169 0
145 164 0
153 173 0
149 167 0
147 165 0
155 174 0
147 164 0
141 158 0
150 169 0
151 168 0
144 163 0
150 166 0
146 164 0
149 166 0
154 171 0
154 170 0
155 173 0
156 172 0
149 168 0
154 173 0
148 164 0
155 174 0
154 170 0
152 170 0
152 169 0
152 169 0
149 167 0
152 170 0
156 174 0
154 172 0
151 169 0
159 177 0
163 180 0
153 172 0
154 172 0
151 169 0
158 173 0
153 169 0
149 167 0
156 174 0
150 167 0
157 176 0
152 170 0
139 156 0
150 166 0
155 173 0
145 161 0
153 170 0
149 167 0
152 168 0
149 165 0
141 156 0
155 173 0
151 167 0
150 165 0
145 163 0
152 167 0
155 172 0
152 167 0
153 170 0
149 163 0
152 170 0
146 163 0
151 168 0
152 167 0
151 166 0
148 165 0
147 160 0
148 165 0
153 166 0
158 173 0
155 169 0
157 173 0
146 163 0
146 162 0
152 169 0
149 164 0
154 170 0
150 166 0
150 166 0
145 157 0
155 172 0
152 165 0
154 168 0
144 158 0
157 172 0
150 163 0
148 163 0
155 170 0
158 174 0
148 161 0
152 165 0
155 170 0
154 169 0
143 157 0
156 167 0
141 151 0
149 161 0
151 163 0
159 173 0
142 157 0
148 160 0
155 167 0
153 164 0
154 166 0
147 160 0
148 161 0
136 145 0
157 170 0
144 155 0
157 168 0
141 154 0
156 169 0
149 162 0
142 154 0
158 171 0
155 166 0
157 166 0
148 160 0
149 161 0
150 163 0
140 149 0
150 163 0
152 163 0
142 152 0
147 159 0
152 163 0
143 152 0
153 163 0
147 156 0
147 158 0
151 164 0
148 157 0
150 159 0
152 161 0
153 163 0
148 157 0
147 154 0
158 168 0
154 165 0
146 157 0
148 157 0
153 163 0
148 156 0
155 166 0
145 152 0
152 161 0
151 159 0
147 153 0
155 161 0
154 166 0
142 150 0
144 150 0
158 169 0
150 158 0
152 161 0
154 163 0
155 163 0
159 168 0
151 157 0
154 163 0
158 169 0
162 175 0
147 154 0
158 169 0
150 158 0
161 170 0
153 161 0
148 157 0
152 159 0
152 162 0
155 163 0
158 170 0
154 161 0
150 161 0
154 164 0
158 169 0
156 165 0
148 159 0
152 163 0
157 167 0
172 192 0
173 192 0
171 191 0
175 193 0
169 189 0
173 192 0
174 194 0
173 193 0
169 187 0
171 190 0
171 191 0
172 193 0
171 191 0
173 193 0
171 190 0
172 192 0
175 194 0
171 190 0
174 194 0
173 192 0
168 188 0
173 192 0
170 190 0
169 189 0
169 188 0
176 195 0
172 192 0
169 189 0
172 193 0
174 192 0
171 190 0
174 193 0
169 188 0
168 187 0
170 190 0
170 190 0
165 185 0
167 187 0
168 189 0
170 190 0
168 187 0
160 180 0
167 187 0
175 194 0
172 192 0
170 189 0
169 188 0
174 193 0
170 190 0
166 185 0
170 189 0
163 183 0
171 190 0
161 180 0
168 187 0
172 191 0
159 178 0
161 179 0
168 188 0
168 187 0
167 188 0
162 180 0
168 188 0
164 183 0
160 179 0
167 186 0
162 182 0
172 192 0
167 187 0
164 184 0
157 177 0
166 186 0
169 189 0
163 182 0
165 184 0
155 174 0
168 188 0
168 187 0
161 181 0
166 185 0
161 180 0
159 179 0
165 184 0
168 187 0
162 182 0
166 186 0
167 187 0
163 183 0
157 177 0
167 186 0
161 180 0
166 186 0
164 183 0
161 180 0
157 178 0
166 185 0
164 183 0
165 185 0
164 183 0
163 184 0
165 185 0
163 183 0
169 188 0
159 178 0
162 182 0
160 179 0
164 183 0
155 176 0
160 180 0
162 182 0
165 186 0
160 180 0
158 179 0
156 176 0
155 175 0
157 177 0
160 180 0
166 186 0
154 174 0
159 180 0
160 179 0
162 183 0
157 176 0
156 175 0
159 179 0
162 181 0
164 185 0
162 183 0
152 172 0
163 181 0
156 175 0
157 177 0
166 186 0
162 182 0
160 180 0
149 168 0
161 180 0
161 181 0
162 182 0
164 183 0
157 177 0
152 171 0
162 182 0
159 178 0
162 181 0
157 176 0
152 171 0
161 180 0
158 177 0
149 169 0
157 177 0
158 177 0
154 174 0
155 174 0
144 165 0
155 173 0
158 178 0
156 175 0
154 173 0
160 179 0
152 171 0
152 172 0
155 174 0
155 174 0
149 167 0
152 172 0
155 174 0
151 171 0
157 178 0
152 172 0
155 173 0
150 169 0
150 169 0
156 176 0
155 174 0
146 165 0
154 174 0
157 176 0
152 170 0
152 171 0
155 175 0
155 174 0
157 176 0
152 171 0
157 176 0
155 173 0
155 174 0
153 172 0
157 176 0
154 172 0
146 164 0
155 173 0
153 173 0
148 166 0
155 174 0
154 172 0
148 168 0
146 163 0
153 173 0
147 166 0
146 163 0
148 165 0
150 168 0
145 165 0
153 172 0
151 171 0
149 169 0
148 167 0
144 162 0
151 169 0
149 167 0
146 163 0
148 166 0
151 168 0
153 171 0
145 164 0
144 164 0
150 169 0
152 169 0
148 166 0
147 165 0
152 172 0
142 161 0
150 168 0
148 165 0
150 169 0
142 161 0
156 174 0
150 169 0
145 163 0
147 166 0
161 179 0
154 172 0
154 173 0
146 164 0
152 171 0
151 171 0
151 169 0
145 164 0
150 167 0
153 171 0
154 173 0
152 170 0
151 169 0
158 176 0
151 169 0
143 161 0
152 168 0
151 170 0
145 163 0
153 169 0
156 173 0
150 168 0
153 171 0
157 173 0
147 164 0
159 177 0
149 166 0
149 166 0
151 169 0
155 172 0
154 171 0
149 166 0
149 167 0
146 162 0
148 165 0
150 164 0
152 169 0
148 165 0
153 170 0
158 176 0
158 175 0
149 166 0
155 171 0
137 152 0
150 166 0
150 167 0
151 167 0
152 170 0
145 162 0
148 163 0
153 169 0
148 163 0
152 168 0
161 176 0
146 162 0
153 171 0
148 165 0
149 164 0
145 161 0
155 172 0
157 173 0
146 161 0
151 165 0
146 163 0
150 165 0
153 169 0
154 168 0
153 168 0
154 171 0
153 169 0
147 161 0
144 161 0
153 168 0
148 162 0
148 161 0
149 164 0
145 158 0
152 166 0
151 165 0
156 170 0
150 165 0
150 165 0
148 160 0
148 164 0
162 177 0
147 159 0
151 166 0
140 153 0
151 164 0
143 155 0
145 158 0
144 156 0
145 156 0
156 170 0
147 161 0
147 160 0
144 156 0
146 157 0
158 169 0
152 163 0
153 165 0
149 163 0
150 161 0
145 154 0
151 164 0
149 160 0
147 156 0
150 160 0
151 160 0
146 156 0
153 164 0
155 166 0
151 161 0
147 159 0
143 154 0
151 160 0
148 158 0
155 166 0
154 163 0
154 163 0
151 164 0
157 166 0
153 164 0
156 168 0
146 155 0
147 155 0
149 160 0
153 162 0
154 164 0
150 161 0
147 156 0
147 157 0
156 165 0
154 165 0
140 150 0
153 163 0
152 163 0
148 154 0
149 157 0
149 158 0
159 169 0
148 157 0
156 164 0
152 163 0
151 159 0
151 160 0
144 151 0
149 157 0
153 162 0
149 159 0
157 169 0
151 157 0
152 162 0
147 156 0
147 156 0
147 155 0
155 165 0
165 177 0
158 167 0
154 163 0
156 164 0
160 172 0
157 166 0
147 156 0
157 169 0
156 168 0
157 166 0
150 158 0
154 164 0
170 189 0
176 195 0
169 188 0
174 194 0
178 198 0
167 186 0
175 195 0
170 190 0
167 187 0
176 195 0
165 184 0
172 192 0
172 191 0
172 192 0
176 195 0
169 189 0
171 190 0
172 192 0
166 185 0
170 190 0
171 191 0
173 193 0
177 196 0
170 190 0
172 193 0
173 192 0
170 189 0
175 195 0
172 192 0
173 194 0
174 193 0
166 186 0
165 185 0
171 190 0
170 189 0
172 191 0
167 187 0
173 192 0
170 190 0
171 191 0
169 189 0
173 193 0
168 188 0
172 191 0
166 186 0
167 187 0
164 183 0
168 187 0
168 187 0
160 179 0
170 189 0
167 187 0
169 189 0
167 186 0
173 194 0
167 186 0
167 186 0
166 185 0
172 192 0
169 189 0
167 187 0
166 185 0
167 187 0
170 190 0
170 191 0
162 182 0
164 185 0
168 186 0
165 184 0
172 192 0
169 189 0
170 189 0
166 186 0
164 185 0
168 188 0
161 180 0
166 185 0
169 189 0
165 185 0
164 184 0
163 184 0
164 184 0
160 179 0
165 185 0
165 185 0
165 184 0
165 183 0
168 188 0
174 194 0
165 185 0
166 187 0
163 182 0
166 187 0
166 186 0
164 184 0
166 187 0
162 181 0
164 184 0
158 178 0
165 185 0
166 185 0
162 183 0
167 187 0
166 187 0
164 184 0
159 178 0
160 180 0
162 182 0
163 182 0
163 183 0
161 181 0
162 181 0
153 173 0
162 183 0
162 182 0
158 178 0
167 188 0
161 180 0
162 182 0
163 183 0
158 177 0
161 181 0
154 173 0
167 186 0
163 183 0
156 175 0
156 177 0
159 178 0
163 183 0
166 186 0
159 178 0
159 178 0
163 182 0
155 173 0
166 187 0
158 178 0
164 184 0
162 181 0
159 178 0
160 181 0
158 176 0
162 182 0
158 178 0
157 176 0
161 181 0
154 174 0
164 184 0
164 184 0
161 181 0
153 172 0
155 176 0
151 170 0
152 172 0
161 181 0
160 179 0
155 175 0
158 177 0
153 173 0
157 177 0
154 173 0
158 177 0
153 173 0
151 169 0
148 168 0
162 182 0
150 169 0
161 180 0
153 173 0
158 178 0
157 175 0
158 177 0
151 169 0
148 167 0
151 171 0
153 172 0
157 176 0
154 173 0
156 175 0
146 166 0
159 179 0
153 172 0
151 169 0
151 168 0
157 176 0
152 171 0
150 170 0
154 172 0
151 170 0
151 170 0
155 173 0
157 176 0
150 170 0
153 173 0
146 163 0
156 176 0
159 177 0
158 177 0
153 171 0
160 179 0
150 168 0
144 163 0
148 165 0
149 167 0
158 178 0
150 168 0
152 171 0
152 170 0
154 172 0
159 176 0
151 169 0
151 170 0
156 174 0
148 165 0
141 159 0
147 165 0
147 164 0
151 170 0
147 163 0
147 166 0
150 167 0
146 164 0
145 162 0
149 167 0
152 171 0
157 174 0
142 158 0
150 170 0
150 167 0
149 165 0
150 169 0
156 174 0
150 168 0
147 163 0
150 168 0
153 172 0
159 176 0
156 174 0
145 164 0
153 169 0
148 165 0
144 162 0
156 173 0
148 167 0
145 163 0
149 167 0
152 170 0
152 168 0
150 168 0
152 169 0
153 171 0
157 174 0
149 167 0
151 169 0
151 169 0
153 171 0
148 167 0
164 182 0
149 167 0
154 171 0
147 166 0
152 170 0
154 171 0
145 163 0
155 174 0
151 167 0
153 170 0
150 167 0
150 167 0
160 176 0
155 171 0
138 152 0
149 167 0
146 162 0
145 162 0
149 166 0
143 158 0
153 170 0
158 175 0
153 169 0
152 169 0
148 163 0
155 171 0
155 171 0
157 173 0
149 165 0
155 169 0
157 173 0
148 161 0
152 170 0
146 160 0
155 173 0
152 168 0
152 168 0
151 164 0
153 169 0
151 166 0
152 168 0
147 163 0
150 165 0
157 174 0
154 169 0
151 164 0
155 171 0
154 169 0
155 171 0
150 164 0
148 163 0
148 162 0
153 168 0
153 169 0
156 170 0
146 161 0
150 163 0
157 172 0
151 165 0
149 163 0
153 167 0
149 161 0
151 166 0
151 164 0
148 160 0
155 169 0
146 159 0
147 159 0
150 163 0
150 162 0
153 165 0
148 162 0
142 153 0
158 172 0
157 169 0
148 159 0
149 159 0
150 164 0
151 165 0
146 158 0
144 154 0
148 157 0
145 154 0
144 155 0
144 153 0
151 162 0
155 167 0
143 154 0
153 164 0
149 159 0
151 162 0
151 161 0
148 156 0
149 160 0
158 167 0
151 161 0
152 163 0
151 160 0
151 162 0
152 165 0
150 161 0
151 161 0
156 166 0
155 166 0
149 159 0
148 156 0
150 159 0
155 162 0
148 157 0
159 169 0
138 145 0
151 159 0
156 166 0
152 161 0
147 155 0
146 155 0
144 152 0
147 157 0
147 156 0
154 166 0
153 161 0
151 161 0
154 166 0
150 156 0
151 159 0
149 159 0
154 166 0
152 161 0
162 174 0
155 166 0
154 165 0
152 161 0
155 166 0
153 161 0
149 159 0
156 166 0
150 161 0
158 168 0
158 168 0
160 172 0
156 167 0
159 171 0
155 166 0
159 172 0
172 192 0
174 193 0
175 195 0
174 195 0
171 190 0
176 195 0
173 192 0
169 189 0
169 189 0
175 195 0
174 194 0
167 186 0
167 187 0
166 185 0
173 192 0
174 192 0
173 193 0
174 194 0
170 189 0
172 191 0
165 184 0
167 186 0
171 190 0
175 194 0
174 193 0
173 192 0
173 193 0
173 191 0
171 191 0
171 190 0
168 187 0
169 190 0
171 191 0
169 189 0
171 190 0
174 193 0
172 192 0
173 193 0
168 188 0
169 188 0
177 196 0
169 188 0
169 189 0
165 184 0
167 187 0
169 189 0
166 186 0
171 190 0
165 184 0
170 189 0
166 186 0
168 187 0
163 183 0
168 187 0
167 186 0
161 180 0
169 187 0
168 188 0
167 186 0
170 190 0
170 190 0
164 184 0
165 185 0
170 189 0
162 183 0
166 185 0
169 188 0
168 187 0
168 187 0
166 186 0
171 191 0
165 185 0
170 191 0
161 181 0
168 189 0
159 180 0
164 184 0
171 191 0
167 187 0
168 189 0
165 186 0
164 184 0
168 188 0
161 181 0
169 188 0
161 181 0
171 193 0
165 185 0
162 182 0
169 188 0
160 181 0
158 179 0
167 187 0
162 182 0
163 183 0
161 181 0
165 184 0
165 184 0
160 179 0
162 181 0
160 180 0
165 185 0
165 184 0
169 189 0
162 181 0
158 177 0
164 184 0
156 176 0
164 185 0
155 174 0
159 178 0
166 186 0
165 186 0
167 186 0
159 178 0
164 184 0
157 177 0
164 184 0
166 185 0
164 183 0
166 187 0
155 174 0
163 182 0
157 177 0
161 181 0
157 177 0
162 183 0
154 173 0
164 185 0
157 177 0
157 178 0
160 180 0
164 183 0
153 172 0
162 181 0
160 179 0
161 181 0
161 180 0
160 180 0
159 177 0
166 186 0
156 176 0
159 179 0
150 170 0
154 172 0
156 176 0
149 168 0
153 171 0
162 182 0
152 171 0
155 174 0
153 172 0
155 174 0
163 182 0
161 181 0
161 180 0
153 173 0
149 168 0
150 169 0
153 173 0
161 181 0
160 179 0
153 170 0
156 175 0
161 180 0
150 166 0
149 167 0
158 176 0
156 175 0
158 177 0
155 175 0
151 171 0
151 171 0
161 180 0
152 172 0
158 178 0
163 183 0
157 177 0
156 175 0
155 173 0
162 181 0
149 167 0
158 178 0
145 164 0
155 174 0
156 176 0
153 170 0
151 171 0
155 175 0
151 170 0
160 180 0
160 180 0
158 176 0
154 173 0
154 173 0
150 169 0
155 173 0
153 172 0
155 174 0
149 167 0
151 169 0
158 176 0
145 162 0
151 170 0
150 167 0
155 173 0
157 177 0
154 172 0
150 168 0
141 158 0
153 173 0
152 170 0
146 164 0
156 176 0
148 166 0
150 169 0
143 161 0
150 168 0
149 167 0
147 163 0
152 171 0
150 168 0
156 173 0
150 167 0
149 168 0
149 167 0
143 162 0
146 165 0
147 165 0
147 165 0
151 171 0
150 167 0
151 168 0
151 166 0
151 170 0
155 174 0
150 166 0
153 172 0
148 166 0
150 168 0
147 165 0
157 174 0
148 166 0
163 181 0
159 176 0
157 175 0
156 174 0
155 173 0
148 165 0
146 163 0
152 169 0
155 174 0
153 171 0
160 179 0
153 171 0
151 168 0
155 175 0
152 171 0
153 169 0
154 171 0
147 165 0
154 170 0
160 177 0
152 169 0
158 177 0
152 168 0
146 163 0
158 175 0
152 169 0
161 179 0
155 172 0
149 162 0
158 174 0
152 169 0
147 164 0
146 160 0
155 174 0
157 174 0
153 170 0
153 169 0
158 174 0
147 163 0
148 166 0
150 165 0
158 174 0
153 169 0
150 167 0
155 172 0
151 168 0
152 167 0
150 167 0
150 165 0
161 177 0
158 174 0
146 163 0
150 164 0
157 173 0
158 173 0
160 175 0
150 165 0
152 166 0
148 161 0
159 176 0
150 164 0
151 166 0
155 171 0
148 162 0
157 172 0
150 165 0
148 163 0
149 164 0
146 159 0
151 165 0
154 171 0
153 169 0
154 170 0
153 169 0
153 167 0
151 164 0
139 152 0
158 172 0
151 166 0
148 162 0
152 163 0
153 166 0
142 152 0
150 163 0
154 169 0
146 156 0
152 165 0
151 164 0
143 153 0
153 166 0
156 167 0
148 160 0
146 158 0
153 165 0
154 166 0
154 165 0
155 164 0
153 165 0
154 166 0
149 161 0
156 167 0
153 164 0
152 163 0
153 162 0
157 168 0
155 164 0
141 152 0
146 157 0
153 163 0
141 150 0
150 160 0
156 165 0
153 164 0
158 167 0
151 162 0
156 168 0
153 163 0
152 165 0
149 157 0
147 157 0
154 165 0
153 162 0
153 164 0
153 163 0
152 162 0
153 163 0
158 168 0
156 167 0
153 161 0
155 164 0
144 154 0
148 156 0
152 160 0
153 163 0
150 161 0
155 163 0
156 166 0
149 159 0
154 165 0
150 157 0
148 157 0
154 165 0
140 147 0
155 164 0
148 158 0
155 168 0
154 165 0
153 163 0
155 166 0
156 166 0
155 165 0
157 165 0
147 157 0
161 173 0
161 172 0
154 165 0
159 170 0
174 194 0
172 192 0
169 188 0
172 191 0
169 188 0
173 193 0
171 191 0
172 192 0
171 191 0
173 193 0
175 194 0
169 189 0
172 192 0
173 192 0
169 189 0
170 189 0
170 190 0
169 188 0
171 191 0
173 192 0
179 198 0
169 189 0
173 193 0
166 186 0
171 191 0
170 189 0
179 199 0
176 196 0
170 189 0
170 189 0
163 183 0
173 192 0
174 194 0
166 186 0
173 194 0
176 196 0
171 190 0
173 193 0
165 185 0
168 187 0
167 187 0
172 191 0
169 189 0
165 185 0
169 188 0
166 185 0
171 190 0
164 183 0
172 192 0
165 185 0
170 190 0
170 189 0
173 192 0
165 185 0
164 185 0
168 186 0
164 184 0
171 190 0
169 188 0
165 184 0
168 187 0
176 196 0
161 182 0
166 186 0
170 189 0
173 194 0
165 185 0
171 190 0
168 188 0
165 184 0
165 185 0
169 189 0
163 182 0
172 192 0
169 190 0
160 180 0
165 185 0
165 186 0
162 182 0
160 181 0
167 188 0
165 185 0
158 177 0
167 187 0
160 179 0
168 188 0
165 186 0
157 175 0
161 181 0
164 184 0
166 186 0
166 187 0
161 180 0
161 180 0
162 181 0
164 185 0
166 184 0
164 184 0
164 184 0
165 186 0
170 191 0
163 183 0
163 184 0
166 186 0
158 178 0
167 187 0
159 178 0
164 185 0
153 173 0
161 180 0
167 187 0
161 181 0
166 186 0
164 183 0
164 184 0
157 177 0
162 181 0
159 178 0
163 184 0
162 182 0
167 187 0
154 173 0
161 180 0
156 176 0
156 175 0
158 176 0
161 181 0
158 179 0
154 174 0
160 180 0
161 182 0
162 182 0
162 182 0
162 182 0
159 179 0
162 182 0
166 187 0
156 175 0
161 181 0
161 180 0
160 178 0
167 187 0
162 180 0
151 170 0
161 181 0
160 179 0
161 182 0
153 171 0
157 175 0
149 168 0
152 172 0
164 184 0
162 181 0
152 171 0
158 177 0
153 172 0
151 171 0
153 172 0
157 176 0
156 175 0
156 176 0
162 182 0
154 175 0
151 169 0
155 174 0
148 167 0
159 179 0
153 171 0
157 175 0
158 178 0
152 172 0
158 176 0
156 175 0
152 171 0
155 175 0
161 179 0
154 172 0
143 161 0
152 171 0
159 178 0
155 174 0
158 177 0
151 170 0
149 168 0
159 178 0
143 162 0
161 180 0
156 176 0
156 175 0
146 166 0
144 163 0
152 170 0
144 163 0
146 165 0
151 168 0
152 171 0
149 169 0
151 169 0
148 165 0
152 171 0
151 171 0
153 171 0
149 165 0
152 170 0
152 170 0
147 166 0
159 178 0
153 173 0
154 172 0
150 169 0
150 168 0
148 167 0
144 161 0
151 168 0
144 163 0
152 170 0
149 166 0
148 165 0
152 170 0
144 161 0
151 170 0
147 166 0
150 170 0
160 178 0
148 164 0
148 165 0
161 180 0
149 167 0
136 153 0
149 167 0
153 171 0
159 178 0
155 175 0
154 173 0
143 161 0
157 176 0
151 170 0
151 169 0
150 166 0
152 171 0
154 172 0
155 173 0
151 169 0
149 167 0
149 166 0
152 169 0
151 170 0
147 165 0
150 166 0
155 171 0
151 170 0
160 179 0
157 176 0
149 167 0
136 154 0
158 175 0
147 164 0
152 169 0
148 166 0
152 169 0
160 178 0
143 162 0
151 167 0
147 165 0
152 170 0
151 169 0
157 176 0
149 166 0
151 168 0
155 173 0
153 169 0
159 179 0
152 169 0
157 173 0
145 164 0
152 168 0
149 164 0
158 174 0
160 176 0
157 172 0
152 170 0
158 175 0
154 170 0
150 165 0
149 165 0
149 165 0
148 163 0
148 164 0
155 172 0
151 167 0
155 172 0
156 171 0
159 174 0
157 173 0
158 175 0
153 170 0
140 153 0
156 174 0
149 164 0
154 170 0
160 176 0
157 172 0
143 158 0
153 170 0
155 170 0
153 168 0
160 175 0
154 168 0
160 176 0
151 166 0
154 168 0
152 166 0
153 166 0
147 162 0
149 163 0
148 163 0
153 169 0
150 165 0
151 166 0
157 172 0
157 170 0
150 166 0
148 161 0
152 166 0
152 166 0
157 170 0
156 171 0
147 159 0
155 169 0
155 166 0
158 170 0
147 158 0
142 156 0
153 166 0
153 165 0
147 159 0
152 164 0
157 168 0
147 159 0
147 157 0
150 161 0
157 167 0
146 155 0
156 167 0
156 169 0
159 171 0
154 165 0
149 161 0
143 152 0
143 153 0
151 163 0
148 158 0
153 162 0
162 175 0
142 151 0
153 162 0
147 159 0
150 161 0
158 169 0
147 157 0
148 158 0
154 165 0
155 168 0
152 165 0
153 164 0
156 167 0
148 157 0
152 162 0
150 163 0
153 164 0
158 168 0
154 165 0
146 156 0
153 163 0
158 167 0
151 159 0
153 163 0
155 163 0
149 157 0
155 165 0
149 157 0
150 160 0
153 163 0
157 168 0
150 161 0
162 172 0
154 165 0
151 162 0
157 168 0
157 168 0
154 162 0
150 160 0
159 170 0
154 165 0
157 165 0
160 169 0
162 174 0
155 168 0
149 158 0
156 164 0
175 195 0
169 188 0
171 191 0
168 188 0
177 196 0
170 190 0
169 188 0
175 195 0
172 192 0
172 191 0
170 189 0
173 192 0
168 187 0
172 192 0
174 192 0
170 188 0
172 191 0
162 179 0
173 193 0
176 196 0
168 188 0
174 194 0
172 193 0
171 190 0
166 185 0
170 189 0
165 184 0
166 184 0
168 187 0
173 191 0
169 188 0
170 190 0
166 185 0
167 186 0
173 192 0
177 197 0
170 189 0
172 191 0
170 190 0
171 191 0
172 192 0
172 191 0
169 188 0
168 187 0
166 186 0
170 189 0
168 188 0
175 194 0
173 193 0
166 186 0
170 191 0
172 191 0
170 190 0
169 188 0
171 190 0
168 188 0
164 183 0
164 184 0
162 181 0
162 182 0
163 183 0
167 187 0
171 191 0
166 185 0
168 188 0
167 187 0
171 192 0
168 187 0
165 184 0
170 191 0
170 189 0
170 190 0
164 184 0
161 182 0
164 185 0
164 183 0
161 181 0
156 177 0
165 185 0
166 185 0
156 175 0
168 188 0
164 184 0
161 180 0
165 184 0
162 181 0
170 190 0
169 189 0
168 188 0
162 181 0
158 179 0
168 189 0
165 186 0
161 181 0
165 186 0
155 175 0
164 184 0
158 178 0
167 187 0
173 194 0
162 182 0
157 176 0
161 180 0
168 188 0
166 187 0
165 186 0
159 179 0
158 177 0
165 185 0
163 184 0
157 176 0
160 180 0
156 174 0
168 187 0
158 177 0
164 184 0
165 184 0
163 184 0
161 180 0
161 181 0
160 181 0
157 176 0
160 179 0
166 186 0
152 172 0
158 178 0
162 182 0
167 187 0
163 183 0
163 183 0
168 188 0
164 184 0
155 175 0
161 181 0
163 183 0
163 183 0
158 179 0
156 175 0
159 178 0
158 178 0
165 184 0
156 176 0
152 172 0
161 182 0
154 173 0
156 175 0
152 172 0
155 175 0
161 180 0
154 174 0
156 175 0
155 175 0
153 172 0
157 176 0
154 174 0
155 175 0
160 180 0
158 177 0
163 183 0
160 180 0
162 181 0
163 182 0
157 176 0
157 177 0
153 172 0
149 169 0
149 167 0
156 173 0
161 180 0
154 172 0
161 180 0
158 176 0
157 176 0
157 176 0
157 175 0
152 172 0
153 172 0
147 166 0
152 170 0
153 173 0
153 173 0
159 178 0
157 176 0
159 178 0
152 172 0
152 172 0
151 170 0
153 173 0
157 177 0
152 170 0
151 171 0
156 174 0
155 173 0
157 176 0
154 175 0
152 170 0
155 174 0
154 174 0
155 174 0
153 172 0
146 164 0
162 180 0
158 178 0
144 163 0
153 172 0
158 177 0
155 174 0
164 183 0
150 169 0
152 170 0
154 173 0
157 176 0
153 173 0
152 170 0
149 168 0
156 176 0
150 169 0
152 170 0
146 164 0
155 173 0
149 167 0
150 168 0
155 172 0
149 168 0
159 178 0
154 173 0
156 175 0
151 168 0
148 165 0
154 172 0
147 165 0
157 174 0
158 175 0
150 169 0
147 164 0
151 168 0
151 169 0
151 169 0
152 170 0
145 164 0
153 171 0
157 176 0
137 153 0
152 169 0
154 173 0
144 159 0
147 164 0
149 167 0
148 164 0
153 169 0
153 169 0
152 169 0
148 166 0
153 172 0
156 175 0
164 181 0
157 175 0
154 171 0
152 170 0
157 174 0
151 169 0
151 169 0
162 180 0
153 172 0
153 171 0
148 164 0
151 169 0
153 172 0
154 171 0
149 165 0
148 166 0
162 179 0
157 173 0
155 173 0
143 158 0
158 177 0
152 168 0
153 171 0
156 176 0
156 174 0
157 173 0
150 166 0
152 168 0
143 160 0
152 168 0
156 172 0
145 161 0
152 166 0
153 171 0
157 175 0
157 173 0
157 174 0
159 176 0
148 166 0
147 163 0
155 170 0
148 164 0
154 170 0
148 163 0
145 159 0
152 168 0
152 169 0
149 163 0
153 169 0
150 168 0
148 163 0
162 178 0
148 161 0
156 172 0
153 168 0
159 175 0
152 165 0
155 170 0
152 166 0
158 172 0
148 162 0
151 165 0
145 160 0
152 167 0
154 169 0
161 174 0
153 166 0
157 173 0
151 166 0
152 164 0
152 166 0
152 167 0
154 168 0
151 162 0
135 148 0
149 161 0
144 158 0
152 165 0
150 164 0
148 160 0
158 172 0
153 167 0
155 168 0
153 165 0
157 170 0
155 167 0
151 161 0
156 170 0
153 165 0
146 156 0
143 155 0
150 163 0
157 169 0
152 164 0
149 159 0
154 166 0
153 164 0
153 165 0
155 166 0
150 159 0
151 164 0
147 156 0
157 170 0
151 164 0
155 166 0
151 161 0
148 159 0
147 155 0
153 164 0
152 164 0
148 158 0
146 157 0
151 163 0
155 166 0
158 169 0
150 161 0
158 169 0
156 167 0
150 157 0
152 162 0
150 161 0
153 164 0
155 166 0
147 157 0
155 167 0
151 161 0
150 160 0
150 160 0
154 163 0
151 160 0
144 154 0
154 165 0
155 163 0
163 175 0
152 163 0
156 166 0
150 160 0
152 159 0
152 160 0
144 152 0
154 163 0
157 168 0
148 158 0
157 167 0
158 168 0
174 193 0
171 190 0
175 193 0
173 192 0
173 192 0
173 191 0
177 197 0
169 188 0
171 190 0
169 188 0
174 194 0
169 188 0
175 194 0
171 190 0
171 191 0
169 189 0
169 188 0
175 195 0
168 188 0
168 187 0
170 189 0
175 194 0
173 192 0
172 192 0
165 184 0
173 194 0
177 197 0
176 196 0
173 192 0
170 189 0
167 187 0
169 189 0
168 188 0
168 187 0
168 188 0
168 187 0
170 190 0
169 188 0
169 190 0
171 191 0
166 186 0
166 185 0
169 190 0
166 187 0
164 185 0
168 188 0
166 185 0
167 187 0
169 189 0
169 189 0
171 191 0
168 187 0
166 186 0
168 187 0
168 188 0
166 184 0
166 186 0
164 183 0
165 185 0
168 188 0
170 190 0
169 189 0
166 187 0
166 187 0
162 183 0
166 184 0
167 186 0
165 185 0
164 184 0
164 184 0
165 185 0
169 190 0
169 188 0
165 184 0
164 184 0
167 187 0
170 190 0
163 183 0
162 182 0
160 181 0
160 179 0
162 182 0
163 185 0
167 187 0
157 176 0
166 186 0
168 187 0
160 180 0
162 181 0
164 184 0
163 183 0
161 181 0
161 180 0
162 180 0
163 182 0
170 189 0
164 183 0
161 181 0
160 180 0
155 174 0
156 177 0
159 178 0
164 182 0
168 188 0
159 178 0
163 182 0
167 187 0
163 182 0
164 184 0
160 181 0
165 185 0
163 183 0
154 173 0
164 184 0
164 184 0
160 181 0
168 187 0
162 182 0
164 183 0
155 174 0
162 184 0
160 180 0
168 189 0
157 178 0
160 180 0
168 188 0
160 179 0
159 178 0
162 182 0
157 176 0
161 181 0
163 183 0
163 182 0
157 177 0
162 181 0
166 187 0
167 187 0
162 181 0
164 184 0
161 180 0
158 178 0
161 180 0
155 173 0
152 171 0
160 180 0
158 177 0
158 178 0
152 173 0
148 167 0
163 183 0
152 171 0
150 169 0
160 179 0
160 180 0
161 183 0
160 179 0
160 180 0
162 180 0
163 184 0
152 171 0
160 179 0
161 179 0
163 184 0
154 174 0
157 177 0
155 175 0
155 174 0
161 180 0
157 177 0
160 178 0
156 176 0
154 174 0
151 170 0
160 179 0
159 177 0
161 180 0
151 170 0
153 172 0
148 167 0
152 170 0
159 179 0
151 170 0
145 164 0
150 170 0
158 177 0
152 172 0
149 169 0
155 175 0
161 180 0
157 176 0
158 176 0
158 177 0
155 176 0
145 165 0
154 173 0
149 168 0
155 174 0
154 173 0
158 177 0
148 166 0
155 173 0
142 161 0
159 177 0
148 167 0
154 173 0
153 172 0
151 170 0
150 169 0
150 169 0
151 170 0
153 171 0
152 172 0
160 179 0
153 172 0
154 173 0
154 172 0
155 173 0
153 170 0
149 167 0
147 163 0
144 163 0
152 171 0
149 168 0
149 168 0
146 164 0
154 171 0
136 153 0
157 175 0
158 176 0
155 173 0
149 167 0
162 180 0
151 170 0
153 171 0
154 172 0
154 171 0
161 180 0
153 169 0
163 183 0
157 174 0
152 170 0
151 171 0
147 164 0
149 168 0
146 164 0
157 175 0
159 177 0
158 177 0
150 169 0
155 175 0
149 167 0
155 171 0
155 173 0
151 168 0
149 166 0
154 172 0
151 170 0
150 167 0
151 168 0
155 175 0
152 171 0
150 166 0
155 172 0
153 171 0
161 179 0
151 170 0
156 172 0
150 167 0
150 168 0
158 174 0
151 169 0
151 169 0
156 175 0
151 168 0
152 170 0
150 168 0
156 175 0
154 169 0
146 163 0
150 167 0
150 165 0
157 173 0
151 168 0
159 175 0
156 174 0
154 171 0
153 170 0
155 170 0
152 170 0
160 176 0
158 174 0
156 173 0
158 175 0
153 169 0
149 166 0
155 170 0
154 170 0
152 169 0
148 165 0
158 176 0
147 163 0
155 171 0
156 170 0
157 173 0
157 172 0
158 174 0
162 178 0
147 161 0
155 170 0
150 165 0
148 163 0
154 168 0
154 167 0
155 173 0
153 168 0
153 167 0
155 170 0
159 177 0
150 163 0
153 168 0
149 164 0
148 162 0
154 167 0
144 157 0
146 161 0
152 167 0
147 160 0
155 169 0
151 164 0
150 163 0
148 160 0
152 165 0
147 161 0
158 171 0
156 169 0
155 169 0
156 168 0
149 162 0
158 172 0
144 157 0
149 160 0
150 163 0
154 167 0
149 161 0
158 169 0
154 163 0
147 158 0
151 164 0
146 156 0
150 161 0
152 165 0
162 174 0
158 170 0
154 165 0
153 164 0
150 160 0
155 166 0
151 162 0
149 156 0
157 169 0
153 165 0
161 172 0
159 170 0
155 164 0
149 161 0
153 164 0
153 163 0
163 175 0
154 164 0
150 159 0
158 167 0
152 164 0
154 164 0
151 162 0
153 165 0
151 162 0
155 165 0
155 165 0
152 162 0
152 161 0
150 161 0
158 169 0
156 168 0
155 165 0
149 157 0
157 170 0
160 171 0
155 165 0
149 161 0
157 169 0
159 170 0
153 163 0
159 169 0
147 154 0
156 166 0
153 164 0
150 159 0
153 164 0
149 160 0
160 170 0
175 194 0
174 193 0
176 195 0
170 189 0
168 187 0
174 194 0
175 195 0
169 187 0
178 197 0
170 190 0
171 190 0
168 188 0
169 188 0
172 191 0
172 191 0
173 192 0
176 195 0
172 191 0
175 194 0
171 191 0
173 193 0
168 187 0
168 188 0
172 189 0
173 192 0
170 190 0
176 196 0
171 191 0
175 194 0
162 182 0
170 190 0
170 189 0
174 193 0
170 189 0
171 191 0
164 184 0
167 187 0
172 193 0
168 188 0
163 182 0
171 191 0
170 190 0
166 186 0
161 180 0
166 185 0
175 194 0
173 192 0
162 180 0
162 180 0
168 187 0
168 188 0
162 181 0
168 189 0
166 185 0
166 186 0
170 190 0
170 189 0
168 187 0
166 185 0
171 191 0
169 189 0
168 189 0
165 185 0
167 187 0
162 181 0
167 185 0
168 188 0
171 191 0
169 189 0
167 188 0
165 185 0
159 178 0
164 185 0
161 181 0
160 180 0
168 187 0
166 186 0
166 186 0
167 186 0
167 186 0
163 184 0
170 190 0
162 181 0
163 184 0
165 186 0
161 182 0
172 193 0
164 184 0
161 181 0
163 183 0
163 182 0
165 185 0
163 183 0
162 184 0
169 189 0
166 187 0
152 172 0
156 176 0
161 183 0
164 184 0
169 189 0
163 184 0
160 180 0
168 188 0
168 187 0
160 180 0
162 181 0
168 188 0
161 181 0
158 179 0
164 183 0
160 180 0
155 175 0
164 183 0
164 185 0
162 182 0
164 184 0
160 180 0
160 181 0
157 177 0
162 182 0
162 182 0
166 186 0
155 176 0
161 180 0
160 180 0
162 182 0
166 186 0
158 177 0
169 190 0
158 178 0
162 182 0
154 174 0
158 177 0
155 174 0
161 181 0
158 177 0
150 171 0
166 185 0
154 173 0
155 175 0
153 173 0
158 177 0
151 170 0
165 185 0
162 180 0
154 173 0
158 179 0
152 171 0
156 176 0
156 176 0
160 179 0
162 182 0
161 181 0
154 175 0
162 182 0
162 181 0
149 168 0
155 174 0
161 181 0
155 173 0
152 172 0
161 180 0
162 182 0
152 172 0
161 178 0
160 180 0
157 176 0
154 172 0
155 174 0
163 183 0
154 174 0
154 174 0
157 176 0
153 171 0
163 183 0
154 172 0
155 173 0
151 172 0
156 173 0
151 170 0
153 171 0
153 173 0
157 176 0
158 177 0
158 178 0
157 177 0
151 169 0
150 169 0
154 174 0
157 175 0
153 172 0
159 180 0
156 176 0
155 174 0
156 175 0
162 181 0
153 171 0
156 175 0
157 175 0
157 176 0
152 171 0
154 173 0
152 169 0
153 170 0
155 174 0
152 171 0
153 172 0
155 174 0
159 178 0
152 170 0
159 177 0
165 184 0
157 174 0
151 169 0
158 176 0
150 169 0
158 178 0
148 166 0
151 170 0
145 164 0
157 175 0
157 176 0
157 175 0
151 168 0
144 161 0
150 169 0
156 176 0
154 174 0
155 172 0
156 175 0
156 175 0
148 167 0
143 161 0
153 171 0
154 172 0
150 169 0
147 162 0
150 168 0
146 163 0
151 168 0
145 163 0
153 170 0
153 171 0
155 173 0
151 169 0
161 180 0
150 168 0
149 167 0
158 176 0
156 173 0
152 169 0
150 169 0
154 172 0
153 170 0
145 165 0
147 166 0
148 165 0
150 168 0
151 168 0
150 166 0
154 172 0
157 174 0
151 169 0
155 172 0
153 171 0
145 162 0
147 166 0
152 168 0
148 165 0
155 174 0
152 169 0
158 177 0
154 171 0
154 171 0
147 165 0
141 158 0
154 172 0
155 172 0
149 166 0
154 171 0
150 166 0
153 171 0
155 173 0
159 176 0
151 166 0
154 170 0
149 166 0
144 160 0
154 170 0
155 172 0
155 172 0
156 171 0
156 174 0
158 175 0
160 178 0
151 167 0
155 172 0
158 174 0
155 172 0
145 160 0
160 176 0
158 174 0
153 170 0
162 179 0
155 170 0
162 180 0
154 169 0
156 172 0
160 177 0
151 167 0
157 173 0
154 170 0
152 165 0
147 162 0
149 163 0
159 174 0
161 175 0
150 165 0
149 165 0
148 163 0
154 171 0
158 172 0
157 171 0
157 172 0
154 169 0
155 169 0
156 172 0
156 170 0
158 172 0
153 168 0
150 163 0
151 162 0
146 158 0
152 165 0
155 168 0
143 154 0
155 166 0
157 169 0
152 163 0
147 160 0
157 169 0
147 160 0
144 154 0
156 170 0
161 174 0
154 165 0
154 168 0
157 169 0
152 167 0
154 165 0
146 159 0
151 160 0
149 162 0
156 167 0
158 170 0
156 168 0
155 167 0
140 148 0
155 164 0
143 153 0
152 164 0
156 166 0
145 156 0
145 153 0
154 164 0
145 155 0
157 167 0
157 168 0
165 176 0
157 166 0
161 171 0
154 164 0
155 167 0
146 157 0
153 165 0
152 163 0
150 159 0
156 169 0
153 164 0
157 169 0
153 164 0
151 161 0
155 165 0
153 163 0
157 168 0
144 155 0
157 168 0
152 161 0
156 165 0
148 158 0
156 168 0
157 166 0
151 161 0
155 166 0
149 158 0
152 163 0
150 160 0
155 166 0
156 167 0
177 196 0
174 194 0
170 189 0
172 191 0
174 192 0
178 197 0
175 195 0
171 190 0
173 192 0
175 194 0
173 192 0
172 192 0
173 193 0
175 194 0
172 191 0
173 193 0
173 192 0
173 193 0
165 184 0
166 185 0
172 191 0
174 193 0
175 195 0
171 190 0
168 187 0
172 191 0
172 192 0
171 191 0
169 188 0
170 190 0
170 190 0
171 191 0
171 191 0
170 190 0
171 191 0
165 185 0
169 188 0
166 186 0
165 185 0
171 190 0
163 183 0
170 190 0
167 188 0
164 184 0
167 187 0
166 186 0
171 190 0
169 189 0
168 188 0
165 185 0
169 188 0
166 185 0
163 182 0
170 190 0
171 191 0
166 187 0
162 182 0
169 189 0
163 182 0
171 192 0
165 185 0
168 188 0
168 188 0
169 189 0
167 186 0
164 185 0
173 193 0
168 188 0
162 182 0
158 178 0
163 183 0
172 192 0
163 182 0
167 186 0
166 185 0
159 178 0
164 184 0
159 178 0
167 186 0
165 186 0
161 181 0
163 183 0
170 190 0
168 188 0
168 187 0
163 181 0
167 186 0
168 188 0
168 188 0
167 187 0
163 183 0
166 185 0
168 188 0
164 184 0
167 186 0
162 181 0
170 189 0
159 177 0
167 187 0
161 183 0
169 189 0
157 176 0
166 186 0
158 177 0
164 184 0
162 183 0
161 182 0
161 180 0
158 177 0
166 186 0
163 184 0
165 183 0
160 180 0
161 181 0
155 175 0
164 183 0
162 183 0
162 183 0
156 175 0
163 183 0
168 188 0
159 180 0
156 176 0
167 187 0
165 185 0
165 185 0
158 178 0
160 182 0
159 179 0
154 174 0
161 180 0
160 179 0
162 182 0
159 179 0
162 182 0
160 180 0
163 182 0
159 179 0
152 170 0
164 183 0
156 175 0
160 179 0
150 170 0
164 183 0
162 182 0
155 173 0
149 168 0
154 173 0
165 184 0
148 167 0
155 175 0
167 187 0
160 179 0
154 174 0
160 181 0
160 180 0
163 181 0
157 176 0
165 185 0
161 180 0
158 177 0
159 178 0
167 186 0
157 177 0
154 173 0
154 174 0
159 177 0
157 177 0
152 172 0
158 177 0
152 171 0
160 180 0
160 180 0
155 175 0
158 176 0
156 175 0
161 181 0
155 173 0
159 179 0
155 174 0
154 173 0
153 173 0
147 166 0
157 177 0
158 177 0
147 167 0
156 174 0
155 174 0
156 175 0
152 171 0
157 177 0
154 173 0
157 177 0
155 173 0
148 165 0
156 175 0
147 165 0
145 163 0
152 171 0
151 170 0
149 169 0
152 172 0
158 176 0
152 171 0
145 163 0
154 173 0
155 174 0
161 180 0
153 171 0
157 177 0
155 174 0
157 177 0
145 165 0
149 168 0
156 175 0
158 174 0
152 170 0
148 168 0
151 170 0
157 178 0
143 160 0
153 171 0
151 170 0
150 168 0
146 162 0
161 181 0
154 172 0
146 165 0
149 166 0
150 167 0
154 170 0
158 177 0
149 168 0
150 168 0
153 172 0
145 162 0
151 171 0
150 168 0
154 172 0
153 171 0
141 159 0
155 174 0
151 168 0
147 164 0
147 166 0
155 172 0
153 171 0
155 172 0
155 170 0
162 180 0
152 172 0
151 168 0
153 170 0
149 166 0
151 167 0
158 176 0
158 177 0
153 169 0
155 171 0
153 172 0
151 168 0
155 173 0
150 166 0
155 172 0
157 176 0
151 169 0
155 173 0
161 178 0
144 160 0
149 165 0
155 174 0
152 170 0
148 165 0
160 176 0
161 178 0
155 172 0
151 168 0
156 175 0
155 172 0
150 166 0
161 178 0
154 172 0
151 167 0
150 167 0
162 180 0
158 176 0
148 163 0
157 174 0
163 180 0
155 172 0
150 167 0
153 171 0
155 170 0
150 168 0
155 173 0
157 174 0
149 165 0
160 177 0
150 166 0
157 172 0
150 166 0
158 173 0
149 164 0
152 169 0
152 169 0
148 164 0
159 175 0
156 172 0
154 171 0
158 173 0
161 177 0
156 172 0
151 166 0
150 166 0
155 171 0
156 173 0
148 162 0
152 166 0
152 167 0
160 173 0
150 164 0
152 169 0
152 168 0
148 164 0
154 169 0
147 161 0
154 167 0
154 168 0
161 177 0
153 168 0
145 157 0
150 164 0
145 158 0
157 171 0
149 163 0
151 165 0
155 168 0
150 162 0
154 167 0
145 156 0
148 160 0
158 169 0
154 168 0
151 164 0
158 170 0
156 169 0
155 165 0
155 168 0
156 168 0
148 159 0
158 170 0
157 170 0
151 161 0
157 170 0
151 161 0
153 165 0
151 163 0
150 161 0
147 159 0
154 168 0
158 169 0
158 171 0
143 152 0
155 168 0
155 167 0
150 161 0
156 168 0
163 175 0
156 169 0
149 158 0
151 162 0
158 168 0
158 171 0
147 159 0
156 167 0
153 162 0
161 172 0
149 162 0
143 154 0
154 161 0
150 162 0
154 164 0
159 169 0
157 167 0
157 168 0
149 159 0
151 162 0
154 166 0
147 155 0
150 159 0
154 163 0
157 167 0
152 162 0
155 167 0
156 165 0
158 169 0
159 170 0
156 166 0
153 163 0
153 163 0
175 194 0
164 184 0
176 196 0
169 188 0
171 190 0
173 192 0
172 192 0
171 190 0
167 186 0
171 190 0
175 194 0
172 191 0
170 189 0
173 193 0
173 193 0
169 190 0
170 189 0
172 191 0
164 184 0
172 192 0
171 191 0
170 190 0
172 192 0
171 190 0
166 184 0
167 187 0
169 188 0
173 193 0
166 185 0
170 190 0
169 188 0
169 189 0
170 189 0
167 187 0
168 188 0
166 186 0
168 188 0
170 190 0
175 194 0
170 189 0
172 192 0
172 192 0
172 192 0
165 185 0
169 188 0
171 191 0
172 193 0
172 191 0
171 190 0
168 189 0
172 191 0
160 181 0
164 186 0
164 184 0
165 186 0
170 190 0
165 185 0
165 185 0
165 184 0
169 189 0
167 186 0
165 184 0
172 191 0
168 189 0
164 185 0
161 181 0
162 182 0
170 191 0
172 192 0
169 190 0
168 188 0
167 188 0
168 187 0
167 187 0
168 188 0
163 183 0
164 183 0
163 182 0
164 183 0
164 183 0
160 180 0
166 186 0
163 183 0
163 182 0
159 179 0
165 185 0
159 179 0
164 184 0
164 183 0
161 181 0
164 185 0
160 180 0
161 182 0
169 190 0
162 181 0
163 184 0
164 184 0
159 179 0
158 178 0
165 186 0
169 189 0
161 182 0
162 181 0
162 182 0
159 178 0
166 187 0
165 184 0
158 178 0
166 186 0
164 183 0
156 176 0
161 182 0
164 184 0
159 181 0
159 180 0
163 183 0
164 184 0
168 189 0
156 175 0
162 181 0
162 182 0
164 185 0
164 184 0
157 178 0
159 178 0
164 184 0
163 182 0
161 181 0
156 176 0
160 180 0
164 183 0
162 183 0
163 183 0
169 190 0
162 183 0
165 185 0
155 174 0
163 183 0
164 183 0
161 182 0
156 176 0
156 175 0
156 174 0
158 177 0
154 174 0
160 180 0
160 180 0
152 171 0
152 171 0
163 184 0
161 182 0
159 179 0
162 182 0
160 181 0
150 167 0
158 178 0
161 182 0
159 177 0
150 170 0
155 174 0
157 175 0
157 176 0
156 173 0
149 169 0
162 182 0
149 168 0
159 179 0
146 164 0
157 176 0
154 173 0
155 174 0
156 175 0
151 170 0
158 176 0
149 167 0
158 177 0
148 168 0
155 174 0
148 167 0
155 172 0
147 164 0
162 180 0
165 185 0
159 177 0
157 176 0
161 181 0
161 180 0
158 176 0
156 175 0
150 170 0
155 174 0
157 177 0
153 171 0
153 172 0
155 175 0
157 176 0
152 171 0
158 176 0
153 173 0
152 171 0
157 176 0
153 172 0
155 174 0
157 175 0
156 173 0
150 171 0
153 173 0
147 165 0
155 171 0
157 177 0
160 178 0
162 181 0
155 174 0
153 172 0
156 175 0
150 169 0
155 174 0
151 170 0
148 167 0
158 177 0
159 177 0
151 167 0
160 179 0
152 169 0
149 167 0
153 172 0
158 176 0
158 176 0
155 174 0
156 175 0
154 171 0
148 167 0
153 170 0
157 175 0
159 179 0
150 169 0
160 179 0
157 175 0
152 169 0
150 167 0
149 166 0
149 168 0
147 165 0
140 158 0
157 177 0
153 172 0
153 171 0
147 166 0
152 170 0
146 164 0
154 173 0
153 171 0
155 173 0
156 175 0
154 172 0
158 177 0
148 166 0
159 177 0
155 173 0
158 177 0
149 165 0
152 169 0
154 170 0
155 174 0
157 174 0
153 170 0
146 163 0
157 174 0
157 174 0
157 175 0
154 172 0
158 176 0
149 166 0
153 169 0
152 170 0
156 174 0
163 181 0
157 173 0
152 170 0
156 174 0
158 174 0
145 162 0
153 169 0
144 162 0
152 167 0
155 172 0
151 169 0
149 166 0
156 172 0
159 175 0
164 181 0
157 174 0
153 171 0
152 167 0
161 177 0
153 169 0
144 160 0
157 172 0
155 170 0
152 170 0
155 170 0
156 172 0
159 176 0
153 169 0
157 174 0
157 173 0
155 171 0
161 177 0
155 170 0
155 172 0
153 168 0
155 168 0
157 171 0
159 175 0
156 172 0
156 172 0
154 167 0
149 162 0
153 168 0
158 173 0
152 167 0
156 171 0
148 162 0
147 163 0
159 174 0
152 166 0
157 171 0
151 166 0
155 169 0
152 168 0
154 168 0
157 172 0
159 173 0
148 161 0
157 171 0
161 175 0
158 172 0
147 160 0
154 171 0
143 154 0
157 170 0
149 161 0
147 160 0
148 161 0
144 156 0
159 173 0
156 169 0
156 168 0
158 171 0
147 158 0
156 168 0
150 160 0
154 166 0
150 163 0
158 172 0
158 170 0
160 172 0
152 165 0
159 173 0
159 173 0
152 163 0
146 157 0
156 167 0
154 167 0
152 163 0
157 170 0
152 164 0
161 172 0
153 163 0
152 165 0
160 172 0
158 169 0
157 167 0
151 162 0
152 164 0
158 170 0
163 172 0
153 163 0
148 158 0
153 164 0
154 166 0
153 164 0
148 156 0
155 166 0
152 162 0
159 168 0
157 168 0
157 168 0
154 167 0
153 165 0
151 161 0
146 157 0
155 167 0
159 169 0
152 163 0
151 162 0
162 174 0
164 176 0
162 172 0
160 175 0
176 195 0
173 192 0
175 195 0
172 191 0
174 195 0
171 191 0
174 193 0
174 194 0
171 189 0
175 194 0
168 187 0
168 187 0
172 192 0
170 189 0
173 195 0
171 190 0
170 189 0
172 191 0
175 195 0
171 191 0
172 191 0
170 189 0
173 194 0
170 188 0
159 178 0
171 190 0
171 190 0
171 191 0
174 194 0
170 189 0
169 187 0
168 187 0
169 188 0
174 193 0
172 191 0
173 192 0
171 190 0
169 189 0
164 184 0
168 187 0
163 182 0
168 187 0
168 188 0
172 193 0
170 190 0
162 180 0
165 184 0
170 190 0
167 186 0
171 190 0
167 187 0
165 184 0
169 189 0
164 184 0
166 187 0
170 189 0
163 182 0
166 186 0
165 184 0
164 184 0
169 189 0
165 184 0
163 183 0
162 182 0
167 186 0
172 192 0
172 192 0
162 182 0
165 184 0
170 191 0
165 185 0
162 182 0
164 184 0
163 183 0
158 178 0
167 186 0
165 185 0
160 180 0
162 183 0
163 182 0
162 181 0
165 185 0
167 185 0
163 182 0
169 188 0
165 186 0
161 181 0
162 181 0
167 187 0
163 183 0
162 181 0
164 184 0
165 185 0
163 183 0
158 179 0
161 182 0
163 183 0
160 180 0
164 184 0
163 181 0
163 183 0
164 183 0
160 180 0
163 182 0
166 186 0
165 185 0
159 179 0
167 185 0
157 177 0
160 180 0
156 176 0
163 183 0
163 183 0
158 179 0
165 185 0
156 177 0
159 179 0
164 183 0
166 186 0
163 184 0
167 187 0
158 177 0
167 187 0
163 181 0
163 183 0
156 175 0
159 178 0
164 184 0
162 182 0
165 186 0
156 175 0
155 173 0
161 180 0
156 175 0
152 172 0
164 184 0
160 182 0
161 181 0
158 177 0
165 186 0
156 175 0
153 173 0
166 186 0
154 172 0
159 178 0
162 182 0
154 173 0
161 181 0
163 183 0
154 174 0
164 184 0
161 181 0
158 178 0
159 178 0
161 181 0
161 180 0
159 178 0
156 174 0
152 172 0
157 177 0
156 175 0
155 174 0
165 185 0
164 185 0
163 183 0
157 177 0
154 174 0
159 179 0
147 166 0
154 174 0
155 174 0
149 167 0
153 171 0
164 183 0
155 174 0
160 180 0
164 183 0
148 167 0
158 176 0
161 181 0
161 180 0
161 180 0
157 177 0
152 172 0
156 175 0
159 178 0
153 172 0
156 177 0
144 164 0
152 171 0
158 177 0
162 181 0
149 168 0
153 172 0
151 170 0
156 175 0
151 171 0
153 172 0
154 174 0
157 176 0
152 170 0
157 177 0
160 179 0
156 176 0
158 177 0
153 171 0
156 175 0
152 170 0
153 172 0
158 176 0
151 169 0
152 172 0
150 169 0
154 174 0
162 179 0
155 173 0
152 170 0
155 173 0
151 171 0
149 168 0
152 171 0
153 171 0
150 169 0
157 175 0
155 172 0
153 173 0
151 169 0
150 169 0
155 174 0
155 174 0
158 177 0
157 175 0
159 177 0
148 167 0
148 166 0
159 179 0
140 159 0
156 174 0
156 173 0
150 168 0
152 170 0
149 167 0
157 176 0
152 170 0
151 169 0
153 172 0
152 169 0
158 175 0
156 173 0
154 170 0
154 172 0
154 172 0
152 169 0
150 166 0
153 170 0
159 178 0
156 174 0
160 179 0
155 172 0
159 177 0
153 172 0
164 182 0
160 179 0
147 164 0
151 169 0
157 175 0
151 170 0
156 173 0
153 171 0
155 173 0
155 172 0
153 170 0
150 166 0
146 162 0
154 170 0
152 170 0
151 167 0
159 177 0
150 167 0
153 170 0
161 178 0
147 165 0
151 168 0
150 167 0
154 171 0
157 175 0
150 165 0
161 178 0
158 176 0
153 167 0
154 170 0
153 170 0
165 181 0
160 175 0
150 166 0
157 175 0
148 165 0
161 179 0
153 171 0
152 169 0
148 164 0
155 171 0
155 169 0
156 174 0
163 180 0
152 166 0
156 173 0
157 174 0
156 174 0
151 166 0
157 174 0
156 173 0
150 163 0
157 171 0
153 167 0
148 162 0
155 171 0
157 173 0
157 173 0
157 173 0
149 163 0
156 171 0
158 174 0
154 170 0
153 170 0
155 172 0
154 168 0
152 167 0
154 168 0
151 166 0
153 169 0
158 174 0
151 164 0
147 161 0
153 167 0
154 169 0
154 168 0
154 167 0
153 167 0
155 170 0
149 162 0
148 164 0
157 169 0
143 156 0
154 166 0
160 171 0
150 162 0
158 169 0
156 169 0
164 177 0
149 164 0
154 168 0
153 165 0
160 174 0
155 168 0
150 161 0
156 168 0
160 174 0
154 165 0
161 174 0
153 164 0
146 156 0
153 165 0
156 168 0
148 160 0
151 163 0
152 162 0
146 154 0
158 171 0
151 161 0
150 160 0
143 153 0
156 167 0
152 164 0
155 166 0
149 161 0
152 165 0
155 167 0
149 161 0
153 165 0
157 168 0
150 159 0
153 163 0
152 163 0
155 168 0
147 157 0
150 162 0
158 168 0
152 162 0
153 163 0
156 167 0
158 171 0
161 174 0
156 166 0
162 176 0
158 170 0
154 167 0
163 175 0
155 168 0
155 164 0
176 194 0
172 192 0
173 193 0
170 190 0
171 190 0
177 197 0
173 193 0
171 190 0
176 195 0
171 190 0
164 183 0
174 192 0
169 188 0
171 192 0
171 191 0
174 194 0
172 192 0
174 194 0
170 190 0
166 186 0
168 188 0
169 189 0
167 185 0
172 190 0
173 193 0
174 194 0
173 194 0
166 187 0
167 187 0
168 188 0
168 188 0
169 190 0
170 190 0
167 187 0
174 194 0
176 195 0
168 189 0
170 190 0
166 186 0
175 195 0
169 189 0
166 185 0
165 185 0
172 192 0
177 196 0
168 186 0
173 192 0
163 182 0
167 186 0
167 188 0
168 188 0
165 185 0
170 190 0
169 189 0
170 190 0
165 185 0
162 181 0
168 187 0
166 186 0
169 189 0
167 187 0
165 185 0
162 182 0
165 186 0
169 189 0
164 183 0
159 179 0
170 189 0
171 190 0
164 183 0
163 183 0
165 186 0
166 187 0
158 177 0
162 182 0
164 184 0
164 185 0
161 181 0
167 186 0
167 186 0
163 182 0
163 184 0
163 183 0
160 180 0
166 185 0
154 174 0
164 184 0
156 177 0
164 184 0
167 187 0
165 184 0
161 181 0
168 189 0
170 190 0
164 184 0
162 181 0
158 178 0
168 188 0
164 183 0
164 185 0
167 187 0
158 177 0
159 180 0
159 179 0
162 183 0
162 183 0
167 186 0
155 174 0
165 185 0
159 179 0
159 178 0
165 185 0
159 179 0
164 185 0
163 183 0
158 178 0
162 182 0
156 176 0
159 179 0
164 184 0
160 181 0
162 183 0
157 176 0
162 182 0
158 176 0
162 182 0
160 180 0
166 185 0
159 179 0
153 174 0
157 177 0
157 177 0
160 180 0
161 180 0
157 177 0
160 180 0
159 179 0
154 173 0
162 181 0
166 187 0
162 182 0
157 176 0
164 184 0
159 179 0
158 178 0
164 185 0
164 184 0
160 178 0
162 183 0
164 184 0
160 180 0
158 178 0
168 188 0
156 176 0
156 175 0
158 177 0
161 180 0
146 165 0
152 169 0
157 175 0
150 169 0
155 175 0
163 182 0
156 176 0
153 173 0
158 176 0
157 176 0
164 184 0
151 170 0
149 168 0
158 178 0
159 179 0
155 175 0
155 174 0
157 176 0
154 174 0
157 176 0
162 181 0
161 181 0
157 175 0
164 184 0
156 175 0
152 171 0
160 179 0
150 169 0
162 183 0
150 168 0
163 183 0
152 171 0
152 172 0
151 169 0
160 180 0
155 173 0
153 173 0
160 180 0
158 177 0
159 178 0
148 166 0
155 175 0
150 169 0
160 179 0
158 177 0
161 180 0
151 170 0
160 179 0
155 176 0
147 164 0
155 173 0
155 175 0
145 163 0
150 167 0
149 167 0
158 177 0
154 173 0
156 176 0
165 183 0
167 186 0
152 170 0
155 175 0
157 176 0
160 179 0
155 174 0
158 178 0
155 173 0
154 172 0
148 165 0
155 174 0
155 173 0
152 170 0
150 168 0
151 170 0
154 173 0
142 160 0
151 169 0
157 175 0
153 172 0
154 173 0
158 176 0
152 170 0
154 171 0
154 173 0
153 172 0
153 171 0
157 176 0
153 172 0
153 172 0
154 172 0
157 175 0
156 176 0
150 167 0
150 168 0
157 175 0
152 171 0
154 171 0
156 174 0
156 175 0
154 172 0
148 167 0
155 173 0
148 166 0
154 172 0
157 176 0
157 174 0
154 172 0
160 178 0
151 169 0
156 174 0
160 178 0
156 174 0
157 176 0
148 167 0
162 180 0
158 174 0
150 166 0
151 170 0
153 170 0
142 158 0
152 168 0
153 170 0
147 163 0
155 173 0
155 171 0
161 179 0
153 170 0
157 175 0
164 182 0
155 172 0
161 178 0
153 169 0
155 170 0
155 171 0
154 172 0
154 168 0
157 175 0
146 162 0
162 178 0
162 180 0
152 168 0
163 179 0
158 174 0
150 166 0
153 168 0
156 174 0
156 174 0
151 165 0
158 175 0
150 166 0
157 175 0
155 172 0
149 165 0
148 163 0
148 163 0
158 172 0
145 161 0
153 167 0
146 162 0
150 164 0
153 169 0
155 171 0
157 172 0
158 172 0
154 169 0
152 168 0
159 175 0
155 170 0
160 176 0
155 170 0
150 166 0
151 165 0
160 176 0
145 159 0
158 174 0
150 164 0
150 165 0
151 168 0
155 168 0
153 168 0
161 176 0
154 171 0
155 170 0
152 167 0
153 169 0
157 173 0
156 171 0
165 181 0
156 173 0
152 166 0
153 166 0
148 162 0
158 170 0
156 168 0
153 167 0
158 172 0
163 177 0
151 163 0
145 157 0
158 172 0
151 162 0
149 161 0
157 170 0
153 164 0
158 170 0
146 157 0
159 172 0
154 166 0
155 166 0
155 168 0
147 159 0
157 170 0
154 165 0
154 166 0
154 164 0
157 169 0
160 171 0
151 164 0
154 163 0
152 162 0
157 168 0
159 170 0
157 167 0
153 164 0
155 166 0
156 168 0
161 173 0
147 158 0
152 165 0
162 173 0
155 167 0
158 168 0
152 162 0
156 167 0
152 162 0
152 164 0
164 176 0
156 168 0
163 175 0
153 162 0
160 172 0
159 171 0
156 168 0
173 193 0
168 189 0
170 189 0
175 195 0
170 189 0
173 194 0
171 190 0
173 193 0
174 193 0
169 189 0
173 193 0
172 191 0
170 190 0
173 192 0
166 185 0
171 191 0
172 192 0
173 193 0
173 193 0
171 191 0
170 191 0
171 190 0
173 193 0
173 193 0
171 192 0
166 187 0
170 190 0
169 189 0
166 185 0
170 189 0
172 192 0
165 186 0
169 188 0
168 187 0
161 181 0
167 188 0
171 190 0
163 182 0
171 190 0
165 186 0
167 188 0
162 183 0
168 188 0
164 185 0
168 187 0
163 182 0
168 187 0
169 188 0
170 190 0
167 187 0
168 188 0
166 185 0
167 187 0
160 181 0
170 189 0
165 184 0
169 189 0
165 184 0
169 190 0
164 184 0
167 187 0
165 186 0
171 191 0
168 188 0
171 192 0
166 185 0
166 185 0
170 189 0
166 187 0
170 188 0
165 185 0
168 189 0
164 185 0
165 184 0
161 181 0
163 182 0
166 187 0
164 184 0
163 182 0
161 182 0
168 189 0
163 182 0
170 191 0
164 184 0
172 192 0
166 185 0
164 184 0
163 184 0
163 183 0
164 184 0
162 182 0
162 181 0
161 181 0
164 184 0
162 182 0
163 183 0
165 185 0
157 177 0
161 181 0
161 180 0
161 180 0
160 180 0
161 180 0
162 181 0
160 180 0
161 181 0
166 186 0
157 178 0
161 180 0
164 184 0
164 184 0
162 180 0
160 179 0
156 176 0
169 189 0
161 181 0
162 183 0
164 184 0
161 181 0
163 183 0
167 187 0
163 182 0
160 179 0
160 180 0
158 179 0
157 175 0
163 184 0
159 178 0
167 187 0
161 180 0
165 185 0
161 180 0
158 178 0
154 173 0
164 183 0
163 183 0
163 183 0
159 179 0
165 186 0
156 174 0
163 184 0
155 174 0
159 179 0
166 186 0
169 189 0
156 176 0
156 176 0
159 177 0
152 170 0
157 176 0
159 178 0
164 183 0
158 178 0
166 185 0
162 181 0
153 171 0
155 174 0
156 175 0
156 174 0
157 176 0
160 179 0
164 183 0
153 171 0
158 177 0
157 176 0
162 182 0
155 174 0
153 173 0
158 177 0
155 174 0
156 175 0
157 176 0
156 177 0
155 173 0
157 176 0
157 176 0
155 174 0
154 174 0
166 185 0
152 171 0
160 179 0
154 173 0
151 170 0
155 175 0
155 174 0
154 174 0
164 184 0
161 181 0
160 179 0
149 167 0
165 184 0
151 170 0
155 175 0
154 173 0
153 172 0
161 180 0
162 181 0
153 171 0
149 168 0
155 174 0
154 174 0
157 176 0
150 168 0
149 168 0
158 176 0
166 186 0
154 172 0
157 176 0
153 172 0
160 179 0
153 173 0
157 176 0
156 175 0
156 174 0
161 182 0
164 184 0
162 182 0
152 171 0
164 183 0
151 170 0
157 176 0
158 175 0
151 170 0
156 174 0
151 170 0
150 168 0
157 174 0
156 174 0
152 170 0
156 175 0
157 176 0
156 175 0
158 177 0
155 172 0
155 173 0
160 180 0
150 168 0
153 172 0
150 168 0
151 170 0
152 171 0
152 172 0
161 181 0
155 174 0
158 177 0
159 179 0
153 171 0
152 170 0
155 173 0
153 170 0
156 174 0
149 167 0
157 176 0
161 179 0
156 176 0
153 171 0
155 174 0
152 168 0
157 174 0
150 167 0
159 177 0
148 166 0
158 175 0
152 169 0
159 175 0
152 170 0
148 164 0
152 170 0
149 166 0
159 177 0
153 169 0
160 177 0
160 178 0
157 175 0
149 166 0
160 176 0
163 181 0
158 177 0
152 170 0
150 167 0
158 175 0
157 175 0
150 166 0
153 170 0
156 172 0
157 174 0
147 162 0
157 175 0
158 175 0
150 166 0
157 173 0
154 173 0
163 180 0
158 174 0
149 167 0
156 173 0
155 171 0
155 173 0
148 164 0
156 173 0
155 173 0
157 173 0
160 176 0
152 167 0
156 175 0
162 181 0
155 171 0
157 174 0
154 170 0
161 177 0
157 172 0
156 173 0
157 174 0
154 169 0
157 173 0
153 169 0
157 173 0
143 157 0
147 163 0
158 176 0
154 167 0
161 178 0
160 176 0
152 168 0
160 175 0
152 166 0
153 170 0
152 165 0
161 177 0
157 171 0
155 173 0
160 175 0
156 171 0
154 169 0
154 169 0
152 166 0
152 166 0
161 177 0
154 169 0
155 169 0
151 167 0
157 170 0
152 167 0
156 169 0
159 174 0
161 177 0
156 170 0
152 166 0
160 175 0
161 175 0
156 168 0
149 162 0
159 173 0
153 166 0
150 161 0
154 168 0
152 164 0
155 168 0
157 169 0
155 168 0
154 166 0
155 167 0
158 171 0
157 168 0
160 173 0
159 170 0
156 169 0
150 159 0
151 161 0
160 173 0
153 163 0
158 170 0
162 175 0
149 161 0
157 167 0
155 167 0
157 168 0
144 154 0
153 163 0
149 158 0
154 165 0
154 164 0
156 168 0
160 173 0
152 162 0
156 170 0
156 167 0
156 165 0
158 171 0
155 167 0
155 167 0
153 163 0
155 168 0
154 167 0
158 169 0
159 171 0
154 163 0
153 162 0
156 165 0
150 160 0
171 191 0
170 191 0
166 186 0
171 191 0
174 194 0
169 188 0
171 191 0
174 193 0
173 192 0
171 191 0
172 192 0
173 194 0
172 191 0
168 188 0
171 191 0
172 193 0
170 190 0
170 190 0
172 193 0
171 190 0
168 187 0
171 192 0
171 191 0
167 187 0
171 191 0
172 192 0
169 189 0
169 189 0
167 186 0
170 190 0
168 188 0
172 192 0
174 194 0
171 191 0
171 191 0
166 187 0
172 192 0
169 187 0
168 187 0
164 184 0
169 189 0
169 190 0
170 188 0
166 185 0
163 183 0
167 187 0
170 190 0
169 189 0
171 191 0
162 181 0
167 187 0
168 189 0
171 191 0
168 187 0
171 191 0
168 188 0
167 187 0
167 187 0
169 189 0
165 185 0
165 184 0
164 184 0
164 184 0
164 184 0
166 185 0
169 189 0
166 186 0
163 183 0
162 182 0
168 188 0
163 182 0
161 181 0
165 186 0
167 186 0
166 185 0
166 185 0
164 183 0
168 188 0
162 182 0
157 176 0
162 181 0
162 180 0
160 180 0
163 183 0
166 185 0
168 186 0
168 187 0
159 180 0
169 189 0
167 187 0
157 178 0
162 182 0
168 188 0
160 179 0
168 188 0
162 181 0
164 184 0
171 191 0
167 187 0
165 184 0
160 180 0
163 184 0
164 183 0
159 179 0
161 180 0
164 184 0
164 185 0
162 182 0
165 185 0
164 184 0
162 183 0
160 180 0
163 183 0
164 184 0
161 182 0
162 182 0
160 180 0
158 179 0
160 181 0
165 184 0
162 182 0
156 177 0
159 179 0
160 180 0
153 173 0
161 180 0
160 179 0
154 173 0
160 181 0
160 179 0
167 188 0
161 180 0
165 185 0
162 182 0
159 179 0
154 173 0
160 179 0
165 186 0
171 190 0
163 184 0
159 178 0
154 173 0
163 182 0
160 179 0
152 170 0
162 181 0
155 175 0
158 178 0
164 184 0
164 183 0
160 181 0
157 177 0
163 183 0
158 178 0
158 178 0
160 179 0
161 182 0
159 177 0
145 164 0
151 169 0
152 170 0
156 176 0
157 176 0
159 178 0
156 176 0
158 177 0
160 179 0
160 178 0
160 179 0
152 171 0
154 173 0
157 177 0
157 176 0
154 175 0
159 178 0
159 180 0
154 174 0
154 172 0
155 173 0
152 172 0
155 174 0
158 177 0
157 175 0
152 172 0
160 178 0
155 174 0
150 168 0
157 175 0
153 173 0
147 167 0
166 185 0
153 173 0
158 176 0
163 184 0
150 168 0
152 171 0
151 169 0
155 174 0
154 173 0
154 174 0
155 175 0
151 170 0
158 178 0
152 171 0
148 166 0
161 179 0
157 176 0
156 174 0
150 169 0
151 171 0
153 172 0
154 173 0
154 173 0
154 173 0
152 169 0
157 177 0
154 173 0
158 177 0
155 174 0
156 175 0
150 170 0
156 175 0
160 180 0
157 175 0
152 171 0
153 171 0
151 169 0
158 177 0
159 177 0
154 174 0
154 172 0
147 166 0
156 173 0
156 174 0
155 174 0
152 170 0
154 173 0
157 176 0
157 176 0
155 172 0
153 171 0
156 175 0
146 164 0
155 173 0
155 173 0
151 170 0
155 171 0
148 165 0
158 176 0
155 173 0
155 172 0
144 162 0
153 171 0
152 169 0
156 173 0
151 168 0
153 172 0
155 173 0
150 167 0
158 178 0
160 178 0
158 177 0
156 174 0
151 169 0
159 177 0
150 168 0
159 179 0
154 171 0
145 164 0
151 169 0
157 175 0
156 173 0
146 164 0
157 174 0
156 174 0
154 171 0
156 172 0
159 176 0
153 170 0
152 170 0
156 175 0
159 177 0
153 170 0
158 175 0
158 175 0
151 167 0
159 177 0
160 178 0
145 162 0
153 170 0
158 174 0
158 175 0
162 179 0
153 169 0
154 171 0
160 178 0
150 168 0
154 171 0
160 177 0
153 170 0
153 169 0
157 172 0
148 163 0
160 176 0
157 172 0
157 171 0
152 167 0
156 172 0
151 167 0
153 170 0
154 171 0
152 168 0
157 172 0
151 168 0
156 173 0
159 175 0
150 165 0
157 174 0
150 165 0
156 173 0
160 175 0
156 172 0
156 172 0
156 171 0
161 177 0
154 170 0
154 172 0
147 161 0
160 176 0
156 172 0
152 166 0
158 171 0
163 178 0
156 170 0
147 161 0
161 176 0
163 179 0
153 168 0
153 169 0
156 172 0
153 169 0
157 171 0
151 167 0
159 173 0
152 168 0
154 167 0
157 171 0
150 166 0
152 165 0
157 171 0
155 169 0
157 172 0
158 174 0
156 169 0
150 164 0
154 166 0
155 169 0
156 169 0
157 170 0
144 155 0
162 175 0
143 154 0
154 165 0
151 164 0
157 169 0
150 164 0
151 163 0
154 167 0
156 168 0
153 164 0
150 162 0
154 163 0
157 171 0
159 170 0
155 168 0
154 167 0
150 161 0
160 171 0
151 161 0
158 171 0
154 166 0
155 168 0
160 173 0
160 173 0
157 169 0
156 167 0
150 162 0
155 165 0
157 168 0
154 166 0
157 169 0
148 158 0
155 166 0
156 169 0
156 168 0
157 170 0
161 173 0
154 164 0
159 169 0
159 171 0
167 186 0
170 190 0
171 191 0
171 190 0
171 191 0
168 188 0
171 191 0
176 197 0
167 186 0
171 191 0
167 187 0
173 192 0
171 190 0
173 193 0
174 194 0
168 187 0
166 185 0
174 193 0
171 191 0
165 185 0
171 191 0
163 183 0
165 185 0
165 185 0
175 195 0
169 188 0
173 193 0
166 185 0
166 184 0
170 190 0
169 190 0
170 189 0
170 190 0
163 184 0
166 187 0
170 190 0
168 188 0
162 181 0
173 192 0
170 190 0
170 191 0
161 180 0
170 191 0
164 183 0
167 186 0
166 185 0
166 186 0
167 187 0
168 187 0
162 182 0
170 190 0
171 191 0
174 194 0
170 191 0
165 186 0
169 190 0
168 187 0
173 194 0
167 187 0
168 187 0
162 182 0
166 186 0
165 185 0
172 193 0
168 189 0
169 189 0
168 188 0
164 183 0
169 188 0
171 192 0
170 190 0
161 181 0
167 187 0
166 186 0
165 185 0
163 184 0
164 183 0
164 186 0
167 186 0
161 180 0
165 186 0
167 187 0
165 185 0
171 190 0
168 187 0
168 188 0
167 187 0
166 186 0
164 184 0
167 186 0
163 183 0
162 183 0
167 188 0
157 176 0
162 181 0
166 185 0
165 185 0
156 177 0
161 181 0
163 183 0
164 185 0
163 184 0
163 183 0
167 188 0
154 172 0
166 186 0
161 181 0
161 181 0
164 185 0
163 184 0
167 187 0
155 175 0
158 178 0
161 179 0
155 175 0
165 185 0
162 183 0
166 187 0
154 174 0
160 179 0
166 186 0
160 181 0
158 178 0
163 183 0
164 184 0
165 184 0
160 179 0
170 190 0
164 184 0
158 177 0
162 182 0
166 186 0
168 188 0
165 185 0
164 184 0
161 180 0
169 190 0
161 181 0
162 181 0
163 183 0
158 180 0
159 179 0
161 181 0
157 177 0
157 177 0
156 174 0
161 180 0
161 180 0
155 173 0
155 175 0
163 183 0
153 171 0
160 179 0
164 184 0
151 171 0
162 181 0
161 181 0
159 180 0
163 182 0
163 184 0
150 169 0
151 171 0
158 177 0
160 179 0
149 169 0
158 177 0
159 178 0
164 184 0
155 175 0
168 187 0
156 176 0
159 180 0
164 185 0
163 182 0
157 177 0
153 171 0
164 182 0
150 170 0
155 173 0
151 170 0
151 170 0
161 180 0
149 168 0
155 174 0
153 173 0
154 173 0
158 179 0
156 175 0
154 173 0
160 179 0
153 173 0
157 175 0
153 171 0
158 178 0
164 184 0
164 183 0
157 176 0
148 168 0
151 170 0
159 179 0
156 175 0
158 179 0
154 172 0
153 172 0
155 174 0
161 180 0
161 180 0
155 174 0
153 172 0
159 177 0
158 177 0
151 170 0
161 180 0
155 174 0
151 170 0
151 169 0
142 161 0
159 179 0
150 168 0
150 169 0
152 172 0
157 176 0
158 179 0
157 176 0
146 165 0
166 184 0
160 179 0
155 174 0
149 168 0
154 173 0
154 173 0
151 169 0
154 172 0
157 174 0
155 175 0
149 167 0
159 178 0
148 167 0
151 169 0
158 177 0
151 168 0
161 179 0
146 164 0
159 177 0
156 173 0
161 179 0
158 177 0
152 171 0
156 173 0
155 173 0
158 177 0
158 177 0
153 172 0
152 170 0
159 178 0
152 171 0
146 164 0
150 169 0
157 174 0
149 164 0
160 178 0
156 174 0
153 171 0
159 177 0
154 170 0
151 168 0
150 166 0
155 174 0
150 167 0
155 173 0
155 173 0
153 170 0
156 175 0
153 170 0
159 176 0
149 166 0
154 171 0
154 171 0
152 169 0
156 173 0
157 174 0
151 167 0
158 175 0
151 167 0
154 171 0
160 177 0
156 174 0
153 170 0
156 174 0
153 172 0
154 171 0
153 169 0
154 171 0
148 166 0
154 171 0
148 165 0
157 174 0
162 180 0
156 175 0
152 170 0
155 170 0
152 168 0
156 173 0
155 172 0
153 168 0
159 177 0
162 179 0
160 175 0
158 174 0
157 174 0
164 180 0
161 178 0
154 173 0
158 175 0
155 172 0
147 162 0
163 178 0
159 175 0
155 173 0
157 173 0
162 177 0
154 170 0
147 163 0
161 175 0
150 166 0
156 171 0
151 168 0
149 165 0
154 169 0
157 172 0
150 166 0
159 175 0
152 170 0
159 174 0
162 178 0
153 167 0
153 166 0
150 164 0
155 170 0
156 170 0
156 172 0
150 164 0
155 169 0
154 169 0
146 158 0
158 173 0
158 172 0
153 167 0
157 172 0
153 169 0
159 175 0
154 169 0
160 175 0
162 177 0
157 172 0
153 166 0
153 167 0
157 170 0
154 167 0
154 167 0
151 164 0
158 171 0
158 172 0
157 168 0
158 171 0
146 157 0
157 170 0
150 161 0
157 169 0
157 168 0
155 166 0
152 163 0
150 161 0
152 164 0
154 165 0
159 173 0
151 164 0
154 166 0
158 169 0
149 162 0
150 163 0
145 155 0
153 165 0
152 165 0
153 165 0
156 169 0
152 161 0
155 169 0
151 162 0
158 170 0
155 167 0
155 167 0
156 167 0
156 166 0
161 175 0
159 170 0
163 175 0
151 164 0
160 171 0
163 176 0
170 189 0
170 189 0
170 189 0
165 185 0
170 189 0
174 193 0
173 193 0
168 186 0
175 195 0
170 190 0
174 193 0
171 191 0
169 188 0
169 188 0
169 187 0
167 187 0
173 193 0
166 186 0
173 193 0
173 193 0
168 188 0
175 195 0
174 193 0
171 192 0
167 187 0
169 189 0
175 196 0
169 190 0
166 186 0
173 193 0
172 192 0
165 185 0
174 194 0
169 188 0
169 189 0
165 185 0
174 194 0
160 180 0
166 186 0
170 190 0
166 187 0
171 191 0
168 188 0
166 186 0
166 186 0
165 185 0
168 188 0
175 195 0
164 185 0
167 185 0
167 187 0
163 184 0
166 187 0
164 183 0
167 188 0
168 188 0
170 191 0
167 188 0
170 189 0
163 183 0
169 191 0
164 184 0
166 186 0
165 185 0
159 179 0
171 192 0
163 182 0
168 187 0
161 181 0
169 190 0
168 188 0
164 184 0
167 188 0
168 189 0
164 183 0
166 187 0
158 177 0
164 183 0
168 189 0
167 187 0
162 182 0
166 186 0
160 179 0
162 183 0
169 190 0
170 189 0
165 184 0
165 184 0
170 191 0
165 185 0
160 181 0
165 185 0
162 182 0
163 184 0
163 183 0
158 178 0
170 189 0
159 179 0
160 180 0
165 185 0
167 188 0
163 184 0
165 185 0
169 188 0
162 182 0
164 184 0
163 182 0
155 175 0
162 181 0
167 187 0
163 182 0
163 182 0
166 187 0
167 186 0
159 178 0
162 182 0
163 184 0
159 178 0
158 177 0
159 179 0
163 182 0
169 189 0
167 188 0
160 181 0
158 177 0
155 175 0
164 184 0
161 180 0
167 187 0
167 186 0
163 184 0
164 184 0
166 185 0
156 177 0
159 180 0
159 179 0
162 183 0
156 176 0
154 173 0
157 176 0
159 179 0
160 180 0
156 176 0
157 176 0
159 178 0
161 181 0
168 188 0
159 179 0
166 186 0
157 178 0
153 173 0
161 179 0
161 181 0
157 177 0
157 176 0
164 185 0
163 183 0
156 177 0
152 169 0
161 182 0
157 177 0
153 171 0
162 181 0
164 184 0
161 181 0
160 181 0
158 178 0
156 175 0
155 176 0
162 180 0
161 180 0
152 172 0
160 180 0
160 180 0
157 178 0
157 178 0
162 182 0
160 179 0
157 177 0
158 177 0
158 176 0
156 174 0
155 174 0
156 175 0
160 178 0
163 183 0
155 175 0
153 172 0
158 177 0
161 180 0
151 170 0
154 173 0
153 173 0
156 176 0
152 171 0
155 174 0
153 171 0
158 178 0
160 179 0
155 172 0
147 167 0
151 169 0
154 173 0
155 174 0
156 176 0
143 161 0
153 172 0
157 177 0
150 169 0
161 180 0
159 178 0
161 180 0
152 172 0
145 163 0
160 180 0
160 178 0
159 178 0
155 173 0
159 177 0
160 180 0
160 180 0
160 178 0
155 174 0
157 175 0
162 179 0
159 177 0
161 181 0
153 171 0
154 172 0
155 173 0
154 173 0
155 173 0
156 173 0
158 177 0
156 175 0
162 180 0
158 176 0
154 172 0
155 173 0
160 179 0
155 173 0
149 167 0
152 172 0
158 177 0
158 177 0
163 184 0
160 176 0
160 178 0
154 172 0
153 171 0
158 178 0
155 173 0
152 169 0
152 170 0
149 166 0
155 172 0
161 180 0
156 176 0
156 175 0
163 181 0
149 166 0
164 183 0
154 173 0
154 172 0
161 180 0
156 174 0
157 174 0
162 181 0
157 176 0
155 173 0
154 170 0
154 172 0
151 169 0
155 172 0
162 180 0
160 178 0
150 169 0
158 176 0
157 176 0
155 172 0
149 167 0
155 172 0
154 173 0
156 175 0
158 176 0
158 175 0
156 173 0
160 179 0
153 172 0
160 179 0
155 169 0
152 169 0
157 175 0
157 174 0
156 172 0
159 178 0
151 166 0
154 171 0
156 173 0
155 172 0
153 170 0
153 168 0
157 174 0
155 173 0
158 173 0
154 172 0
150 168 0
156 171 0
153 169 0
146 162 0
155 171 0
153 170 0
158 174 0
150 165 0
156 171 0
158 174 0
159 175 0
151 167 0
157 173 0
155 173 0
149 165 0
153 168 0
148 163 0
148 165 0
157 171 0
154 169 0
154 168 0
159 175 0
153 168 0
160 174 0
151 166 0
154 168 0
159 174 0
153 170 0
155 169 0
155 171 0
151 165 0
154 167 0
161 177 0
150 166 0
159 175 0
159 176 0
157 172 0
155 174 0
152 167 0
160 174 0
155 169 0
155 171 0
148 161 0
157 172 0
160 175 0
154 170 0
155 170 0
160 173 0
154 168 0
159 175 0
160 175 0
152 166 0
157 171 0
156 169 0
154 167 0
152 167 0
152 165 0
155 168 0
157 168 0
151 165 0
144 155 0
156 167 0
154 167 0
159 171 0
152 162 0
159 173 0
153 167 0
155 166 0
157 169 0
156 170 0
157 168 0
153 165 0
158 171 0
155 167 0
158 170 0
159 173 0
153 165 0
161 174 0
158 169 0
153 166 0
152 164 0
150 162 0
157 169 0
158 170 0
153 164 0
161 174 0
147 157 0
154 166 0
156 169 0
159 172 0
162 175 0
153 163 0
154 165 0
156 168 0
169 188 0
171 191 0
170 190 0
164 183 0
172 192 0
166 186 0
167 186 0
172 192 0
166 186 0
166 185 0
161 180 0
171 191 0
170 190 0
171 190 0
168 189 0
176 197 0
168 188 0
169 190 0
167 187 0
167 187 0
166 186 0
171 191 0
169 190 0
166 186 0
168 187 0
165 185 0
171 190 0
165 185 0
170 190 0
167 187 0
164 184 0
168 188 0
166 186 0
167 187 0
168 187 0
168 188 0
171 192 0
170 191 0
165 185 0
169 191 0
163 182 0
176 197 0
171 191 0
165 184 0
168 188 0
168 188 0
167 187 0
166 186 0
169 189 0
171 191 0
164 184 0
164 184 0
163 182 0
168 187 0
167 186 0
165 185 0
166 187 0
170 191 0
167 186 0
168 188 0
164 185 0
174 193 0
168 189 0
169 189 0
162 182 0
161 180 0
161 180 0
152 172 0
168 188 0
165 186 0
168 188 0
169 188 0
164 184 0
162 182 0
163 183 0
156 175 0
171 191 0
162 182 0
166 186 0
166 185 0
163 183 0
162 182 0
165 186 0
167 188 0
160 180 0
167 187 0
164 184 0
169 189 0
166 187 0
166 187 0
164 184 0
159 178 0
173 193 0
166 186 0
168 188 0
162 182 0
166 186 0
160 181 0
160 181 0
167 187 0
155 175 0
162 183 0
168 189 0
164 184 0
160 180 0
160 180 0
161 180 0
172 192 0
161 181 0
174 195 0
165 184 0
167 187 0
168 189 0
164 184 0
157 177 0
160 180 0
165 185 0
168 189 0
165 184 0
162 183 0
160 180 0
162 184 0
158 178 0
153 173 0
151 170 0
156 175 0
156 177 0
162 183 0
164 184 0
160 180 0
159 178 0
160 178 0
162 181 0
162 182 0
160 181 0
156 176 0
161 181 0
163 183 0
162 182 0
156 177 0
161 181 0
162 182 0
158 178 0
168 187 0
159 178 0
157 177 0
160 180 0
161 181 0
158 178 0
159 180 0
161 181 0
161 180 0
158 178 0
159 179 0
154 174 0
161 179 0
149 168 0
158 178 0
166 185 0
151 170 0
168 188 0
163 183 0
158 177 0
163 184 0
150 168 0
158 177 0
161 180 0
150 171 0
160 179 0
161 180 0
159 178 0
160 180 0
155 174 0
159 178 0
151 169 0
161 180 0
155 174 0
159 178 0
157 177 0
161 180 0
160 179 0
154 172 0
160 180 0
151 170 0
162 180 0
149 167 0
150 170 0
158 178 0
157 176 0
153 171 0
152 171 0
154 173 0
151 171 0
152 173 0
163 182 0
158 176 0
160 179 0
152 170 0
160 179 0
151 169 0
162 180 0
149 167 0
158 176 0
159 178 0
159 179 0
158 176 0
151 169 0
158 177 0
153 172 0
159 178 0
161 180 0
155 175 0
145 164 0
155 173 0
147 165 0
158 176 0
157 176 0
156 173 0
157 174 0
152 170 0
156 175 0
155 172 0
160 179 0
160 179 0
161 180 0
150 168 0
156 173 0
144 162 0
156 176 0
151 170 0
154 173 0
156 175 0
156 175 0
152 172 0
162 180 0
160 178 0
151 168 0
161 180 0
146 165 0
159 175 0
157 176 0
157 175 0
158 176 0
155 175 0
153 171 0
158 177 0
152 170 0
152 170 0
158 177 0
151 169 0
154 174 0
152 169 0
158 175 0
158 178 0
153 172 0
150 168 0
161 177 0
161 181 0
159 178 0
155 173 0
155 174 0
157 177 0
154 172 0
162 178 0
156 175 0
152 168 0
147 165 0
150 166 0
159 175 0
163 181 0
161 179 0
160 178 0
155 173 0
155 174 0
159 177 0
156 174 0
153 171 0
155 172 0
154 172 0
152 168 0
152 170 0
158 177 0
157 173 0
152 169 0
151 167 0
156 173 0
164 181 0
160 178 0
155 172 0
158 174 0
150 168 0
154 170 0
155 171 0
152 168 0
162 180 0
153 170 0
161 178 0
154 172 0
161 179 0
156 172 0
160 178 0
157 173 0
154 168 0
150 167 0
152 169 0
151 168 0
154 170 0
163 179 0
153 170 0
159 177 0
149 165 0
158 173 0
157 173 0
153 169 0
156 173 0
155 170 0
154 170 0
150 166 0
156 173 0
150 166 0
156 173 0
151 166 0
151 167 0
155 172 0
159 175 0
156 173 0
151 166 0
157 173 0
159 176 0
148 164 0
157 173 0
160 176 0
161 177 0
157 173 0
157 173 0
156 174 0
162 178 0
157 173 0
151 164 0
162 177 0
161 177 0
161 178 0
160 175 0
156 172 0
160 176 0
157 173 0
154 168 0
155 169 0
150 163 0
148 163 0
150 163 0
150 164 0
163 177 0
156 169 0
153 168 0
158 173 0
157 171 0
155 170 0
154 168 0
160 176 0
159 175 0
155 170 0
157 170 0
155 168 0
152 166 0
163 177 0
152 162 0
151 162 0
162 173 0
161 175 0
153 165 0
159 174 0
155 167 0
156 165 0
155 168 0
153 164 0
154 165 0
151 163 0
156 168 0
157 173 0
155 168 0
153 166 0
153 166 0
158 172 0
150 163 0
152 163 0
153 166 0
150 161 0
155 168 0
160 174 0
158 168 0
162 172 0
159 174 0
148 159 0
159 172 0
148 160 0
150 160 0
157 168 0
158 171 0
146 160 0
171 191 0
175 195 0
172 191 0
173 193 0
171 190 0
176 197 0
168 187 0
171 191 0
171 191 0
166 185 0
172 192 0
175 195 0
172 192 0
172 191 0
170 190 0
167 188 0
172 193 0
171 190 0
176 195 0
168 188 0
174 194 0
172 191 0
170 191 0
167 187 0
172 193 0
168 188 0
167 187 0
170 190 0
171 191 0
167 188 0
169 188 0
168 189 0
168 188 0
171 191 0
170 190 0
167 187 0
169 189 0
170 190 0
163 182 0
166 185 0
166 186 0
171 191 0
167 188 0
169 189 0
167 187 0
168 187 0
168 188 0
165 185 0
166 186 0
167 188 0
160 180 0
170 191 0
161 181 0
164 183 0
167 186 0
167 188 0
162 181 0
170 190 0
165 186 0
165 184 0
164 184 0
164 184 0
166 186 0
170 190 0
167 186 0
168 188 0
168 188 0
167 188 0
165 184 0
168 189 0
166 186 0
167 186 0
166 186 0
166 187 0
172 191 0
164 183 0
163 184 0
165 186 0
163 183 0
165 185 0
163 184 0
165 186 0
166 186 0
165 185 0
169 188 0
161 180 0
165 184 0
164 184 0
166 187 0
169 189 0
164 185 0
166 186 0
167 187 0
162 181 0
155 174 0
167 185 0
159 180 0
161 181 0
162 182 0
166 187 0
166 185 0
159 178 0
169 189 0
164 184 0
164 184 0
164 184 0
162 181 0
160 181 0
164 184 0
163 183 0
163 183 0
154 174 0
161 180 0
169 188 0
164 184 0
166 186 0
154 174 0
162 182 0
158 178 0
162 181 0
159 179 0
161 182 0
168 188 0
161 181 0
161 181 0
165 186 0
157 175 0
155 174 0
158 178 0
163 185 0
157 177 0
159 180 0
162 182 0
161 181 0
165 184 0
162 181 0
152 171 0
161 181 0
158 176 0
162 183 0
162 181 0
156 176 0
153 172 0
159 180 0
162 180 0
163 183 0
159 178 0
162 181 0
167 187 0
163 182 0
164 184 0
160 180 0
168 187 0
160 179 0
164 183 0
162 182 0
164 184 0
153 173 0
162 182 0
157 177 0
159 178 0
161 181 0
154 174 0
161 179 0
157 177 0
157 177 0
154 173 0
161 180 0
150 170 0
157 177 0
161 179 0
156 176 0
154 173 0
160 178 0
150 169 0
152 171 0
164 183 0
156 175 0
157 177 0
157 177 0
160 178 0
156 173 0
159 179 0
157 176 0
160 178 0
149 168 0
155 175 0
159 177 0
147 166 0
156 174 0
159 179 0
154 173 0
165 183 0
154 174 0
158 177 0
158 176 0
162 180 0
158 177 0
163 182 0
144 162 0
157 177 0
151 170 0
154 173 0
162 182 0
158 177 0
156 175 0
159 178 0
155 174 0
161 180 0
159 179 0
153 172 0
155 174 0
157 176 0
156 175 0
166 184 0
162 180 0
151 170 0
162 182 0
165 183 0
159 178 0
167 185 0
156 174 0
157 176 0
158 177 0
166 184 0
156 174 0
163 183 0
167 187 0
152 171 0
154 172 0
160 179 0
154 173 0
156 176 0
154 173 0
156 173 0
160 179 0
157 176 0
153 172 0
152 171 0
157 176 0
155 174 0
156 175 0
155 174 0
152 171 0
154 173 0
152 171 0
154 173 0
156 173 0
158 177 0
151 168 0
157 173 0
145 163 0
152 169 0
146 164 0
156 175 0
155 170 0
156 175 0
154 172 0
152 169 0
154 171 0
156 174 0
161 179 0
158 177 0
159 179 0
155 173 0
153 171 0
151 169 0
158 175 0
160 176 0
158 175 0
155 172 0
154 172 0
152 169 0
154 172 0
152 168 0
163 183 0
157 175 0
154 171 0
144 161 0
160 176 0
160 179 0
152 168 0
162 180 0
155 172 0
153 170 0
159 178 0
157 173 0
161 178 0
161 179 0
163 182 0
161 178 0
157 175 0
155 172 0
156 172 0
155 171 0
151 170 0
149 165 0
161 178 0
156 171 0
158 176 0
156 173 0
160 178 0
160 179 0
157 175 0
159 175 0
151 167 0
152 170 0
160 177 0
163 180 0
159 176 0
159 176 0
141 155 0
153 171 0
155 173 0
156 172 0
166 184 0
150 165 0
151 165 0
157 174 0
154 171 0
152 170 0
154 172 0
157 174 0
157 173 0
157 173 0
156 172 0
157 172 0
155 170 0
156 171 0
153 170 0
158 174 0
159 176 0
156 173 0
158 174 0
152 165 0
147 161 0
152 167 0
160 174 0
161 175 0
158 173 0
156 172 0
153 169 0
156 171 0
153 169 0
154 169 0
156 169 0
152 168 0
151 167 0
160 174 0
153 170 0
149 165 0
157 171 0
159 174 0
166 183 0
159 175 0
158 172 0
151 164 0
151 164 0
147 162 0
150 164 0
162 179 0
151 163 0
159 173 0
159 173 0
157 172 0
155 169 0
158 172 0
152 165 0
158 170 0
150 162 0
154 165 0
154 165 0
154 167 0
148 158 0
162 175 0
151 164 0
149 161 0
154 168 0
154 168 0
156 167 0
152 164 0
158 171 0
152 165 0
155 168 0
154 165 0
154 167 0
155 166 0
158 170 0
159 171 0
159 172 0
160 174 0
155 167 0
157 170 0
166 178 0
166 179 0
158 170 0
156 170 0
162 176 0
157 169 0
157 171 0
168 188 0
172 192 0
167 186 0
172 191 0
174 194 0
172 191 0
175 194 0
166 186 0
171 190 0
168 188 0
169 190 0
169 189 0
170 190 0
169 188 0
168 188 0
170 189 0
165 185 0
171 192 0
175 195 0
172 191 0
170 190 0
172 192 0
167 187 0
164 184 0
171 191 0
169 190 0
167 188 0
172 192 0
167 187 0
166 187 0
178 198 0
169 188 0
166 186 0
162 181 0
168 189 0
163 184 0
166 187 0
169 189 0
168 188 0
170 191 0
168 189 0
171 191 0
162 180 0
170 191 0
164 184 0
168 188 0
171 191 0
163 183 0
165 185 0
164 184 0
168 188 0
165 185 0
164 185 0
171 192 0
171 191 0
164 185 0
167 187 0
167 187 0
169 189 0
164 184 0
172 192 0
162 182 0
158 178 0
166 186 0
166 186 0
166 186 0
170 190 0
169 190 0
161 181 0
166 187 0
161 180 0
166 186 0
168 187 0
172 193 0
163 182 0
166 185 0
169 188 0
165 183 0
167 187 0
170 189 0
164 184 0
168 189 0
169 189 0
159 179 0
163 184 0
160 180 0
165 185 0
169 190 0
165 186 0
161 181 0
169 188 0
166 187 0
169 189 0
165 185 0
164 185 0
167 187 0
161 181 0
162 182 0
167 187 0
164 184 0
165 186 0
170 191 0
163 183 0
159 180 0
159 179 0
167 186 0
166 186 0
163 183 0
158 178 0
164 185 0
161 181 0
163 183 0
159 180 0
163 183 0
157 176 0
169 189 0
158 179 0
168 190 0
164 184 0
160 180 0
159 179 0
161 182 0
165 184 0
165 185 0
170 190 0
157 177 0
156 175 0
166 185 0
163 182 0
161 180 0
166 186 0
157 176 0
160 180 0
162 182 0
160 181 0
163 183 0
155 174 0
160 180 0
165 186 0
160 179 0
152 172 0
161 181 0
161 181 0
158 177 0
166 185 0
160 180 0
153 172 0
159 179 0
155 175 0
165 183 0
154 173 0
161 181 0
154 173 0
162 180 0
155 173 0
156 175 0
158 177 0
160 179 0
160 181 0
162 182 0
161 181 0
161 181 0
160 179 0
161 180 0
164 182 0
162 181 0
153 173 0
157 175 0
158 177 0
151 171 0
162 182 0
164 184 0
163 182 0
161 180 0
163 183 0
157 177 0
154 174 0
159 179 0
160 180 0
149 168 0
163 181 0
163 183 0
162 181 0
158 178 0
154 173 0
157 178 0
156 176 0
154 173 0
158 177 0
158 178 0
147 166 0
166 185 0
164 184 0
154 174 0
159 179 0
153 172 0
157 176 0
155 174 0
157 176 0
156 175 0
155 176 0
156 174 0
158 176 0
156 175 0
152 172 0
163 182 0
159 177 0
149 168 0
153 173 0
154 172 0
142 160 0
155 175 0
158 177 0
158 178 0
160 179 0
154 172 0
151 168 0
154 173 0
155 175 0
158 178 0
159 178 0
155 173 0
159 178 0
162 180 0
155 173 0
148 166 0
160 178 0
157 175 0
160 179 0
156 175 0
159 177 0
157 176 0
150 169 0
153 172 0
158 176 0
161 181 0
152 170 0
151 171 0
159 179 0
153 173 0
149 169 0
158 177 0
154 173 0
160 178 0
160 178 0
151 171 0
164 184 0
144 163 0
152 169 0
150 168 0
152 170 0
162 181 0
153 171 0
154 173 0
155 173 0
157 174 0
160 178 0
153 172 0
152 169 0
157 176 0
153 171 0
151 168 0
157 176 0
156 174 0
157 174 0
158 175 0
156 174 0
161 180 0
155 172 0
162 179 0
152 171 0
161 180 0
155 174 0
158 177 0
144 160 0
163 181 0
158 176 0
151 168 0
154 171 0
160 178 0
153 171 0
154 171 0
153 170 0
153 169 0
164 183 0
160 178 0
161 179 0
157 173 0
154 170 0
159 176 0
160 179 0
157 174 0
154 172 0
150 166 0
155 174 0
153 169 0
148 165 0
152 169 0
153 169 0
156 172 0
156 171 0
158 175 0
160 176 0
148 165 0
154 171 0
155 173 0
149 164 0
157 174 0
153 170 0
160 179 0
159 175 0
155 174 0
155 171 0
154 169 0
156 172 0
158 174 0
154 169 0
153 169 0
158 173 0
160 178 0
157 173 0
156 173 0
149 165 0
156 173 0
153 168 0
162 179 0
154 171 0
152 167 0
160 178 0
155 169 0
160 177 0
163 179 0
157 174 0
152 170 0
153 167 0
161 176 0
164 180 0
162 179 0
154 169 0
153 169 0
161 178 0
158 172 0
154 169 0
158 173 0
151 167 0
162 177 0
152 166 0
156 171 0
152 166 0
161 178 0
156 172 0
156 170 0
152 165 0
156 171 0
155 170 0
153 169 0
158 174 0
157 171 0
152 165 0
149 164 0
162 177 0
156 171 0
160 176 0
167 182 0
153 166 0
158 173 0
158 171 0
152 166 0
164 179 0
153 166 0
156 171 0
153 166 0
157 170 0
156 169 0
161 174 0
157 169 0
155 170 0
155 169 0
155 168 0
162 174 0
152 164 0
154 166 0
151 163 0
159 176 0
148 159 0
157 169 0
161 174 0
153 164 0
164 177 0
149 162 0
156 168 0
158 172 0
156 171 0
157 170 0
153 166 0
154 165 0
153 164 0
159 171 0
158 168 0
155 165 0
171 190 0
171 191 0
167 187 0
171 192 0
168 188 0
161 181 0
170 190 0
170 190 0
172 192 0
170 191 0
173 190 0
174 194 0
164 183 0
173 193 0
170 190 0
169 189 0
162 182 0
172 192 0
170 190 0
171 190 0
170 191 0
167 187 0
175 196 0
165 185 0
170 190 0
170 191 0
173 192 0
169 188 0
166 186 0
166 185 0
170 190 0
165 184 0
165 184 0
165 184 0
165 185 0
168 188 0
177 197 0
173 194 0
175 195 0
172 192 0
170 190 0
171 190 0
163 183 0
166 186 0
168 188 0
171 191 0
168 187 0
169 189 0
161 181 0
172 192 0
162 181 0
165 186 0
164 184 0
166 187 0
169 189 0
165 185 0
169 189 0
166 187 0
160 181 0
167 188 0
163 183 0
171 192 0
167 187 0
169 189 0
167 187 0
168 187 0
170 191 0
158 178 0
165 185 0
163 182 0
165 183 0
166 186 0
167 186 0
161 180 0
159 180 0
160 179 0
163 184 0
168 187 0
168 188 0
167 187 0
161 181 0
166 186 0
166 185 0
167 188 0
161 183 0
169 189 0
165 185 0
160 180 0
162 181 0
161 180 0
166 186 0
165 184 0
164 184 0
169 190 0
159 179 0
164 184 0
158 177 0
156 176 0
166 185 0
166 187 0
164 185 0
166 186 0
171 191 0
168 189 0
165 184 0
170 190 0
160 180 0
169 188 0
168 188 0
169 189 0
160 179 0
157 176 0
163 183 0
159 179 0
169 189 0
163 183 0
160 179 0
166 186 0
160 179 0
161 181 0
155 176 0
162 180 0
161 182 0
164 186 0
164 184 0
163 183 0
164 183 0
158 177 0
160 179 0
158 179 0
158 178 0
161 181 0
162 183 0
163 183 0
157 177 0
156 175 0
164 185 0
162 182 0
163 182 0
163 182 0
164 184 0
157 178 0
167 186 0
158 179 0
166 185 0
163 182 0
164 184 0
163 183 0
158 177 0
166 185 0
151 170 0
165 186 0
161 181 0
155 175 0
163 183 0
154 175 0
159 178 0
156 176 0
167 185 0
159 178 0
158 177 0
159 178 0
165 184 0
163 183 0
162 181 0
163 183 0
158 177 0
154 174 0
149 168 0
163 182 0
155 175 0
161 182 0
157 176 0
155 176 0
161 181 0
155 175 0
156 176 0
162 179 0
153 173 0
160 180 0
162 182 0
158 178 0
161 180 0
157 178 0
153 173 0
161 181 0
162 180 0
157 175 0
162 181 0
155 174 0
159 178 0
159 179 0
152 171 0
156 175 0
157 175 0
155 174 0
161 182 0
150 168 0
150 169 0
160 180 0
156 175 0
155 174 0
154 172 0
154 171 0
153 172 0
159 180 0
158 175 0
161 182 0
159 176 0
157 176 0
155 175 0
162 181 0
161 178 0
160 179 0
156 174 0
162 183 0
161 181 0
160 179 0
153 172 0
155 175 0
155 174 0
158 177 0
152 171 0
164 183 0
157 175 0
164 183 0
150 168 0
153 172 0
155 175 0
157 176 0
155 174 0
161 178 0
157 175 0
151 170 0
155 172 0
150 169 0
150 168 0
159 177 0
152 170 0
157 176 0
152 169 0
153 171 0
159 176 0
157 174 0
160 178 0
158 176 0
154 172 0
152 170 0
167 186 0
162 181 0
154 172 0
151 167 0
159 178 0
161 179 0
159 178 0
166 184 0
151 168 0
151 170 0
158 176 0
150 167 0
156 174 0
143 162 0
158 175 0
161 179 0
152 169 0
156 174 0
160 177 0
157 175 0
167 185 0
150 168 0
151 169 0
158 176 0
163 181 0
158 176 0
155 174 0
157 176 0
164 182 0
165 183 0
155 172 0
156 175 0
158 177 0
156 175 0
154 172 0
156 174 0
152 170 0
154 172 0
162 180 0
159 178 0
159 178 0
155 172 0
160 177 0
156 174 0
159 177 0
158 174 0
156 173 0
156 174 0
147 163 0
153 171 0
151 168 0
155 170 0
160 176 0
156 175 0
161 179 0
159 175 0
155 173 0
154 172 0
151 166 0
156 171 0
156 174 0
157 172 0
146 161 0
151 168 0
154 168 0
157 172 0
152 169 0
150 167 0
152 169 0
158 177 0
157 173 0
154 169 0
156 172 0
161 177 0
163 182 0
158 175 0
163 180 0
157 175 0
153 170 0
153 168 0
162 180 0
157 173 0
157 173 0
153 169 0
149 163 0
152 165 0
157 173 0
159 174 0
152 168 0
152 168 0
152 168 0
153 166 0
159 173 0
152 165 0
156 170 0
153 167 0
162 179 0
162 178 0
161 176 0
161 177 0
160 175 0
159 174 0
158 175 0
154 170 0
155 170 0
154 169 0
161 176 0
155 168 0
154 169 0
158 173 0
157 173 0
161 176 0
160 175 0
158 174 0
150 165 0
150 164 0
154 167 0
158 172 0
157 172 0
145 156 0
156 171 0
161 174 0
156 172 0
159 174 0
155 170 0
155 170 0
154 166 0
155 168 0
156 171 0
160 174 0
162 176 0
153 165 0
159 171 0
158 172 0
153 166 0
162 176 0
158 172 0
154 167 0
160 174 0
146 157 0
163 176 0
144 156 0
154 169 0
163 177 0
159 171 0
161 173 0
160 174 0
156 168 0
154 165 0
154 164 0
165 179 0
157 168 0
167 187 0
166 186 0
169 190 0
161 181 0
167 187 0
173 192 0
169 189 0
168 188 0
173 194 0
169 190 0
168 188 0
166 185 0
173 193 0
166 186 0
175 194 0
174 194 0
170 191 0
165 184 0
169 189 0
165 184 0
168 188 0
171 191 0
172 192 0
174 193 0
174 193 0
171 191 0
171 191 0
168 189 0
170 190 0
163 183 0
170 190 0
157 178 0
168 188 0
164 183 0
166 185 0
170 191 0
166 186 0
171 192 0
166 186 0
169 189 0
171 192 0
164 184 0
169 190 0
169 189 0
165 185 0
171 191 0
166 188 0
172 193 0
171 192 0
163 184 0
171 191 0
165 185 0
168 188 0
167 187 0
167 187 0
169 190 0
163 181 0
165 184 0
170 190 0
165 185 0
162 182 0
167 188 0
170 190 0
167 186 0
160 180 0
161 181 0
171 192 0
167 188 0
162 182 0
170 191 0
166 186 0
171 190 0
164 183 0
170 190 0
163 182 0
168 188 0
161 180 0
161 181 0
169 189 0
166 185 0
165 184 0
164 185 0
162 181 0
164 183 0
162 182 0
159 179 0
167 189 0
163 183 0
166 187 0
165 185 0
164 183 0
165 185 0
164 184 0
165 183 0
161 182 0
165 187 0
160 179 0
169 189 0
162 183 0
155 174 0
168 188 0
169 188 0
157 176 0
161 181 0
165 186 0
162 182 0
169 190 0
168 188 0
164 184 0
167 188 0
169 188 0
168 187 0
167 188 0
163 181 0
164 184 0
164 184 0
162 183 0
164 184 0
163 182 0
164 184 0
161 180 0
159 179 0
160 180 0
162 183 0
165 185 0
164 183 0
161 182 0
161 181 0
159 178 0
162 182 0
165 184 0
162 183 0
164 183 0
162 182 0
159 178 0
165 184 0
156 175 0
162 182 0
157 177 0
155 175 0
153 172 0
150 170 0
169 190 0
165 184 0
164 184 0
165 184 0
166 186 0
163 182 0
160 180 0
167 187 0
156 177 0
151 170 0
164 184 0
160 180 0
162 182 0
156 174 0
156 175 0
155 175 0
155 175 0
157 177 0
165 185 0
158 177 0
155 174 0
164 184 0
157 176 0
155 174 0
163 184 0
161 181 0
158 178 0
164 184 0
160 179 0
159 180 0
160 179 0
161 181 0
164 183 0
162 181 0
161 181 0
160 179 0
157 176 0
160 181 0
153 172 0
157 176 0
161 181 0
160 180 0
158 177 0
156 176 0
153 171 0
157 177 0
161 181 0
157 175 0
156 175 0
152 172 0
156 175 0
166 187 0
158 178 0
158 178 0
155 176 0
155 174 0
159 177 0
149 167 0
158 178 0
155 175 0
164 183 0
159 179 0
158 178 0
165 184 0
161 180 0
153 171 0
151 169 0
156 174 0
158 176 0
162 182 0
151 169 0
156 175 0
155 174 0
158 178 0
157 175 0
160 179 0
148 166 0
160 179 0
154 172 0
159 178 0
154 174 0
154 172 0
153 171 0
158 177 0
158 177 0
153 171 0
160 179 0
161 180 0
155 174 0
149 167 0
161 181 0
159 179 0
152 171 0
158 176 0
148 165 0
157 175 0
157 176 0
154 173 0
155 175 0
157 177 0
157 177 0
158 177 0
159 179 0
161 180 0
155 173 0
153 171 0
164 182 0
161 180 0
158 176 0
150 167 0
155 173 0
160 179 0
155 173 0
154 173 0
155 175 0
156 174 0
151 169 0
163 182 0
161 179 0
146 164 0
153 171 0
161 179 0
156 174 0
157 176 0
156 175 0
156 173 0
156 175 0
156 175 0
155 172 0
161 179 0
152 170 0
157 176 0
162 180 0
151 169 0
159 177 0
153 172 0
149 168 0
154 172 0
156 174 0
158 174 0
156 173 0
153 168 0
156 173 0
147 164 0
155 174 0
164 182 0
155 173 0
149 166 0
153 171 0
161 177 0
158 176 0
157 176 0
150 166 0
155 173 0
154 172 0
154 171 0
157 175 0
163 181 0
158 174 0
157 174 0
156 174 0
160 175 0
154 172 0
156 172 0
152 169 0
161 180 0
156 172 0
157 175 0
160 177 0
156 174 0
152 171 0
160 175 0
157 173 0
150 165 0
159 176 0
159 176 0
152 168 0
162 178 0
155 173 0
152 169 0
156 171 0
158 175 0
153 169 0
148 164 0
155 171 0
163 179 0
160 177 0
148 164 0
158 175 0
154 170 0
160 176 0
159 176 0
154 170 0
161 180 0
154 171 0
157 173 0
154 169 0
156 171 0
155 172 0
159 176 0
158 172 0
156 170 0
149 163 0
157 173 0
164 180 0
157 171 0
158 173 0
164 179 0
160 176 0
152 166 0
152 165 0
156 171 0
153 168 0
159 173 0
152 165 0
160 175 0
161 178 0
150 162 0
145 159 0
160 174 0
163 180 0
157 173 0
156 170 0
151 164 0
164 180 0
165 177 0
153 167 0
160 175 0
157 172 0
153 167 0
168 183 0
164 180 0
156 169 0
163 176 0
168 184 0
160 174 0
152 166 0
160 173 0
150 165 0
149 163 0
161 173 0
156 168 0
153 168 0
160 172 0
158 169 0
157 171 0
156 167 0
153 165 0
159 173 0
157 169 0
158 171 0
156 168 0
158 171 0
148 160 0
162 174 0
159 171 0
154 166 0
159 173 0
167 186 0
166 187 0
167 187 0
171 190 0
168 189 0
170 190 0
171 190 0
169 190 0
170 190 0
170 191 0
173 193 0
172 191 0
175 196 0
172 192 0
165 185 0
166 185 0
173 192 0
172 192 0
172 192 0
174 194 0
171 191 0
167 187 0
167 187 0
171 190 0
172 192 0
170 191 0
172 191 0
171 191 0
166 185 0
166 186 0
168 189 0
162 181 0
165 186 0
164 184 0
174 194 0
171 192 0
164 184 0
170 190 0
170 189 0
174 194 0
169 189 0
170 189 0
169 188 0
169 190 0
164 185 0
164 184 0
167 185 0
172 192 0
166 186 0
170 191 0
167 187 0
168 188 0
161 183 0
168 190 0
161 181 0
166 186 0
168 187 0
159 179 0
168 188 0
166 187 0
166 186 0
170 190 0
169 190 0
170 190 0
170 189 0
167 186 0
164 182 0
166 186 0
165 185 0
164 184 0
163 183 0
171 191 0
166 187 0
166 187 0
163 184 0
163 183 0
167 188 0
162 182 0
167 188 0
166 186 0
162 183 0
168 188 0
162 183 0
165 185 0
161 181 0
167 186 0
169 190 0
158 178 0
162 182 0
166 186 0
165 185 0
167 188 0
161 181 0
165 185 0
165 185 0
163 182 0
161 181 0
166 186 0
162 181 0
167 188 0
163 182 0
165 185 0
166 186 0
166 185 0
169 189 0
168 189 0
166 186 0
157 176 0
165 185 0
165 185 0
159 180 0
162 182 0
166 187 0
162 182 0
166 186 0
163 183 0
164 186 0
158 178 0
166 185 0
159 179 0
156 175 0
161 182 0
163 183 0
162 183 0
165 186 0
164 184 0
162 182 0
163 183 0
158 179 0
158 178 0
159 178 0
165 184 0
162 182 0
163 182 0
163 182 0
161 181 0
160 180 0
163 181 0
152 172 0
164 183 0
157 177 0
160 180 0
159 178 0
159 178 0
162 182 0
156 176 0
160 180 0
161 181 0
166 185 0
161 180 0
166 186 0
168 188 0
156 175 0
152 171 0
166 185 0
158 177 0
155 174 0
167 186 0
161 181 0
154 174 0
161 181 0
160 180 0
157 177 0
165 186 0
157 177 0
157 176 0
161 179 0
154 172 0
164 184 0
162 181 0
163 183 0
165 183 0
156 176 0
157 177 0
159 180 0
159 178 0
166 185 0
162 182 0
156 176 0
157 175 0
156 176 0
161 180 0
169 188 0
156 174 0
160 179 0
163 183 0
167 186 0
155 174 0
150 168 0
162 182 0
160 180 0
160 180 0
154 172 0
161 181 0
158 178 0
158 178 0
155 173 0
158 177 0
159 178 0
156 174 0
155 176 0
156 175 0
154 174 0
164 183 0
158 177 0
159 178 0
157 177 0
155 173 0
156 175 0
157 176 0
149 167 0
152 170 0
161 180 0
153 172 0
159 179 0
156 174 0
159 178 0
152 171 0
155 174 0
146 165 0
155 175 0
159 180 0
154 172 0
162 180 0
155 173 0
154 173 0
162 181 0
162 181 0
156 174 0
154 174 0
162 181 0
156 175 0
161 180 0
161 180 0
157 176 0
157 176 0
154 172 0
154 172 0
158 176 0
167 186 0
151 168 0
157 175 0
166 184 0
156 172 0
159 179 0
157 175 0
155 172 0
154 170 0
163 183 0
158 177 0
156 174 0
157 174 0
154 174 0
149 167 0
163 180 0
160 179 0
161 179 0
160 178 0
160 178 0
159 178 0
153 172 0
160 177 0
158 175 0
154 170 0
153 172 0
152 169 0
156 173 0
156 174 0
159 177 0
153 172 0
155 173 0
158 175 0
155 173 0
163 180 0
160 179 0
158 176 0
155 172 0
156 174 0
158 175 0
162 179 0
149 165 0
156 176 0
163 180 0
151 170 0
159 176 0
160 175 0
157 174 0
158 177 0
158 177 0
165 183 0
152 171 0
156 173 0
163 180 0
153 170 0
149 165 0
151 169 0
168 185 0
156 174 0
163 180 0
156 173 0
148 165 0
158 175 0
158 174 0
156 173 0
153 170 0
167 186 0
165 181 0
158 176 0
165 182 0
155 170 0
164 182 0
155 172 0
155 172 0
155 174 0
164 180 0
163 181 0
155 172 0
157 174 0
153 169 0
157 174 0
152 167 0
162 179 0
161 178 0
157 174 0
146 163 0
155 170 0
154 170 0
150 166 0
153 170 0
159 174 0
155 172 0
157 176 0
158 175 0
156 172 0
160 176 0
156 172 0
158 174 0
159 177 0
154 172 0
158 174 0
160 175 0
149 164 0
161 177 0
152 169 0
151 166 0
155 170 0
159 176 0
157 173 0
165 180 0
164 176 0
155 171 0
163 178 0
162 179 0
155 170 0
154 167 0
158 171 0
153 167 0
154 168 0
154 169 0
155 172 0
154 170 0
150 164 0
150 163 0
156 171 0
157 173 0
150 164 0
154 168 0
154 169 0
158 170 0
155 171 0
161 175 0
155 168 0
159 173 0
156 171 0
153 168 0
157 171 0
152 165 0
158 170 0
154 168 0
162 176 0
159 174 0
161 174 0
153 166 0
156 170 0
165 179 0
154 168 0
152 167 0
157 172 0
162 177 0
160 172 0
158 174 0
163 177 0
161 174 0
152 165 0
154 165 0
154 167 0
161 173 0
162 175 0
159 169 0
147 158 0
175 195 0
173 195 0
171 190 0
174 194 0
167 186 0
163 184 0
172 192 0
166 187 0
172 192 0
170 191 0
170 191 0
165 185 0
168 187 0
172 193 0
166 186 0
164 184 0
165 187 0
170 189 0
172 193 0
170 190 0
171 191 0
170 190 0
169 189 0
164 184 0
171 191 0
165 185 0
171 191 0
166 185 0
167 186 0
165 185 0
168 187 0
167 187 0
171 191 0
168 189 0
167 187 0
163 183 0
167 187 0
162 182 0
167 187 0
162 184 0
175 196 0
172 193 0
174 194 0
169 188 0
171 191 0
168 188 0
159 179 0
164 185 0
165 183 0
161 180 0
164 184 0
169 190 0
156 176 0
165 185 0
165 185 0
160 179 0
163 182 0
170 190 0
169 189 0
165 187 0
166 187 0
169 188 0
167 189 0
167 187 0
166 186 0
163 184 0
164 184 0
166 185 0
170 190 0
167 188 0
167 187 0
164 185 0
167 186 0
165 186 0
164 185 0
168 186 0
165 185 0
160 180 0
163 183 0
167 187 0
166 185 0
165 185 0
170 190 0
165 185 0
170 191 0
164 184 0
163 184 0
166 187 0
166 185 0
163 183 0
160 178 0
167 188 0
159 179 0
160 180 0
164 183 0
167 187 0
170 189 0
166 186 0
167 187 0
167 188 0
165 185 0
161 181 0
163 183 0
163 183 0
161 182 0
160 180 0
170 191 0
161 182 0
160 179 0
166 185 0
162 184 0
167 186 0
161 180 0
166 186 0
165 185 0
159 179 0
160 180 0
168 188 0
163 185 0
166 186 0
164 184 0
166 186 0
161 181 0
160 180 0
163 183 0
158 178 0
161 181 0
156 176 0
167 187 0
160 179 0
160 180 0
157 175 0
161 181 0
156 177 0
159 178 0
164 184 0
161 182 0
161 181 0
162 181 0
162 181 0
159 180 0
162 183 0
165 185 0
164 184 0
159 178 0
162 181 0
162 182 0
158 178 0
155 175 0
151 170 0
162 182 0
161 181 0
166 186 0
154 175 0
156 176 0
156 176 0
161 180 0
155 174 0
166 185 0
159 178 0
165 185 0
163 183 0
159 179 0
160 179 0
159 179 0
157 177 0
163 182 0
154 172 0
158 178 0
166 186 0
162 182 0
164 184 0
156 175 0
160 180 0
160 179 0
159 178 0
148 167 0
153 173 0
161 180 0
160 180 0
155 174 0
164 184 0
165 184 0
151 169 0
165 185 0
162 182 0
153 173 0
156 175 0
157 178 0
165 184 0
162 182 0
162 181 0
161 182 0
153 172 0
154 174 0
159 177 0
161 180 0
156 176 0
152 170 0
165 184 0
160 179 0
160 180 0
157 176 0
150 168 0
160 180 0
164 184 0
162 181 0
153 173 0
153 172 0
157 175 0
151 169 0
162 182 0
156 175 0
157 176 0
168 188 0
152 171 0
155 175 0
156 174 0
151 170 0
152 170 0
156 174 0
162 180 0
152 171 0
157 175 0
163 182 0
147 165 0
155 174 0
160 180 0
153 173 0
162 181 0
161 179 0
158 176 0
156 174 0
150 170 0
157 176 0
156 173 0
150 169 0
154 172 0
152 169 0
155 173 0
146 164 0
159 178 0
161 180 0
155 174 0
157 177 0
150 168 0
156 174 0
152 171 0
154 171 0
157 176 0
159 177 0
157 176 0
159 178 0
161 179 0
155 175 0
160 178 0
160 179 0
153 172 0
157 175 0
156 176 0
157 176 0
153 172 0
160 180 0
153 170 0
159 177 0
157 173 0
156 174 0
157 175 0
161 178 0
161 180 0
158 177 0
153 172 0
158 176 0
158 177 0
159 177 0
155 173 0
155 174 0
155 173 0
157 175 0
156 172 0
154 173 0
160 176 0
158 177 0
156 173 0
155 173 0
160 177 0
159 178 0
161 179 0
160 177 0
159 176 0
164 182 0
161 180 0
154 173 0
155 172 0
161 178 0
154 170 0
157 175 0
159 179 0
158 176 0
163 179 0
160 177 0
154 172 0
155 171 0
154 170 0
156 173 0
159 176 0
156 173 0
159 175 0
159 178 0
160 177 0
156 173 0
168 185 0
157 174 0
152 167 0
156 174 0
157 175 0
156 173 0
153 169 0
160 178 0
164 180 0
159 177 0
164 181 0
157 175 0
159 175 0
153 169 0
164 182 0
161 179 0
158 172 0
156 171 0
155 171 0
151 167 0
160 178 0
149 165 0
160 176 0
157 173 0
157 173 0
159 174 0
155 170 0
155 169 0
154 169 0
159 175 0
158 175 0
155 171 0
158 176 0
157 173 0
149 163 0
157 172 0
156 172 0
154 171 0
157 172 0
154 171 0
163 177 0
149 166 0
157 171 0
154 169 0
160 175 0
146 162 0
155 169 0
160 176 0
160 174 0
154 170 0
169 185 0
158 173 0
158 173 0
164 177 0
151 164 0
163 180 0
161 175 0
155 169 0
159 175 0
154 169 0
158 173 0
159 174 0
152 167 0
153 168 0
153 169 0
157 172 0
159 175 0
158 173 0
158 173 0
158 173 0
156 170 0
153 168 0
156 170 0
152 167 0
161 175 0
151 163 0
153 167 0
164 176 0
157 173 0
154 169 0
154 167 0
158 171 0
160 173 0
160 173 0
153 166 0
162 177 0
162 176 0
155 168 0
160 173 0
169 190 0
167 188 0
172 191 0
167 188 0
170 189 0
170 190 0
174 195 0
168 188 0
171 192 0
170 190 0
171 191 0
170 191 0
172 192 0
169 189 0
171 191 0
169 189 0
173 192 0
169 188 0
169 190 0
169 190 0
170 189 0
167 188 0
165 183 0
167 187 0
172 192 0
168 187 0
173 193 0
171 190 0
161 181 0
164 183 0
166 186 0
168 188 0
173 193 0
167 186 0
166 186 0
172 192 0
168 188 0
172 193 0
166 185 0
167 187 0
167 188 0
166 186 0
167 187 0
169 187 0
171 191 0
167 188 0
168 188 0
168 188 0
169 190 0
166 187 0
164 184 0
168 188 0
171 192 0
165 185 0
167 187 0
167 186 0
166 187 0
162 182 0
164 185 0
165 186 0
165 184 0
172 191 0
164 185 0
167 186 0
162 182 0
163 182 0
166 186 0
165 186 0
164 184 0
169 189 0
166 186 0
165 183 0
162 182 0
163 185 0
172 193 0
164 183 0
166 186 0
167 187 0
166 186 0
170 190 0
165 186 0
164 185 0
168 188 0
165 185 0
168 188 0
160 180 0
171 191 0
165 184 0
162 182 0
166 186 0
162 182 0
164 184 0
166 185 0
163 183 0
162 182 0
162 183 0
163 184 0
166 186 0
158 178 0
165 186 0
168 188 0
170 190 0
167 188 0
161 180 0
166 187 0
161 182 0
161 181 0
158 178 0
167 186 0
165 186 0
158 179 0
165 185 0
167 188 0
160 180 0
156 175 0
160 179 0
164 184 0
165 185 0
160 181 0
161 181 0
159 180 0
161 180 0
163 182 0
166 186 0
153 172 0
164 184 0
168 188 0
149 168 0
163 184 0
162 183 0
159 178 0
160 180 0
166 185 0
159 179 0
163 183 0
164 184 0
162 181 0
163 183 0
155 173 0
160 179 0
160 180 0
164 184 0
160 178 0
160 180 0
159 179 0
159 179 0
164 184 0
160 181 0
159 179 0
162 181 0
170 191 0
160 179 0
161 180 0
160 180 0
159 180 0
155 174 0
160 179 0
157 176 0
160 179 0
163 182 0
158 177 0
154 173 0
154 174 0
155 175 0
154 173 0
165 185 0
158 177 0
162 181 0
160 180 0
156 175 0
163 183 0
157 178 0
163 183 0
155 173 0
164 184 0
158 178 0
158 176 0
153 171 0
152 171 0
163 181 0
160 178 0
156 175 0
154 174 0
156 175 0
155 174 0
159 179 0
163 182 0
157 176 0
151 170 0
157 175 0
160 179 0
162 181 0
158 178 0
156 175 0
162 182 0
153 173 0
158 178 0
158 177 0
154 175 0
159 177 0
161 180 0
155 174 0
156 174 0
158 176 0
153 172 0
160 180 0
154 174 0
153 172 0
159 177 0
160 179 0
160 179 0
155 175 0
159 178 0
154 174 0
160 180 0
159 178 0
155 175 0
162 182 0
158 177 0
158 178 0
161 180 0
157 179 0
156 176 0
154 173 0
151 169 0
151 171 0
160 178 0
162 182 0
157 177 0
159 178 0
161 180 0
145 164 0
156 175 0
159 176 0
158 176 0
152 172 0
157 176 0
159 177 0
154 171 0
157 179 0
158 176 0
164 184 0
156 174 0
155 173 0
153 172 0
160 179 0
162 181 0
152 170 0
158 177 0
160 178 0
157 176 0
152 171 0
154 171 0
161 181 0
155 173 0
155 173 0
153 171 0
154 170 0
160 179 0
161 179 0
158 176 0
161 180 0
160 179 0
156 174 0
151 168 0
161 180 0
156 174 0
160 179 0
153 173 0
156 172 0
160 179 0
165 183 0
158 177 0
165 184 0
157 176 0
152 171 0
160 179 0
157 174 0
156 175 0
151 169 0
161 179 0
157 176 0
151 169 0
152 170 0
152 169 0
158 176 0
159 177 0
159 176 0
161 180 0
154 172 0
161 178 0
156 174 0
154 170 0
154 171 0
151 166 0
155 173 0
157 177 0
160 177 0
165 184 0
156 176 0
153 167 0
156 173 0
153 169 0
164 181 0
158 175 0
160 177 0
153 171 0
152 169 0
161 179 0
152 167 0
156 172 0
157 174 0
158 176 0
154 169 0
164 182 0
150 166 0
162 181 0
160 178 0
155 170 0
154 171 0
158 176 0
160 176 0
164 181 0
158 174 0
165 184 0
161 177 0
159 175 0
155 173 0
160 175 0
157 173 0
159 176 0
154 170 0
160 178 0
153 168 0
157 172 0
163 179 0
156 172 0
151 166 0
153 169 0
163 182 0
159 176 0
160 177 0
158 176 0
156 172 0
157 174 0
155 168 0
151 165 0
161 177 0
153 170 0
159 175 0
160 175 0
156 170 0
163 178 0
157 170 0
158 174 0
153 169 0
156 171 0
163 179 0
168 184 0
151 166 0
148 164 0
151 165 0
158 172 0
162 179 0
158 172 0
159 175 0
163 176 0
164 178 0
158 174 0
157 173 0
158 173 0
157 172 0
156 170 0
160 175 0
157 172 0
159 174 0
158 174 0
162 175 0
155 168 0
150 163 0
156 168 0
162 176 0
156 170 0
159 175 0
159 173 0
160 173 0
155 169 0
162 176 0
153 167 0
158 171 0
162 175 0
158 172 0
153 168 0
165 179 0
163 178 0
152 163 0
155 170 0
155 164 0
158 172 0
153 168 0
171 191 0
167 187 0
167 187 0
172 193 0
168 189 0
164 183 0
167 187 0
169 189 0
173 194 0
171 190 0
168 188 0
174 194 0
172 193 0
168 187 0
170 191 0
170 190 0
169 187 0
168 187 0
172 193 0
167 187 0
169 188 0
173 193 0
171 191 0
168 189 0
167 187 0
166 187 0
165 185 0
166 185 0
168 187 0
171 190 0
168 188 0
170 190 0
165 186 0
160 181 0
168 187 0
173 192 0
168 188 0
169 190 0
167 187 0
165 185 0
168 187 0
166 187 0
162 183 0
160 181 0
166 187 0
167 188 0
171 191 0
170 189 0
163 183 0
168 188 0
166 187 0
166 187 0
159 178 0
167 187 0
172 192 0
162 182 0
173 193 0
165 186 0
172 191 0
166 186 0
167 188 0
168 189 0
163 182 0
167 187 0
158 178 0
168 190 0
165 185 0
165 185 0
166 187 0
168 188 0
161 180 0
159 178 0
165 186 0
170 190 0
169 188 0
170 191 0
168 187 0
169 188 0
162 182 0
172 193 0
170 190 0
165 185 0
164 184 0
165 184 0
165 186 0
167 187 0
160 179 0
168 189 0
167 187 0
171 191 0
157 176 0
159 178 0
168 186 0
167 188 0
165 185 0
170 191 0
168 188 0
160 180 0
161 182 0
168 188 0
161 181 0
168 188 0
162 182 0
157 177 0
165 184 0
157 177 0
162 183 0
163 183 0
165 185 0
157 177 0
162 183 0
165 186 0
167 186 0
170 191 0
164 184 0
161 181 0
164 183 0
163 184 0
161 181 0
160 180 0
160 179 0
161 181 0
159 178 0
165 186 0
164 183 0
166 185 0
169 189 0
166 186 0
161 181 0
159 178 0
162 180 0
165 184 0
165 185 0
162 181 0
158 177 0
158 179 0
160 179 0
161 181 0
166 187 0
163 183 0
160 179 0
161 180 0
160 180 0
164 184 0
168 188 0
162 183 0
161 180 0
159 179 0
162 182 0
164 183 0
160 180 0
159 178 0
162 182 0
158 177 0
157 177 0
165 185 0
166 187 0
159 179 0
158 178 0
156 175 0
162 182 0
154 173 0
163 182 0
162 181 0
162 182 0
164 183 0
157 177 0
161 179 0
168 188 0
163 183 0
161 182 0
156 175 0
154 173 0
153 170 0
160 179 0
157 176 0
162 182 0
159 179 0
157 177 0
162 180 0
163 183 0
161 180 0
162 182 0
157 177 0
157 176 0
163 184 0
170 190 0
155 176 0
158 178 0
164 183 0
158 177 0
162 181 0
160 180 0
156 176 0
157 175 0
161 180 0
161 182 0
166 185 0
158 178 0
154 173 0
157 177 0
157 176 0
157 177 0
158 177 0
156 174 0
155 174 0
158 176 0
155 176 0
153 173 0
160 180 0
161 182 0
157 175 0
163 181 0
157 176 0
162 181 0
154 172 0
154 174 0
155 174 0
160 179 0
163 180 0
160 179 0
158 176 0
161 179 0
162 180 0
153 171 0
163 182 0
158 177 0
154 172 0
155 173 0
163 181 0
162 182 0
147 167 0
160 179 0
163 181 0
158 175 0
149 168 0
161 180 0
155 174 0
154 173 0
156 175 0
160 178 0
153 171 0
161 181 0
163 183 0
149 168 0
159 177 0
159 178 0
160 178 0
156 175 0
158 178 0
162 182 0
157 176 0
161 180 0
165 183 0
156 175 0
161 180 0
155 172 0
157 174 0
153 171 0
155 173 0
162 180 0
162 182 0
152 169 0
157 176 0
157 177 0
158 176 0
152 169 0
155 174 0
155 173 0
160 179 0
161 179 0
157 175 0
154 172 0
163 181 0
155 172 0
153 171 0
151 169 0
154 173 0
154 173 0
160 179 0
161 178 0
162 180 0
161 178 0
157 174 0
163 181 0
153 169 0
161 178 0
155 174 0
161 178 0
159 176 0
159 177 0
159 176 0
158 177 0
160 176 0
153 171 0
153 169 0
155 174 0
162 180 0
157 176 0
154 172 0
156 173 0
157 176 0
159 176 0
163 181 0
151 169 0
155 173 0
152 167 0
157 174 0
146 162 0
157 175 0
157 174 0
162 177 0
154 170 0
155 173 0
163 181 0
160 177 0
159 177 0
161 177 0
157 175 0
157 173 0
155 170 0
159 175 0
152 167 0
154 171 0
157 175 0
138 154 0
158 174 0
157 175 0
163 181 0
163 181 0
167 185 0
153 169 0
151 168 0
160 177 0
151 168 0
156 173 0
161 178 0
160 176 0
150 167 0
161 177 0
147 163 0
163 179 0
155 171 0
151 168 0
151 166 0
158 175 0
161 178 0
157 170 0
158 173 0
161 179 0
156 171 0
152 167 0
162 178 0
155 169 0
161 176 0
150 166 0
163 180 0
161 177 0
164 180 0
160 175 0
151 166 0
162 179 0
152 167 0
157 174 0
157 170 0
157 173 0
150 163 0
154 168 0
164 179 0
159 175 0
157 174 0
157 170 0
156 171 0
159 174 0
152 166 0
161 176 0
165 181 0
154 167 0
162 177 0
164 180 0
155 171 0
161 176 0
159 171 0
163 178 0
161 175 0
164 179 0
154 167 0
161 176 0
159 173 0
163 178 0
152 164 0
160 173 0
162 177 0
162 174 0
157 172 0
158 173 0
151 164 0
151 165 0
152 168 0
159 172 0
